AgX Luts/Look/AgX - Powerful.cube
LUT_3D_SIZE 5
DOMAIN_MIN 0.000000 0.000000 0.000000
DOMAIN_MAX 0.903226 0.903226 0.903226
0 0 1.2387034172844e-15
0.0099860355257988 0 0
0.44097033143044 0 0
1 0.17689247429371 0.10709401220083
1 0.81253069639206 0.73750442266464
0 0.018507970497012 0.0018702792003751
0.024117819964886 0.020528726279736 0
0.4309878051281 0.029624257236719 0
1 0.20163868367672 0.10918384790421
1 0.81557482481003 0.73818457126617
0.00024081631272566 0.39075526595116 0
0.041302304714918 0.37154492735863 0
0.38779684901237 0.33458885550499 0
1 0.34476444125175 0.13851989805698
1 0.83173060417175 0.74307644367218
0.38129124045372 1 0.25660866498947
0.39541384577751 1 0.25838711857796
0.48364409804344 1 0.26807075738907
0.99108827114105 0.92465877532959 0.3550106883049
1 0.94865942001343 0.77930068969727
0.98303872346878 1 0.88853192329407
0.98416072130203 1 0.88870942592621
0.99105477333069 1 0.88979017734528
1 1 0.89786148071289
1 1 0.9682999253273
0 0.00053637614473701 0.010960310697556
0.016960414126515 0 0.021424029022455
0.46166500449181 0 0.027810540050268
1 0.19131401181221 0.14981782436371
1 0.81493270397186 0.74411296844482
0 0.024697776883841 0.025498794391751
0.021461222320795 0.021454028785229 0.021452888846397
0.49301275610924 0.015752414241433 0.010122190229595
1 0.21649001538754 0.15385533869267
1 0.81795769929886 0.74479430913925
0 0.39758461713791 0.014162289910018
0.02202701382339 0.38131415843964 0.0077364221215248
0.37770888209343 0.33110386133194 0.0063156145624816
1 0.35736384987831 0.17700822651386
1 0.83396166563034 0.74954479932785
0.39045867323875 1 0.2855536043644
0.40368646383286 1 0.28716269135475
0.48904132843018 1 0.29650697112083
0.98837304115295 0.92441469430923 0.37553796172142
1 0.95004194974899 0.78393518924713
0.98404848575592 1 0.8913568854332
0.98510700464249 1 0.89151746034622
0.99186563491821 1 0.89254325628281
1 1 0.90059965848923
1 1 0.97008413076401
0 0.023560145869851 0.42998352646828
0.01731070317328 0.01128201559186 0.51689022779465
0.45527479052544 0.003924909979105 0.48311442136765
1 0.2512868642807 0.36473542451859
1 0.82861465215683 0.78156894445419
0 0.063563212752342 0.45297080278397
0.0092520732432604 0.047872073948383 0.52328169345856
0.41846689581871 0.041139159351587 0.43918466567993
1 0.28374189138412 0.36965876817703
1 0.83153480291367 0.78208720684052
0 0.40584850311279 0.41313084959984
0.029465582221746 0.38283348083496 0.38888135552406
0.34176766872406 0.34170046448708 0.34169030189514
1 0.41863286495209 0.38116437196732
1 0.84689921140671 0.78588306903839
0.43147572875023 1 0.43690329790115
0.44481936097145 1 0.43740028142929
0.51981210708618 0.99055415391922 0.44165417551994
0.97451967000961 0.92373514175415 0.48495030403137
1 0.95823872089386 0.81168502569199
0.98896425962448 1 0.90839296579361
0.98999893665314 1 0.90854626893997
0.99644750356674 1 0.9094380736351
1 1 0.91674149036407
1 1 0.98068881034851
0.11224488168955 0.27440315485001 1
0.14993540942669 0.28091025352478 1
0.35130190849304 0.30859488248825 1
1 0.42470782995224 1
1 0.88602113723755 0.96793138980865
0.11326022446156 0.30558648705482 1
0.15845087170601 0.31097626686096 1
0.35498553514481 0.33718210458755 1
1 0.44513288140297 1
1 0.8894214630127 0.96849328279495
0.18403762578964 0.46282136440277 1
0.21455200016499 0.46683901548386 1
0.39227589964867 0.48960876464844 1
1 0.54905170202255 1
1 0.90895509719849 0.97186034917831
0.5090639591217 0.98244327306747 0.98663836717606
0.52068114280701 0.98048233985901 0.98471474647522
0.5884764790535 0.97022688388824 0.97418624162674
0.9343603849411 0.93429982662201 0.93429332971573
1 1 0.98050081729889
1 1 1
1 1 1
1 1 1
1 1 1
1 1 1
0.73720276355743 0.87908428907394 1
0.74234771728516 0.88009548187256 1
0.7732207775116 0.88611352443695 1
0.95028692483902 0.91535449028015 1
1 1 1
0.7380194067955 0.882408618927 1
0.74380910396576 0.88345658779144 1
0.77455103397369 0.88943517208099 1
0.95079046487808 0.91850453615189 1
1 1 1
0.74330234527588 0.90188401937485 1
0.74900758266449 0.90289413928986 1
0.78272426128387 0.90890252590179 1
0.95274096727371 0.93475067615509 1
1 1 1
0.81869208812714 1 1
0.82212483882904 1 1
0.84253406524658 1 1
0.98260903358459 1 1
1 1 1
1 1 1
1 1 1
1 1 1
1 1 1
1 1 1
