AgX Luts/Look/AgX - Powerful.cube
LUT_3D_SIZE 8
DOMAIN_MIN 0.000000 0.000000 0.000000
DOMAIN_MAX 0.903226 0.903226 0.903226
0 0 1.2387034172844e-15
0 0 1.2387034172844e-15
0.022298917174339 0 0
0.19166718423367 0 0
0.85948878526688 0.0025439877063036 0
1 0.10543728619814 0.049555644392967
1 0.44780492782593 0.36147412657738
1 0.81253069639206 0.73750442266464
0 0.00054710422409698 3.0909493943909e-05
0.0019787796773016 0.0016895672306418 0
0.032773651182652 0.0036122989840806 0
0.19417256116867 0.010471914894879 0
0.82998186349869 0.015735097229481 0
1 0.12168001383543 0.050015546381474
1 0.45363214612007 0.36199086904526
1 0.81405234336853 0.73784184455872
0 0.031935848295689 0.002207419835031
0.0077140014618635 0.0330940335989 0
0.040531747043133 0.034763529896736 0
0.20084637403488 0.039607051759958 0
0.80188095569611 0.043915264308453 0
1 0.14527429640293 0.052265610545874
1 0.46202230453491 0.36373147368431
1 0.81645274162292 0.7383850812912
0 0.19144770503044 0
0.015505129471421 0.18467234075069 0
0.050025306642056 0.18165604770184 0
0.20585480332375 0.17621311545372 0
0.73123997449875 0.16145943105221 0
1 0.22558765113354 0.062887161970139
1 0.49096149206161 0.37099745869637
1 0.82381731271744 0.7404248714447
0.02570229396224 0.62535983324051 0
0.04661750048399 0.61485838890076 0
0.079414173960686 0.60255843400955 0
0.19928902387619 0.57225149869919 0
0.58459764719009 0.51277613639832 0.0050109247677028
1 0.44505706429482 0.11203102022409
1 0.57908093929291 0.39571294188499
1 0.84786480665207 0.74719858169556
0.28959515690804 0.96623641252518 0.17040710151196
0.29912295937538 0.96375399827957 0.17144605517387
0.31448981165886 0.95975321531296 0.17301250994205
0.36779376864433 0.94674307107925 0.17788009345531
0.52091366052628 0.91467559337616 0.1970753967762
0.92024922370911 0.85032171010971 0.26174965500832
1 0.78671354055405 0.46782341599464
1 0.91964650154114 0.76959818601608
0.65809351205826 1 0.53858798742294
0.66061329841614 1 0.53898030519485
0.66460156440735 1 0.53960627317429
0.67860251665115 1 0.54151701927185
0.72669118642807 1 0.54767453670502
0.85631942749023 1 0.56945955753326
1 1 0.6367279291153
1 1 0.83088481426239
0.98303872346878 1 0.88853192329407
0.98359233140945 1 0.88861912488937
0.984490275383 1 0.88876265287399
0.98746383190155 1 0.88923901319504
0.99824684858322 1 0.8906791806221
1 1 0.89538979530334
1 1 0.91203016042709
1 1 0.9682999253273
0 9.0789408204728e-06 0.00027873989893124
0 2.7901303838007e-05 0.00079464184818789
0.026135578751564 0 0.0029473849572241
0.18487076461315 0 0.0091016916558146
0.94091761112213 0 0
1 0.11163934320211 0.06904099881649
1 0.45171192288399 0.3725301027298
1 0.81373161077499 0.74078130722046
0 0.0030256423633546 0.003224077867344
0.0033059250563383 0.0033048954792321 0.0033047408796847
0.041439071297646 0.0023057439830154 0.0017750365659595
0.24561321735382 0 0
0.91702193021774 0.0056201331317425 0
1 0.12828181684017 0.070683151483536
1 0.45779111981392 0.37365597486496
1 0.81524902582169 0.74112665653229
0 0.034226760268211 0.0090252906084061
0.00063824543030933 0.036088105291128 0.00044413364958018
0.037574898451567 0.03263795375824 0
0.22568669915199 0.029386749491096 0
0.8561584353447 0.034714080393314 0
1 0.15244869887829 0.074436277151108
1 0.4662090241909 0.37581378221512
1 0.81764197349548 0.74168312549591
0 0.19865040481091 0.0043869139626622
0.0014133824734017 0.19986030459404 0
0.03547241166234 0.18915542960167 0
0.20597323775291 0.17661851644516 0
0.74375450611115 0.15736483037472 0
1 0.23337821662426 0.085683472454548
1 0.49487417936325 0.38268437981606
1 0.82495832443237 0.7437117099762
0.025792358443141 0.61735445261002 0.004622807726264
0.046745117753744 0.60735434293747 0.0047187898308039
0.078305326402187 0.59564030170441 0.0045922943390906
0.1959398239851 0.56590414047241 0.0071583278477192
0.57779133319855 0.51080274581909 0.019950514659286
1 0.44912219047546 0.1319959461689
1 0.58242154121399 0.40519726276398
1 0.84888935089111 0.75035935640335
0.29578456282616 0.96265685558319 0.18820308148861
0.30459520220757 0.9603767991066 0.18918956816196
0.31977090239525 0.95652157068253 0.19070291519165
0.37235760688782 0.9438037276268 0.19562438130379
0.52195000648499 0.91296982765198 0.21413287520409
0.91830235719681 0.85011076927185 0.27496260404587
1 0.78809410333633 0.4750682413578
1 0.92049896717072 0.77217054367065
0.66013717651367 1 0.54447001218796
0.66248095035553 1 0.5448192358017
0.66628384590149 1 0.54539614915848
0.68030196428299 1 0.5472583770752
0.72794926166534 1 0.55339950323105
0.85664522647858 1 0.57480120658875
1 1 0.6406175494194
1 1 0.83270823955536
0.98354190587997 1 0.88994073867798
0.98406988382339 1 0.89002102613449
0.98490941524506 1 0.89014941453934
0.98785817623138 1 0.89061802625656
0.99864673614502 1 0.89204609394073
1 1 0.89677107334137
1 1 0.91328102350235
1 1 0.96918946504593
0 0.0010279078269377 0.019383572041988
0.0015190305421129 0.00012508276267909 0.028781969100237
0.031744856387377 0 0.037113193422556
0.2008915245533 0 0.043962806463242
0.9359410405159 0 0.035594880580902
1 0.12595303356647 0.10893020033836
1 0.45853355526924 0.39135983586311
1 0.81562483310699 0.74603033065796
0 0.0089839361608028 0.03078568354249
0.001620706403628 0.0053029335103929 0.046795707195997
0.03813574463129 0.0041020545177162 0.042301312088966
0.23871549963951 0.00134855392389 0.035754855722189
0.88870841264725 0.0085456818342209 0.027341755107045
1 0.14112269878387 0.11018801480532
1 0.46452155709267 0.39240831136703
1 0.81713455915451 0.74636387825012
0 0.039498522877693 0.04082078486681
0.00017191814549733 0.038491677492857 0.039440665394068
0.034637942910194 0.034627631306648 0.034626245498657
0.22004914283752 0.029700346291065 0.026991367340088
0.83431243896484 0.037678405642509 0.023850280791521
1 0.16643261909485 0.11189532279968
1 0.472616314888 0.39453247189522
1 0.81951534748077 0.74690097570419
0 0.20183776319027 0.038747299462557
0 0.2055356502533 0.028017846867442
0.028533089905977 0.19095677137375 0.021398859098554
0.19822546839714 0.17563796043396 0.015974644571543
0.72190135717392 0.16089980304241 0.022702509537339
1 0.24527335166931 0.12171874940395
1 0.50147622823715 0.40101110935211
1 0.82675564289093 0.74887752532959
0.030666396021843 0.60773527622223 0.035458564758301
0.051467198878527 0.59850460290909 0.034924201667309
0.084312617778778 0.58699923753738 0.034734476357698
0.19973012804985 0.55960953235626 0.037039775401354
0.56889349222183 0.50916707515717 0.053097635507584
1 0.45658576488495 0.16357189416885
1 0.58749824762344 0.41973343491554
1 0.85052919387817 0.75532430410385
0.30350178480148 0.95759308338165 0.21734714508057
0.31214484572411 0.95538139343262 0.21829381585121
0.32710492610931 0.95172345638275 0.21966575086117
0.37737759947777 0.93983834981918 0.22419282793999
0.52668178081512 0.90984916687012 0.24018757045269
0.91538643836975 0.84982526302338 0.2964178621769
1 0.79025030136108 0.48694309592247
1 0.92179536819458 0.77601009607315
0.66327154636383 1 0.55380815267563
0.66557091474533 1 0.55415517091751
0.66921150684357 1 0.55471003055573
0.68241113424301 1 0.55641835927963
0.72965979576111 1 0.56242805719376
0.85781836509705 1 0.58356940746307
1 1 0.6467337012291
1 1 0.83559262752533
0.98434209823608 1 0.89217603206635
0.98486918210983 1 0.89225590229034
0.98570811748505 1 0.89238250255585
0.98848593235016 1 0.89280533790588
0.99928104877472 1 0.89421397447586
1 1 0.89896261692047
1 1 0.91526621580124
1 1 0.97060281038284
0 0.0090318880975246 0.16630730032921
0.004807086661458 0.0043279202654958 0.21705977618694
0.037844721227884 0.0024042895529419 0.23369856178761
0.23030325770378 0 0.25635460019112
0.88011354207993 0.0024083734024316 0.20416052639484
1 0.1601954549551 0.22950555384159
1 0.47936940193176 0.44718310236931
1 0.8217266201973 0.76283049583435
0 0.025291886180639 0.20133233070374
0 0.015402877703309 0.27054506540298
0.03122472204268 0.011088648810983 0.26210668683052
0.21899326145649 0.0080369589850307 0.23977206647396
0.83209329843521 0.018496323376894 0.1909431219101
1 0.177136272192 0.23249039053917
1 0.48446235060692 0.44790923595428
1 0.82321256399155 0.76312655210495
0 0.059430360794067 0.21768666803837
0 0.052303787320852 0.25583773851395
0.027074851095676 0.045495476573706 0.24305121600628
0.20662976801395 0.039553914219141 0.21936467289925
0.77866995334625 0.053328115493059 0.18129059672356
1 0.206403657794 0.23478703200817
1 0.49220117926598 0.44916164875031
1 0.82555663585663 0.76360327005386
0 0.2158782184124 0.22260217368603
0 0.21133361756802 0.21696725487709
0.021640855818987 0.20177847146988 0.20587940514088
0.18510815501213 0.18505729734898 0.18504795432091
0.66491436958313 0.1857426315546 0.1729578524828
1 0.27981081604958 0.23959527909756
1 0.52041035890579 0.45218303799629
1 0.83254909515381 0.76542460918427
0.050175361335278 0.58914506435394 0.18068696558475
0.071527577936649 0.58117246627808 0.179747402668
0.10365814715624 0.57096183300018 0.17971414327621
0.21275550127029 0.54862970113754 0.17640806734562
0.54925161600113 0.50896632671356 0.18175925314426
1 0.47703683376312 0.26276645064354
1 0.60269623994827 0.4682791531086
1 0.8561669588089 0.77116656303406
0.32674440741539 0.9442412853241 0.30381253361702
0.33584398031235 0.94209122657776 0.30429327487946
0.3508169054985 0.93853211402893 0.30491229891777
0.39985227584839 0.92783510684967 0.3072909116745
0.53957957029343 0.90187430381775 0.31872087717056
0.90642219781876 0.84920990467072 0.36136838793755
1 0.79835307598114 0.523053586483
1 0.9259991645813 0.7883859872818
0.6715674996376 1 0.58442264795303
0.67384171485901 1 0.58474922180176
0.67744356393814 1 0.58527147769928
0.69093406200409 1 0.58679002523422
0.73519343137741 1 0.59201216697693
0.86251676082611 1 0.6101735830307
1 1 0.66634887456894
1 1 0.84497994184494
0.98662465810776 1 0.89963394403458
0.98714137077332 1 0.89971369504929
0.98796552419662 1 0.8998407125473
0.99069213867188 1 0.90026360750198
1 1 0.90154081583023
1 1 0.90615141391754
1 1 0.92191106081009
1 1 0.97525721788406
0 0.048008944839239 0.81926810741425
0 0.041269775480032 0.86189579963684
0.026530645787716 0.033570855855942 0.87416452169418
0.17312315106392 0.030952569097281 0.82011294364929
0.6959610581398 0.044582918286324 0.7066598534584
1 0.20313085615635 0.50945156812668
1 0.52344852685928 0.58898347616196
1 0.84020382165909 0.81112802028656
0 0.066618487238884 0.81128531694412
0 0.059169009327888 0.87419724464417
0.022127447649837 0.052913121879101 0.86405181884766
0.17035968601704 0.050101403146982 0.80279892683029
0.67333650588989 0.067696772515774 0.68510800600052
1 0.2205493748188 0.50860697031021
1 0.52883613109589 0.59004437923431
1 0.84151148796082 0.81129348278046
0 0.1044088229537 0.80329090356827
0 0.097197838127613 0.85105055570602
0.024864172562957 0.090890176594257 0.82918930053711
0.16954064369202 0.089655302464962 0.76480108499527
0.64437955617905 0.10744837671518 0.65758335590363
1 0.24812358617783 0.50815272331238
1 0.5399255156517 0.59223437309265
1 0.84341645240784 0.81161570549011
0 0.24566254019737 0.76548326015472
0.001669954857789 0.2388006746769 0.76025021076202
0.036697633564472 0.22836071252823 0.73200571537018
0.17762784659863 0.22819942235947 0.6728338599205
0.58132410049438 0.23381242156029 0.59648770093918
1 0.33186140656471 0.50744581222534
1 0.56936681270599 0.59527468681335
1 0.84958040714264 0.81273037195206
0.066732220351696 0.58346527814865 0.58992499113083
0.087719038128853 0.57706165313721 0.58345097303391
0.1256759762764 0.56778937578201 0.57378709316254
0.22837184369564 0.54919743537903 0.55380773544312
0.5203173160553 0.5202454328537 0.52023655176163
1 0.52868884801865 0.51230257749557
1 0.64323318004608 0.60223400592804
1 0.87282800674438 0.81573390960693
0.37662705779076 0.92100191116333 0.52124381065369
0.38591507077217 0.91900217533112 0.52147263288498
0.40116226673126 0.91589933633804 0.52185118198395
0.44372329115868 0.90745407342911 0.52375900745392
0.56767910718918 0.88747853040695 0.52306419610977
0.88674092292786 0.85014814138412 0.53500157594681
1 0.82014411687851 0.62833935022354
1 0.93889129161835 0.82991713285446
0.69613611698151 1 0.66994577646255
0.69859433174133 1 0.67010867595673
0.70268565416336 1 0.67033416032791
0.71594715118408 1 0.67112296819687
0.75865519046783 1 0.67396849393845
0.87476712465286 1 0.68567103147507
1 1 0.72672885656357
1 1 0.87460732460022
0.99313700199127 1 0.92384976148605
0.99364811182022 1 0.92392063140869
0.99446266889572 1 0.9240328669548
0.99715954065323 1 0.92440897226334
1 1 0.92547851800919
1 1 0.92920887470245
1 1 0.94360661506653
1 1 0.99038022756577
0.053524669259787 0.19905672967434 1
0.072095073759556 0.2019354403019 1
0.10480724275112 0.20685912668705 1
0.21654084324837 0.22164283692837 1
0.49041220545769 0.2433942258358 1
1 0.33179327845573 1
1 0.57186156511307 0.84478038549423
1 0.87771970033646 0.92847090959549
0.04971869289875 0.21850863099098 1
0.076708860695362 0.22027704119682 1
0.1083667203784 0.22587777674198 1
0.21705673635006 0.2392351180315 1
0.49033331871033 0.25950929522514 1
1 0.34515258669853 1
1 0.57731705904007 0.84468102455139
1 0.87900859117508 0.92872726917267
0.052993904799223 0.2460677921772 1
0.077466517686844 0.24825949966908 1
0.11603038012981 0.25330299139023 1
0.22061958909035 0.26508393883705 1
0.49055495858192 0.28743395209312 1
1 0.36647936701775 1
1 0.5856642127037 0.84497761726379
1 0.88126212358475 0.92917591333389
0.083661295473576 0.33635911345482 1
0.10702972859144 0.33939898014069 1
0.14031299948692 0.34331676363945 1
0.24407549202442 0.35533863306046 1
0.4960495531559 0.37496909499168 1
0.98459601402283 0.42896887660027 0.98812127113342
1 0.61434286832809 0.84507185220718
1 0.89033770561218 0.93101346492767
0.18977257609367 0.5610738992691 1
0.20641295611858 0.56167542934418 1
0.23354180157185 0.56263381242752 1
0.31065338850021 0.56207728385925 1
0.51931828260422 0.57406449317932 1
0.91852688789368 0.58767145872116 0.92843759059906
1 0.69502454996109 0.84612953662872
1 0.91397881507874 0.93354386091232
0.41322275996208 0.91176474094391 0.91634202003479
0.42132240533829 0.9103285074234 0.91492927074432
0.43422794342041 0.90808820724487 0.91272336244583
0.47705948352814 0.90105056762695 0.90577507019043
0.59173142910004 0.88512402772903 0.88881939649582
0.86011278629303 0.86005055904388 0.86004322767258
1 0.86750072240829 0.85392260551453
1 0.97194802761078 0.93918836116791
0.74439299106598 1 0.86163771152496
0.7468558549881 1 0.86173057556152
0.75075662136078 1 0.8618791103363
0.76350861787796 1 0.8623782992363
0.80004298686981 1 0.86429178714752
0.90185701847076 1 0.86435782909393
1 1 0.87475925683975
1 1 0.95874160528183
1 1 0.9913404583931
1 1 0.9913694858551
1 1 0.99141651391983
1 1 0.99157363176346
1 1 0.99212044477463
1 1 0.99410623311996
1 1 1
1 1 1
0.3674920797348 0.53898572921753 1
0.37701934576035 0.54086989164352 1
0.39219397306442 0.54383563995361 1
0.44054156541824 0.5531730055809 1
0.57136255502701 0.57470828294754 1
0.83073037862778 0.60441762208939 1
1 0.69911652803421 1
1 0.91701942682266 1
0.36870667338371 0.54576820135117 1
0.37963515520096 0.54763638973236 1
0.3948637843132 0.55056953430176 1
0.44230979681015 0.55975341796875 1
0.57176434993744 0.58102214336395 1
0.83078896999359 0.60935097932816 1
1 0.7029036283493 1
1 0.91827088594437 1
0.3706887960434 0.55633819103241 1
0.38152921199799 0.55817443132401 1
0.39914846420288 0.56106495857239 1
0.445177257061 0.57001119852066 1
0.57291042804718 0.59009897708893 1
0.83093410730362 0.61706870794296 1
1 0.70884972810745 1
1 0.92022949457169 1
0.38092973828316 0.58758926391602 1
0.39165636897087 0.58935177326202 1
0.40723946690559 0.59203153848648 1
0.45658823847771 0.60056757926941 1
0.57809382677078 0.61735266447067 1
0.83188170194626 0.64673334360123 1
1 0.72784179449081 1
1 0.92660838365555 1
0.43198159337044 0.68378603458405 1
0.44115686416626 0.68535506725311 1
0.45558607578278 0.68782830238342 1
0.49353593587875 0.6934586763382 1
0.60765808820724 0.70985871553421 1
0.83837741613388 0.73184031248093 1
1 0.78395795822144 1
1 0.9494337439537 1
0.56537330150604 0.88890701532364 1
0.57032418251038 0.88924711942673 1
0.5784415602684 0.8897876739502 1
0.60448276996613 0.89124542474747 1
0.67852056026459 0.89237117767334 1
0.86083972454071 0.90506607294083 1
1 0.91672116518021 1
1 1 1
0.77759176492691 1 1
0.77960366010666 1 1
0.78279626369476 1 1
0.79327464103699 1 1
0.82831156253815 1 1
0.92145693302155 1 1
1 1 1
1 1 1
1 1 1
1 1 1
1 1 1
1 1 1
1 1 1
1 1 1
1 1 1
1 1 1
0.73720276355743 0.87908428907394 1
0.73972940444946 0.87958830595016 1
0.74386435747147 0.88038951158524 1
0.75744390487671 0.88302928209305 1
0.80021274089813 0.89151233434677 1
0.90775293111801 0.9098562002182 1
1 0.93423438072205 1
1 1 1
0.7376195192337 0.880744099617 1
0.74046158790588 0.88126718997955 1
0.74458819627762 0.88206559419632 1
0.75813853740692 0.88469672203064 1
0.80068135261536 0.89313399791718 1
0.90787142515182 0.91132336854935 1
1 0.93542975187302 1
1 1 1
0.73825234174728 0.88337182998657 1
0.74114090204239 0.88389390707016 1
0.74574452638626 0.8847216963768 1
0.7592493891716 0.88733923435211 1
0.8014332652092 0.89570319652557 1
0.90806519985199 0.91364759206772 1
1 0.93732684850693 1
1 1 1
0.74049478769302 0.89196521043777 1
0.74337750673294 0.8924788236618 1
0.74795472621918 0.89329469203949 1
0.76296263933182 0.89598095417023 1
0.80396395921707 0.90410608053207 1
0.90877705812454 0.92120885848999 1
1 0.94361490011215 1
1 1 1
0.75010693073273 0.91780036687851 1
0.7528977394104 0.91827219724655 1
0.75732934474945 0.91902238130569 1
0.77189177274704 0.92149382829666 1
0.81368440389633 0.92897033691406 1
0.91294884681702 0.94324278831482 1
1 0.9671516418457 1
1 1 1
0.79650193452835 0.99511361122131 1
0.79869508743286 0.9955016374588 1
0.80229109525681 0.99611914157867 1
0.81429958343506 0.99815481901169 1
0.84527117013931 1 1
0.93752682209015 1 1
1 1 1
1 1 1
0.90601766109467 1 1
0.90718901157379 1 1
0.9090524315834 1 1
0.91520535945892 1 1
0.93498998880386 1 1
0.99308109283447 1 1
1 1 1
1 1 1
1 1 1
1 1 1
1 1 1
1 1 1
1 1 1
1 1 1
1 1 1
1 1 1
