AgX Luts/Look/AgX - Powerful.cube
LUT_3D_SIZE 32
0 0 1.2387034172844e-15
0 0 1.2387034172844e-15
0 0 1.2387034172844e-15
0 0 1.2387034172844e-15
0 0 1.2387034172844e-15
0 0 1.2387034172844e-15
0.0028121862560511 0 0
0.0099860355257988 0 0
0.022298917174339 0 0
0.042349357157946 0 0
0.073196761310101 0 0
0.11998517811298 0 0
0.19166718423367 0 0
0.29331389069557 0 0
0.44097033143044 0 0
0.63371139764786 0.0010698965052143 0
0.85948878526688 0.0025439877063036 0
1 0.0058669885620475 0
1 0.018586752936244 0
1 0.051239158958197 0.014215806499124
1 0.10543728619814 0.049555644392967
1 0.17689247429371 0.10709401220083
1 0.26059001684189 0.18136641383171
1 0.3523251414299 0.26804703474045
1 0.44780492782593 0.36147412657738
1 0.54330044984818 0.45762899518013
1 0.6368008852005 0.55382949113846
1 0.72692972421646 0.64779812097549
1 0.81253069639206 0.73750442266464
1 0.89324927330017 0.82306027412415
1 0.96865165233612 0.90318435430527
1 1 0.97798424959183
0 0 1.2387034172844e-15
0 0 1.2387034172844e-15
0 0 1.2387034172844e-15
0 0 1.2387034172844e-15
0 0 1.2387034172844e-15
0.00059132458409294 0 0
0.0048415046185255 0 0
0.012755900621414 0 0
0.025656595826149 0 0
0.046030908823013 0 0
0.077043175697327 0 0
0.12503352761269 0 0
0.19488057494164 0 0
0.29059997200966 0.0023670294322073 0
0.43807944655418 0.0028577013872564 0
0.62791126966476 0.0037394561804831 0
0.8497616648674 0.0055249603465199 0
1 0.0089205708354712 0
1 0.022331789135933 0
1 0.055915497243404 0.014307649806142
1 0.10963068902493 0.049613431096077
1 0.18032491207123 0.10724657773972
1 0.26327282190323 0.18151924014091
1 0.3543843626976 0.26818850636482
1 0.44927963614464 0.36159953474998
1 0.54435247182846 0.45772725343704
1 0.63759183883667 0.5539972782135
1 0.72746586799622 0.64792019128799
1 0.81291246414185 0.73758852481842
1 0.89350932836533 0.82312089204788
1 0.9688286781311 0.90322607755661
1 1 0.97801250219345
0 0 1.2387034172844e-15
0 0 1.2387034172844e-15
0 0 1.2387034172844e-15
0 0 1.2387034172844e-15
0 0 1.2387034172844e-15
0.0021558029111475 0 0
0.0071925898082554 0 0
0.015409955754876 0 0
0.028824850916862 0 0
0.049508046358824 0 0
0.081141397356987 0 0
0.12715715169907 0.00013180464156903 0
0.19337673485279 0.0027868051547557 0
0.2914018034935 0.0050859651528299 0
0.43621429800987 0.005693756043911 0
0.62274241447449 0.0067872856743634 0
0.8430387377739 0.0084033664315939 0
1 0.012574454769492 0
1 0.026608645915985 0
1 0.060476705431938 0.014314549043775
1 0.11370149254799 0.049691777676344
1 0.18368457257748 0.10741262882948
1 0.26591423153877 0.18168042600155
1 0.35642060637474 0.26833435893059
1 0.45074197649956 0.36172747612
1 0.54539853334427 0.45782697200775
1 0.63837969303131 0.55416572093964
1 0.72800064086914 0.64804291725159
1 0.81329333782196 0.73767292499542
1 0.89376878738403 0.82318139076233
1 0.96900582313538 0.90326809883118
1 1 0.97804188728333
0 0 1.2387034172844e-15
0 0 1.2387034172844e-15
0 0 1.2387034172844e-15
0 0 1.2387034172844e-15
0.00073287769919261 0 0
0.0041707293130457 0 0
0.0095123136416078 0 0
0.018485773354769 0 0
0.031799506396055 0 0
0.051635213196278 0.00077251245966181 0
0.081937156617641 0.0021702770609409 0
0.12715341150761 0.0039603188633919 0
0.19347494840622 0.0063890190795064 0
0.29246243834496 0.0083032082766294 0
0.43520924448967 0.0088276900351048 0
0.61941713094711 0.0099092051386833 0
0.83679383993149 0.011894104070961 0
1 0.015884116292 0
1 0.030922178179026 0
1 0.064985103905201 0.014286101795733
1 0.1178326010704 0.049789134413004
1 0.18703782558441 0.10759145021439
1 0.26851606369019 0.18184916675091
1 0.35843452811241 0.26848492026329
1 0.45219296216965 0.36185809969902
1 0.54646283388138 0.45798227190971
1 0.63916355371475 0.55433440208435
1 0.72853368520737 0.64816534519196
1 0.81367319822311 0.73775726556778
1 0.89402782917023 0.82324224710464
1 0.96918338537216 0.90330928564072
1 1 0.97807043790817
0 0.00054710422409698 3.0909493943909e-05
0 0.00081490882439539 4.3566076783463e-05
0 0.0011167430784553 5.5087446526159e-05
0 0.0014325615484267 6.6616594267543e-05
0.0019787796773016 0.0016895672306418 0
0.0057656201533973 0.0019663150887936 0
0.011341257020831 0.002354443538934 0
0.019748914986849 0.0028898629825562 0
0.032773651182652 0.0036122989840806 0
0.052706357091665 0.0044979266822338 0
0.082921922206879 0.0057539097033441 0
0.12801399827003 0.007715804502368 0
0.19417256116867 0.010471914894879 0
0.29342466592789 0.011930191889405 0
0.43425515294075 0.012572795152664 0
0.61598056554794 0.013525507412851 0
0.82998186349869 0.015735097229481 0
1 0.019547961652279 0
1 0.035002768039703 0
1 0.069223329424858 0.014415486715734
1 0.12168001383543 0.050015546381474
1 0.19033306837082 0.10782845318317
1 0.27107954025269 0.18202523887157
1 0.36042666435242 0.26863986253738
1 0.45363214612007 0.36199086904526
1 0.54755413532257 0.45821279287338
1 0.63994479179382 0.55450350046158
1 0.72906529903412 0.64828830957413
1 0.81405234336853 0.73784184455872
1 0.89428663253784 0.82330316305161
1 0.96935999393463 0.90335088968277
1 1 0.97809886932373
0 0.0042784456163645 0.00018993196135852
0 0.0046127587556839 0.00021648568508681
0 0.0049602016806602 0.00024798745289445
0 0.0053789941594005 0
0.0029110361356288 0.0055667534470558 0
0.0067829135805368 0.0057895160280168 0
0.012254264205694 0.0061958371661603 0
0.0207359790802 0.0067755477502942 0
0.034067492932081 0.0075455913320184 0
0.0540343336761 0.0084889680147171 0
0.084175042808056 0.010031126439571 0
0.12916491925716 0.012149329297245 0
0.19514556229115 0.0151173369959 0
0.29441511631012 0.015794260427356 0
0.43355259299278 0.016531374305487 0
0.61251866817474 0.017726419493556 0
0.82387685775757 0.019862703979015 0
1 0.023569006472826 0
1 0.038808859884739 0
1 0.073454387485981 0.014864824712276
1 0.12525796890259 0.050340335816145
1 0.19330689311028 0.10816257447004
1 0.27332112193108 0.18231680989265
1 0.36237460374832 0.26883083581924
1 0.45510566234589 0.36213034391403
1 0.54867422580719 0.45845183730125
1 0.64074754714966 0.55467855930328
1 0.72961217164993 0.64841556549072
1 0.81444323062897 0.73792916536331
1 0.89455318450928 0.82336634397507
1 0.96954256296158 0.90339428186417
1 1 0.97812819480896
0 0.0097065661102533 0.00073621049523354
0 0.010173924267292 0.00078712304821238
0 0.010696029290557 0.00020744977518916
0.00027767333085649 0.0111687136814 0
0.004052396863699 0.011213626712561 0
0.0079954611137509 0.011391772888601 0
0.013540370389819 0.011703106574714 0
0.022231178358197 0.012289108708501 0
0.035588227212429 0.013053514063358 0
0.055648118257523 0.01413538493216 0
0.085799016058445 0.015951536595821 0
0.13068029284477 0.018234552815557 0
0.19706664979458 0.020384017378092 0
0.29535412788391 0.020971737802029 0
0.43230378627777 0.021951047703624 0
0.60870426893234 0.02309307269752 0
0.81916606426239 0.025065962225199 0
1 0.029040776193142 0
1 0.044500313699245 0
1 0.07849445939064 0.01544382609427
1 0.12959261238575 0.050797812640667
1 0.19690048694611 0.10858777165413
1 0.27603539824486 0.18268726766109
1 0.36453172564507 0.26914122700691
1 0.45682027935982 0.36233592033386
1 0.55004888772964 0.45874845981598
1 0.64173471927643 0.55489617586136
1 0.73028552532196 0.6485732793808
1 0.81492406129837 0.73803770542145
1 0.89488196372986 0.82344377040863
1 0.96976739168167 0.90344762802124
1 1 0.97816455364227
0 0.018507970497012 0.0018702792003751
0 0.01905246078968 0.0014429950388148
0 0.019955927506089 0
0.0018081206362695 0.019881349056959 0
0.0054200459271669 0.019834537059069 0
0.0095956427976489 0.019932340830564 0
0.015374247916043 0.020146403461695 0
0.024117819964886 0.020528726279736 0
0.03741030395031 0.021515557542443 0
0.057666786015034 0.022992776706815 0
0.087934926152229 0.024890307337046 0
0.13278767466545 0.027270244434476 0
0.1990460306406 0.028166281059384 0
0.29616618156433 0.028959818184376 0
0.4309878051281 0.029624257236719 0
0.60413026809692 0.030716620385647 0
0.81200754642487 0.032734714448452 0
1 0.037371963262558 0
1 0.052868701517582 0
1 0.086242809891701 0.015660820528865
1 0.13570348918438 0.052005745470524
1 0.20163868367672 0.10918384790421
1 0.27986952662468 0.1832027733326
1 0.36741229891777 0.26956984400749
1 0.45901483297348 0.36285197734833
1 0.55183881521225 0.45917174220085
1 0.64306563138962 0.55519223213196
1 0.73119485378265 0.64878791570663
1 0.81557482481003 0.73818457126617
1 0.89532667398453 0.82354944944382
1 0.97007191181183 0.90351963043213
1 1 0.97821450233459
0 0.031935848295689 0.002207419835031
0 0.033245760947466 0
0 0.033555451780558 0
0.0039058199618012 0.033129259943962 0
0.0077140014618635 0.0330940335989 0
0.012167419306934 0.033225983381271 0
0.018153335899115 0.033506039530039 0
0.027189206331968 0.033987618982792 0
0.040531747043133 0.034763529896736 0
0.060655187815428 0.036212168633938 0
0.090622469782829 0.038104169070721 0
0.13485664129257 0.038896758109331 0
0.20084637403488 0.039607051759958 0
0.29657217860222 0.04064154624939 0
0.42929863929749 0.041142381727695 0
0.59871250391006 0.042034141719341 0
0.80188095569611 0.043915264308453 0
1 0.048290241509676 0
1 0.06408416479826 0
1 0.096940785646439 0.015345947816968
1 0.14527429640293 0.052265610545874
1 0.20820136368275 0.11038661003113
1 0.2849740087986 0.18392357230186
1 0.3712432384491 0.27017465233803
1 0.46202230453491 0.36373147368431
1 0.55403858423233 0.45981428027153
1 0.6448455452919 0.55559897422791
1 0.73241955041885 0.6490797996521
1 0.81645274162292 0.7383850812912
1 0.89592772722244 0.82369321584702
1 0.97048407793045 0.90361821651459
1 1 0.97828167676926
0 0.05387832224369 0
0 0.054483085870743 0
0.0031305693555623 0.0537074431777 0
0.0065952884033322 0.053524516522884 0
0.010883133858442 0.053463865071535 0
0.015343033708632 0.053577654063702 0
0.021917043253779 0.053754575550556 0
0.031071173027158 0.054174713790417 0
0.044933501631021 0.054858151823282 0
0.064222104847431 0.055028840899467 0
0.093457467854023 0.055740125477314 0
0.13691943883896 0.056428756564856 0
0.20222045481205 0.056946184486151 0
0.29666009545326 0.05779142677784 0
0.42592704296112 0.058267749845982 0
0.59187734127045 0.058355405926704 0
0.78785920143127 0.060270488262177 0
1 0.063979178667068 0
1 0.078102745115757 0
1 0.11085721850395 0.015420174226165
1 0.1579712331295 0.052309855818748
1 0.21880988776684 0.11058489978313
1 0.29222923517227 0.18504881858826
1 0.37661471962929 0.27169370651245
1 0.46602076292038 0.36493426561356
1 0.55697804689407 0.4606913626194
1 0.64698547124863 0.5562327504158
1 0.73406708240509 0.64947819709778
1 0.81763565540314 0.73865777254105
1 0.89673924446106 0.82388830184937
1 0.97104078531265 0.90375161170959
1 1 0.97837316989899
0 0.085862822830677 0
0.0025565307587385 0.08466949313879 0
0.0058107697404921 0.083929762244225 0
0.0094324834644794 0.083433143794537 0
0.013743685558438 0.08302778750658 0
0.018133979290724 0.082812771201134 0
0.024627881124616 0.082469373941422 0
0.03347572311759 0.082206457853317 0
0.046782545745373 0.081954397261143 0
0.065679207444191 0.081818379461765 0
0.095549143850803 0.081631921231747 0
0.13924552500248 0.082149282097816 0
0.20345547795296 0.082553908228874 0
0.29581752419472 0.082737877964973 0
0.42157724499702 0.082708910107613 0
0.57954913377762 0.082322031259537 0
0.77365309000015 0.082130677998066 0
0.99171835184097 0.085561648011208 0
1 0.10034551471472 0
1 0.12773644924164 0.016563391312957
1 0.17411553859711 0.053975958377123
1 0.2335849404335 0.11239688098431
1 0.30405536293983 0.18713639676571
1 0.38421404361725 0.27362403273582
1 0.47130337357521 0.36658108234406
1 0.56088608503342 0.46188962459564
1 0.64984494447708 0.55709677934647
1 0.73609364032745 0.65008193254471
1 0.81922733783722 0.73903852701187
1 0.89783173799515 0.82415443658829
1 0.97179222106934 0.90393340587616
1 1 0.97849774360657
0 0.12891039252281 0
0.0030252686701715 0.12736512720585 0
0.0059950812719762 0.12642847001553 0
0.010022166185081 0.12551458179951 0
0.014344797469676 0.12482276558876 0
0.018771609291434 0.12441677600145 0
0.02501087449491 0.12381901592016 0
0.035066440701485 0.12301051616669 0
0.047635074704885 0.12245225906372 0
0.068275116384029 0.12165945768356 0
0.0966976583004 0.1210056245327 0
0.14068192243576 0.12024246901274 0
0.20465150475502 0.12020176649094 0
0.29509219527245 0.11968047916889 0
0.41772961616516 0.11903645843267 0
0.56836038827896 0.11745372414589 0
0.75425893068314 0.11515200138092 0
0.96974945068359 0.11547458916903 0
1 0.12786224484444 0
1 0.15496669709682 0.018359661102295
1 0.19431015849113 0.058295726776123
1 0.25137826800346 0.1161076426506
1 0.31970363855362 0.19022433459759
1 0.39612853527069 0.27575480937958
1 0.47914922237396 0.36861592531204
1 0.56604915857315 0.46352997422218
1 0.65364629030228 0.55827742815018
1 0.73873782157898 0.6509262919426
1 0.8212531208992 0.73960530757904
1 0.89930158853531 0.82451689243317
1 0.9728045463562 0.90418064594269
1 1 0.97866666316986
0 0.19144770503044 0
0.0023720534518361 0.18966642022133 0
0.005538553930819 0.18781870603561 0
0.010206538252532 0.18597424030304 0
0.015505129471421 0.18467234075069 0
0.01981564797461 0.18417838215828 0
0.025678660720587 0.18365678191185 0
0.035625584423542 0.18272313475609 0
0.050025306642056 0.18165604770184 0
0.069195285439491 0.18035075068474 0
0.099868938326836 0.17866522073746 0
0.14171686768532 0.17751552164555 0
0.20585480332375 0.17621311545372 0
0.2926886677742 0.17372044920921 0
0.41008242964745 0.17000567913055 0
0.55651700496674 0.16624057292938 0
0.73123997449875 0.16145943105221 0
0.92551898956299 0.15944242477417 0
1 0.16648752987385 0.0028394942637533
1 0.18710994720459 0.023212507367134
1 0.22558765113354 0.062887161970139
1 0.27349758148193 0.12213100492954
1 0.33808499574661 0.19492800533772
1 0.41168916225433 0.27892452478409
1 0.49096149206161 0.37099745869637
1 0.57367873191833 0.46552106738091
1 0.65866911411285 0.55989336967468
1 0.74241751432419 0.65207993984222
1 0.82381731271744 0.7404248714447
1 0.90123951435089 0.82502204179764
1 0.97416561841965 0.90451806783676
1 1 0.97889649868011
0.0010664549190551 0.27855134010315 0
0.0043271249160171 0.2760363817215 0
0.0078030610457063 0.27415791153908 0
0.012323073111475 0.27238208055496 0
0.017497418448329 0.27081748843193 0
0.021667402237654 0.26981756091118 0
0.027551591396332 0.26868578791618 0
0.036780532449484 0.26702800393105 0
0.051545906811953 0.26466584205627 0
0.072576202452183 0.26225766539574 0
0.10062921792269 0.25979858636856 0
0.14456652104855 0.25650274753571 0
0.20469802618027 0.25305268168449 0
0.29050543904305 0.24939793348312 0
0.39871799945831 0.24144852161407 0
0.53838831186295 0.2321992367506 0
0.7046480178833 0.2230436205864 0
0.88142484426498 0.21562376618385 0
1 0.21670098602772 0.0049670962616801
1 0.23327077925205 0.02807280421257
1 0.26163086295128 0.07093807309866
1 0.30681362748146 0.12908843159676
1 0.3610560297966 0.20157013833523
1 0.42969545722008 0.28402683138847
1 0.50616532564163 0.37430879473686
1 0.5851114988327 0.46794080734253
1 0.66611707210541 0.56182926893234
1 0.74728620052338 0.65365809202194
1 0.82722681760788 0.74154490232468
1 0.90361720323563 0.82577991485596
1 0.97598993778229 0.90497779846191
1 1 0.97921007871628
0.00024081631272566 0.39075526595116 0
0.0032534366473556 0.38732305169106 0
0.0074248407036066 0.38385990262032 0
0.013567060232162 0.38038563728333 0
0.02187886275351 0.37698498368263 0
0.027153562754393 0.3751465678215 0
0.032931108027697 0.37355750799179 0
0.041302304714918 0.37154492735863 0
0.054816402494907 0.36839407682419 0
0.075325921177864 0.36441087722778 0
0.10435331612825 0.35991063714027 0
0.14559029042721 0.35441544651985 0
0.20235446095467 0.34890243411064 0
0.27918055653572 0.3425607085228 0
0.38779684901237 0.33458885550499 0
0.51502573490143 0.31874758005142 0
0.66735208034515 0.30177083611488 0
0.83256214857101 0.28718996047974 0
0.99288469552994 0.28242391347885 0.01065936870873
1 0.28887340426445 0.036599475890398
1 0.31139943003654 0.079096399247646
1 0.34476444125175 0.13851989805698
1 0.39504656195641 0.20986327528954
1 0.45321840047836 0.29129272699356
1 0.52392786741257 0.37944722175598
1 0.59988951683044 0.47128176689148
1 0.6766249537468 0.56424236297607
1 0.75456458330154 0.65553092956543
1 0.83173060417175 0.74307644367218
1 0.90677803754807 0.82681566476822
1 0.97823178768158 0.90566921234131
1 1 0.97963833808899
0.0080306157469749 0.50787156820297 0
0.011937887407839 0.50482970476151 0
0.01661510579288 0.50186234712601 0
0.022035665810108 0.49896883964539 0
0.028360139578581 0.4961471259594 0
0.033922221511602 0.49386522173882 0
0.040268760174513 0.49135458469391 0
0.049813851714134 0.48809614777565 0
0.064128279685974 0.48381647467613 0
0.082184426486492 0.47916957736015 0
0.10856434702873 0.47358968853951 0
0.14545899629593 0.46709257364273 0
0.19711229205132 0.45929118990898 0
0.2688629925251 0.45064002275467 0
0.36268272995949 0.43971732258797 0
0.49169489741325 0.42625164985657 0
0.62489920854568 0.40196064114571 0
0.77569353580475 0.37711381912231 0.0046378113329411
0.93224036693573 0.36270105838776 0.020171286538243
1 0.36058220267296 0.049860823899508
1 0.3702329993248 0.092895120382309
1 0.3970123231411 0.14980432391167
1 0.43304350972176 0.22028248012066
1 0.48702484369278 0.30051481723785
1 0.54701322317123 0.38658803701401
1 0.61719512939453 0.47645834088326
1 0.69072395563126 0.56756395101547
1 0.76471346616745 0.65790629386902
1 0.83850330114365 0.74488061666489
1 0.91095387935638 0.82823133468628
1 0.98116862773895 0.90662664175034
1 1 0.98026007413864
0.02570229396224 0.62535983324051 0
0.030238881707191 0.62267225980759 0
0.035414583981037 0.62002974748611 0
0.040728736668825 0.6174259185791 0
0.04661750048399 0.61485838890076 0
0.05211266130209 0.61249923706055 0
0.058372873812914 0.61004447937012 0
0.066995851695538 0.60680174827576 0
0.079414173960686 0.60255843400955 0
0.096825242042542 0.5971155166626 0
0.12005923688412 0.59028834104538 0
0.15320846438408 0.58158838748932 0
0.19928902387619 0.57225149869919 0
0.26025533676147 0.56133586168289 0
0.34226503968239 0.54771280288696 0
0.44769835472107 0.52974009513855 0.0019258582033217
0.58459764719009 0.51277613639832 0.0050109247677028
0.71951746940613 0.48506909608841 0.014970198273659
0.86910605430603 0.45927965641022 0.037774711847305
1 0.44540506601334 0.067983046174049
1 0.44505706429482 0.11203102022409
1 0.45659428834915 0.16700199246407
1 0.48576095700264 0.23319374024868
1 0.52395874261856 0.31083342432976
1 0.57908093929291 0.39571294188499
1 0.63936358690262 0.48392263054848
1 0.70759105682373 0.57257550954819
1 0.77789306640625 0.66117316484451
1 0.84786480665207 0.74719858169556
1 0.91725885868073 0.82988971471786
1 0.98504817485809 0.90793693065643
1 1 0.9811469912529
0.065502315759659 0.72145164012909 0.0058949422091246
0.070149101316929 0.71962010860443 0.005973900668323
0.074739530682564 0.7178139090538 0.0060543543659151
0.079274170100689 0.71603256464005 0.0061362693086267
0.084283582866192 0.71427541971207 0.0062196524813771
0.089431963860989 0.7124862074852 0.0063072191551328
0.094950206577778 0.71040111780167 0.0064251176081598
0.10293597728014 0.70762991905212 0.0065882652997971
0.11379781365395 0.70397311449051 0.0068148979917169
0.12936767935753 0.69918966293335 0.007131498772651
0.1497909873724 0.69319605827332 0.0076918881386518
0.17637975513935 0.68583476543427 0.0086325732991099
0.21398040652275 0.67674428224564 0.010056380182505
0.26673176884651 0.66558945178986 0.01190575119108
0.33447515964508 0.65251606702805 0.015237897634506
0.42251512408257 0.63794672489166 0.020443681627512
0.53482395410538 0.61975622177124 0.028161292895675
0.67538905143738 0.60121536254883 0.03880750387907
0.80824095010757 0.57117837667465 0.060985468327999
0.95311093330383 0.54495996236801 0.094913862645626
1 0.53128159046173 0.13644894957542
1 0.53201329708099 0.19017238914967
1 0.54479348659515 0.25273978710175
1 0.57551485300064 0.32473468780518
1 0.61526256799698 0.40669447183609
1 0.67028087377548 0.49298095703125
1 0.72854745388031 0.57985180616379
1 0.7935539484024 0.66604429483414
1 0.86003470420837 0.7503856420517
1 0.92591637372971 0.83203995227814
1 0.99092453718185 0.90946352481842
1 1 0.98235988616943
0.12672655284405 0.8098241686821 0.038246300071478
0.13057959079742 0.80850428342819 0.038450628519058
0.13439658284187 0.80719804763794 0.038655884563923
0.13826663792133 0.80590564012527 0.038861770182848
0.14238756895065 0.80462640523911 0.039068467915058
0.14660246670246 0.80331939458847 0.039288211613894
0.1516672372818 0.80169975757599 0.039580501616001
0.15833146870136 0.79952031373978 0.039954755455256
0.16781421005726 0.79673451185226 0.040467191487551
0.18065974116325 0.79305791854858 0.041170448064804
0.19852145016193 0.78824883699417 0.042138002812862
0.22115452587605 0.78233557939529 0.043667040765285
0.25022259354591 0.77513343095779 0.045971550047398
0.29020649194717 0.76611936092377 0.049103334546089
0.34689837694168 0.75406759977341 0.053318336606026
0.41785967350006 0.74043798446655 0.059709426015615
0.50808227062225 0.72579699754715 0.069260343909264
0.62192213535309 0.70739847421646 0.08098316192627
0.76235538721085 0.68768846988678 0.097804039716721
0.89074003696442 0.65722119808197 0.12863174080849
1 0.63091886043549 0.16977441310883
1 0.61762934923172 0.21909886598587
1 0.61899995803833 0.27844750881195
1 0.63218468427658 0.34516337513924
1 0.66504234075546 0.42046791315079
1 0.70498996973038 0.50385320186615
1 0.75803327560425 0.58874189853668
1 0.81361901760101 0.67275649309158
1 0.8750981092453 0.75509095191956
1 0.93747490644455 0.83499765396118
1 0.99895161390305 0.91145759820938
1 1 0.98376858234406
0.20323193073273 0.89136362075806 0.095488861203194
0.20631058514118 0.89045566320419 0.095743894577026
0.20936726033688 0.88955533504486 0.095999091863632
0.21240305900574 0.8886610865593 0.096254885196686
0.21553204953671 0.88777410984039 0.096510790288448
0.21887665987015 0.88686549663544 0.096775501966476
0.22297696769238 0.88575309514999 0.097138002514839
0.22858040034771 0.88416796922684 0.097575701773167
0.23609225451946 0.88203573226929 0.098162747919559
0.24624924361706 0.87920349836349 0.098963677883148
0.26051622629166 0.87546539306641 0.10005781799555
0.27945625782013 0.87057667970657 0.10155480355024
0.3036240041256 0.86461228132248 0.10380326956511
0.33415961265564 0.85764211416245 0.10706626623869
0.37512964010239 0.8489693403244 0.11148885637522
0.43272078037262 0.83732062578201 0.11727035045624
0.50494003295898 0.82394808530807 0.12617594003677
0.59474331140518 0.80905437469482 0.13849176466465
0.70750880241394 0.79072988033295 0.1531600356102
0.84405523538589 0.77127486467361 0.17433202266693
0.96646404266357 0.74028325080872 0.21049657464027
1 0.71545422077179 0.25610256195068
1 0.70253616571426 0.30984100699425
1 0.70434176921844 0.37233731150627
1 0.71853011846542 0.44104614853859
1 0.75178569555283 0.51693856716156
1 0.79069137573242 0.59939348697662
1 0.841343998909 0.68104922771454
1 0.89398318529129 0.7615801692009
1 0.95165151357651 0.83932596445084
1 1 0.91420161724091
1 1 0.98561823368073
0.28959515690804 0.96623641252518 0.17040710151196
0.29199531674385 0.96561056375504 0.17066676914692
0.29438304901123 0.96498829126358 0.17092630267143
0.29675894975662 0.96436947584152 0.17118620872498
0.29912295937538 0.96375399827957 0.17144605517387
0.30155017971992 0.96312272548676 0.17171442508698
0.30453190207481 0.96234709024429 0.17204646766186
0.30859878659248 0.96128100156784 0.17248249053955
0.31448981165886 0.95975321531296 0.17301250994205
0.32262191176414 0.9577122926712 0.17373380064964
0.33344897627831 0.95500135421753 0.17471611499786
0.3477771282196 0.95142310857773 0.17605465650558
0.36779376864433 0.94674307107925 0.17788009345531
0.39223358035088 0.94104242324829 0.18054117262363
0.42312121391296 0.93415498733521 0.18434074521065
0.46378237009048 0.92579281330109 0.18978445231915
0.52091366052628 0.91467559337616 0.1970753967762
0.59269344806671 0.90174329280853 0.20733128488064
