AgX Luts/AgX - Very High Contrast.cube
LUT_3D_SIZE 5
DOMAIN_MIN 0.000000 0.000000 0.000000
DOMAIN_MAX 0.903226 0.903226 0.903226
0 0 0
0.00059523462550715 0 9.4481683845515e-06
0.18820229172707 0 0.00057633826509118
1 0.36695650219917 0.33906242251396
1 0.90796810388565 0.87643766403198
0 0.0042255371809006 0.00086923147318885
0.0077310800552368 0.0068572796881199 0
0.24474708735943 0.024496661499143 0
1 0.39264383912086 0.35176542401314
1 0.91005277633667 0.87747997045517
0.0006046827766113 0.30749610066414 0.0081756450235844
0.043292135000229 0.31973081827164 0
0.3872629404068 0.34516713023186 0
1 0.50531440973282 0.39841341972351
1 0.92073667049408 0.88347333669662
0.53092205524445 0.99456077814102 0.47756081819534
0.54166680574417 0.99374490976334 0.47959607839584
0.60670495033264 0.98721784353256 0.49532309174538
0.98993748426437 0.95757418870926 0.63172662258148
1 0.99129730463028 0.92360305786133
1 1 1
1 1 1
1 1 1
1 1 1
1 1 1
0 4.7240842832252e-05 0.00068971631117165
0.0022392158862203 0 0.0030815829522908
0.19091644883156 0 0.019496519118547
1 0.3581208884716 0.34400433301926
1 0.91031336784363 0.88138872385025
0 0.0071792062371969 0.0074398131109774
0.0077310800552368 0.0077310800552368 0.0077310800552368
0.30505043268204 0.00057633826509118 1.8896336769103e-05
1 0.38462775945663 0.35703581571579
1 0.91213744878769 0.88243103027344
0 0.32074826955795 0.039522867649794
0.0035092295147479 0.33455654978752 0.0016061885980889
0.38772797584534 0.34676599502563 0
1 0.50068879127502 0.40006187558174
1 0.92256075143814 0.88790327310562
0.53365707397461 0.99401688575745 0.48810717463493
0.54303431510925 0.99347293376923 0.48958736658096
0.60814589262009 0.98667395114899 0.5054994225502
0.99048137664795 0.95703029632568 0.63129365444183
1 0.99184119701385 0.92646944522858
1 1 1
1 1 1
1 1 1
1 1 1
1 1 1
1.8896336769103e-05 0.01466497965157 0.17426431179047
0.0083136139437556 0.012373714707792 0.2306047976017
0.2883383333683 0.0052629769779742 0.32583552598953
1 0.39214929938316 0.47498065233231
1 0.92308187484741 0.90458053350449
0 0.039568278938532 0.23107469081879
0.00010392985132057 0.029181310907006 0.30301237106323
0.32685297727585 0.024173581972718 0.3584309220314
1 0.40665566921234 0.47358182072639
1 0.92490595579147 0.90536230802536
8.503351273248e-05 0.3660264313221 0.37424203753471
0.010768080130219 0.37424203753471 0.38090750575066
0.38214758038521 0.38230258226395 0.38214758038521
1 0.54088532924652 0.5197462439537
1 0.93554544448853 0.91005277633667
0.59991180896759 0.9823225736618 0.61946779489517
0.60999858379364 0.98123472929001 0.62132042646408
0.6642017364502 0.97715532779694 0.63107711076736
0.98993748426437 0.95974987745285 0.69247543811798
1 0.99456077814102 0.94316035509109
1 1 1
1 1 1
1 1 1
1 1 1
1 1 1
0.37315693497658 0.45102593302727 0.99564862251282
0.4008860886097 0.45784515142441 0.99592059850693
0.49994871020317 0.49162262678146 1
0.96355736255646 0.61761510372162 0.99374490976334
1 0.97389185428619 0.9975523352623
0.35688078403473 0.45644634962082 1
0.38664290308952 0.46571350097656 1
0.4993936419487 0.50068879127502 1
0.967908680439 0.62214386463165 0.99592059850693
1 0.97579556703568 0.99782431125641
0.31566101312637 0.51086509227753 1
0.34342294931412 0.52048635482788 1
0.50438928604126 0.57097059488297 1
0.9657329916954 0.68974781036377 0.98776179552078
1 0.98721784353256 0.99864017963409
0.70293128490448 0.97878712415695 0.9844982624054
0.71156871318817 0.97878712415695 0.98395437002182
0.76052558422089 0.97824317216873 0.98259454965591
0.97878712415695 0.97905904054642 0.97878712415695
1 1 1
1 1 1
1 1 1
1 1 1
1 1 1
1 1 1
0.86392968893051 0.93065017461777 1
0.86757785081863 0.93200993537903 1
0.88868498802185 0.93908095359802 1
0.99129730463028 0.97715532779694 1
1 1 1
0.8649719953537 0.93255388736725 1
0.86914134025574 0.93418562412262 1
0.88998794555664 0.9409846663475 1
0.99238508939743 0.97905904054642 1
1 1 1
0.87200772762299 0.94506406784058 1
0.87539529800415 0.94669580459595 1
0.89832657575607 0.956214427948 1
0.99292904138565 0.98504221439362 1
1 1 1
0.94125658273697 1 1
0.94316035509109 1 1
0.95431071519852 1 1
1 1 1
1 1 1
1 1 1
1 1 1
1 1 1
1 1 1
1 1 1
