AgX Luts/AgX - Very High Contrast.cube
LUT_3D_SIZE 32
0 0 0
0 0 0
0 0 0
0 0 0
0 0 0
0 0 0
1.8896336769103e-05 0 0
0.00059523462550715 0 9.4481683845515e-06
0.0023053530603647 0 4.7240842832252e-05
0.0062287566252053 0 0.0001133780242526
0.013588232919574 0 0.00022675604850519
0.027275143191218 0 0.00045351209701039
0.052658412605524 0 0.00089757598470896
0.10160409659147 0 0.00076530163642019
0.18820229172707 0 0.00057633826509118
0.32307386398315 3.7792673538206e-05 0.0012282618554309
0.50697958469391 4.7240842832252e-05 0.0013510880526155
0.73679912090302 0.0032954062335193 0.0019085300154984
0.91448265314102 0.060311928391457 0.045244891196489
0.99700844287872 0.14670237898827 0.12532378733158
1 0.2575312256813 0.23142711818218
1 0.36695650219917 0.33906242251396
1 0.46466436982155 0.43424013257027
1 0.53912711143494 0.50420427322388
1 0.61102783679962 0.57136136293411
1 0.68201959133148 0.64060318470001
1 0.76529061794281 0.72520673274994
1 0.84072941541672 0.80482375621796
1 0.90796810388565 0.87643766403198
1 0.96736478805542 0.93880897760391
1 1 0.99184119701385
1 1 1
0 0 0
0 0 0
0 0 0
0 0 0
0 0 0
0 0 0
0.00012282618263271 0 0
0.00092592049622908 0 9.4481683845515e-06
0.0028998332563788 0 5.6689012126299e-05
0.0070718973875046 0 0.00012282618263271
0.014638721942902 0 0.0002551005454734
0.028825923800468 0 0.00048185657942668
0.057271491736174 0 0.00019841153698508
0.11076172441244 0.00058578641619533 0
0.19938462972641 0.00041571940528229 0
0.33601006865501 0.00078419799683616 0
0.51956123113632 0.0013699844712391 3.7792673538206e-05
0.74289506673813 0.0082522947341204 0.0011148839257658
0.91448265314102 0.06608721613884 0.046471036970615
0.99619257450104 0.15255035459995 0.12698586285114
1 0.2617082297802 0.23283679783344
1 0.3694366812706 0.34022521972656
1 0.4676368534565 0.43581381440163
1 0.54108071327209 0.5054994225502
1 0.61246877908707 0.57233810424805
1 0.68315607309341 0.64103615283966
1 0.76576709747314 0.72543406486511
1 0.84122806787491 0.80507308244705
1 0.90822869539261 0.8766981959343
1 0.96736478805542 0.93880897760391
1 1 0.99184119701385
1 1 1
0 0 0
0 0 0
0 0 0
0 0 0
0 0 0
0 0 0
0.00030234138830565 0 0
0.001275502727367 0 9.4481683845515e-06
0.0035733764525503 0 6.6137181420345e-05
0.0078690489754081 0 0.00014172252849676
0.016082931309938 0 0.00023620421416126
0.033522594720125 7.5585347076412e-05 0
0.063719309866428 0.0013321917504072 0
0.11684714257717 0.0031457298900932 0
0.20687571167946 0.0038834200240672 0
0.34327760338783 0.0040330961346626 0
0.52545201778412 0.0056462227366865 0
0.74670708179474 0.014875046908855 0.0015494995750487
0.91474324464798 0.072834320366383 0.047833424061537
0.99537670612335 0.15848970413208 0.12864795327187
1 0.26626497507095 0.23412899672985
1 0.37269192934036 0.34138804674149
1 0.47060933709145 0.43756231665611
1 0.54342502355576 0.50679457187653
1 0.61390978097916 0.57315105199814
1 0.68406528234482 0.64146918058395
1 0.76648181676865 0.72588866949081
1 0.84147745370865 0.80532246828079
1 0.90848928689957 0.8766981959343
1 0.96763676404953 0.93908095359802
1 1 0.99184119701385
1 1 1
0 0 0
0 0 0
0 0 0
0 0 0
0 0 0
7.5585347076412e-05 0 0
0.00054799375357106 0 9.4481683845515e-06
0.0017951519694179 0 1.8896336769103e-05
0.004663874860853 7.5585347076412e-05 0
0.0099035073071718 0.00030234138830565 0
0.019680326804519 0.00079364614794031 0
0.037470128387213 0.0017573593650013 0
0.069132372736931 0.0036375233903527 0
0.12299685925245 0.0054316050373018 0
0.21371540427208 0.0065660127438605 0
0.35021531581879 0.0077923992648721 0
0.53131276369095 0.010212283581495 0
0.75051909685135 0.020783178508282 0.002069148933515
0.91552501916885 0.078387252986431 0.049286637455225
0.99510473012924 0.16437768936157 0.13039314746857
1 0.27031537890434 0.2356561422348
1 0.3759471476078 0.34255084395409
1 0.47340697050095 0.43913599848747
1 0.54557394981384 0.50827479362488
1 0.61514484882355 0.57418030500412
1 0.6852018237114 0.64211869239807
1 0.76695835590363 0.72611594200134
1 0.84197610616684 0.80557179450989
1 0.90874987840652 0.87695878744125
1 0.96763676404953 0.93908095359802
1 1 0.99184119701385
1 1 1
0 0 0
0 0 0
0 0 0
0 9.4481683845515e-06 0
6.6137181420345e-05 5.6689012126299e-05 0
0.00046296024811454 0.00017006702546496 0
0.0013510880526155 0.00032123771961778 0
0.0031564212404191 0.00053854560246691 0
0.0063973846845329 0.00087867968250066 0
0.012311959639192 0.0014172252267599 0
0.022848956286907 0.0022675604559481 0
0.041157729923725 0.0037551261484623 0
0.074147917330265 0.0060294684953988 0
0.12939588725567 0.0080530066043139 0
0.22061958909035 0.0096976570785046 0
0.35672578215599 0.011570896953344 0
0.53639209270477 0.014638721942902 0
0.75361633300781 0.027178218588233 0.0026218630373478
0.91656732559204 0.08260814845562 0.05055819824338
0.99428886175156 0.16937093436718 0.13172282278538
1 0.27423924207687 0.23683087527752
1 0.37920236587524 0.34400433301926
1 0.47608062624931 0.44088453054428
1 0.54772293567657 0.5095699429512
1 0.61658585071564 0.57500374317169
1 0.68588370084763 0.64255166053772
1 0.76767307519913 0.72634327411652
1 0.84222543239594 0.80582112073898
1 0.90901041030884 0.87695878744125
1 0.967908680439 0.93908095359802
1 1 0.99184119701385
1 1 1
0 0.00032123771961778 7.5585347076412e-05
0 0.00038737489376217 8.503351273248e-05
0 0.00046296024811454 0.00010392985132057
0 0.00051964924205095 1.8896336769103e-05
0.00036847856245004 0.0006991644622758 0
0.0010204021818936 0.00089757598470896 0
0.0021730787120759 0.0011810210999101 0
0.004375213291496 0.0015872922958806 0
0.0080530066043139 0.0021258378401399 0
0.014329294674098 0.0029853626620024 0
0.025821287184954 0.0042469194158912 0
0.045381128787994 0.0060141389258206 0
0.078864924609661 0.0088808173313737 0
0.13513009250164 0.010912175290287 0
0.22731555998325 0.01309419143945 0
0.36339125037193 0.015794089064002 0
0.54127609729767 0.01954903639853 0
0.75671356916428 0.032206747680902 0.0032740239985287
0.91656732559204 0.088258028030396 0.051819670945406
0.99483275413513 0.17386485636234 0.13305248320103
1 0.2777404487133 0.23788812756538
1 0.38245761394501 0.34603923559189
1 0.47867095470428 0.44245818257332
1 0.54967647790909 0.51086509227753
1 0.61802679300308 0.57582712173462
1 0.68724751472473 0.64320117235184
1 0.76814961433411 0.72679787874222
1 0.84272414445877 0.80582112073898
1 0.9092710018158 0.87721937894821
1 0.96818065643311 0.93935286998749
1 1 0.99184119701385
1 1 1
0 0.0015211551217362 0.00033068589982577
0 0.0016345331678167 0.0003495822311379
0 0.0017384629463777 0.00029289320809767
0.0001133780242526 0.0019179781666026 0
0.00085033517098054 0.0021825269795954 0
0.0017951519694179 0.0025042602792382 0
0.0033381709363312 0.0029212157242 0
0.0057535315863788 0.0035519939847291 0
0.010006433352828 0.0043324488215148 0
0.017159525305033 0.0053549557924271 0
0.029084388166666 0.0071025569923222 0
0.049831591546535 0.009244785644114 0
0.084491439163685 0.012332544662058 0
0.14222502708435 0.014770013280213 0
0.23506878316402 0.017789725214243 0
0.37114179134369 0.020861953496933 0
0.54869967699051 0.025465900078416 0
0.75885784626007 0.04102149233222 0.0040330961346626
0.91578561067581 0.095320366322994 0.053235046565533
0.99456077814102 0.1796570122242 0.13471457362175
1 0.28181654214859 0.23918034136295
1 0.38710793852806 0.34836485981941
1 0.48181635141373 0.44438156485558
1 0.55202078819275 0.5121603012085
1 0.61967360973358 0.57706224918365
1 0.68861132860184 0.64385068416595
1 0.76886433362961 0.72702515125275
1 0.84322285652161 0.80607050657272
1 0.90953159332275 0.87721937894821
1 0.96818065643311 0.93935286998749
1 1 0.99184119701385
1 1 1
0 0.0042255371809006 0.00086923147318885
0 0.004375213291496 0.00082199065946043
0 0.0045141982845962 0.00023620421416126
0.00052909745136276 0.004834933206439 0
0.0015967404469848 0.0051863277330995 0
0.0029212157242 0.0056615527719259 0
0.0047707865014672 0.0061827669851482 0
0.0077310800552368 0.0068572796881199 0
0.012558979913592 0.0080070169642568 0
0.020468078553677 0.0094094667583704 0
0.033948305994272 0.011756163090467 0
0.055646430701017 0.014533688314259 0
0.091688305139542 0.01752714253962 0
0.15127111971378 0.02070440351963 0
0.24474708735943 0.024496661499143 0
0.38059747219086 0.028470536693931 0
0.55749082565308 0.03383220359683 0
0.7621933221817 0.052134200930595 0.0050594476051629
0.91422206163406 0.10715872049332 0.055384323000908
0.99456077814102 0.18787659704685 0.1370414942503
1 0.28752312064171 0.24105989933014
1 0.39264383912086 0.35176542401314
1 0.48570185899734 0.44682949781418
1 0.55534189939499 0.514195561409
1 0.62173211574554 0.5785031914711
1 0.6904296875 0.64493316411972
1 0.76981735229492 0.72770708799362
1 0.84397089481354 0.80656915903091
1 0.91005277633667 0.87747997045517
1 0.96845263242722 0.93935286998749
1 1 0.99184119701385
1 1 1
0 0.0090034566819668 0.0015683959936723
0 0.0092859556898475 0.00075585348531604
7.5585347076412e-05 0.0097594121471047 7.5585347076412e-05
0.0014455697964877 0.010335793718696 0
0.0028998332563788 0.010932760313153 0
0.0047600953839719 0.011509141884744 0
0.0071485466323793 0.012188448570669 0
0.010747495107353 0.013053021393716 0
0.016266740858555 0.014246954582632 0
0.025142820551991 0.016476806253195 0
0.03961369022727 0.019286451861262 0
0.06293299049139 0.022008949890733 0
0.10040310025215 0.025401283055544 0
0.16148161888123 0.029652461409569 0
0.25816410779953 0.03441272303462 0
0.39280867576599 0.039522867649794 0
0.56686806678772 0.046516451984644 0
0.76600533723831 0.065669253468513 0.0066579920239747
0.91291916370392 0.12166719138622 0.058372337371111
0.99537670612335 0.20090456306934 0.14103716611862
1 0.29649057984352 0.24387925863266
1 0.40039154887199 0.35688078403473
1 0.4906975030899 0.45015168190002
1 0.55944442749023 0.51660084724426
1 0.62461405992508 0.58056169748306
1 0.69224810600281 0.64601570367813
1 0.77124685049057 0.72838896512985
1 0.84496825933456 0.80706787109375
1 0.91057395935059 0.87774056196213
1 0.96899652481079 0.9396248459816
1 1 0.99184119701385
1 1 1
0 0.018524959683418 0.0013605362037197
1.8896336769103e-05 0.01912890188396 0.00030234138830565
0.0010676430538297 0.019811619073153 9.4481683845515e-06
0.0031671123579144 0.020441820845008 0
0.0051129036583006 0.021136635914445 0
0.0074858027510345 0.021976642310619 0
0.010582814924419 0.023010496050119 0
0.014796271920204 0.02433512173593 0
0.021427407860756 0.025982826948166 0
0.031277917325497 0.027630530297756 0
0.046652689576149 0.030232980847359 0
0.071281895041466 0.033948305994272 0
0.11113703250885 0.038011945784092 0
0.17586214840412 0.043700851500034 0
0.27347978949547 0.049831591546535 0
0.40846899151802 0.055698849260807 0
0.57706224918365 0.064243525266647 0
0.76957911252975 0.084356918931007 0.0086202109232545
0.91161626577377 0.13820454478264 0.061884567141533
0.9964644908905 0.21627308428288 0.1458800137043
1 0.30939829349518 0.2482912093401
1 0.40962290763855 0.36029103398323
1 0.49754339456558 0.45417326688766
1 0.56452375650406 0.51993125677109
1 0.62891215085983 0.58323782682419
1 0.69543033838272 0.64774769544601
1 0.77267634868622 0.72929817438126
1 0.84621495008469 0.80756658315659
1 0.91135567426682 0.8782616853714
1 0.9692685008049 0.93989682197571
1 1 0.99184119701385
1 1 1
2.8344506063149e-05 0.036386489868164 0.00065192359033972
0.00059523462550715 0.037083115428686 0.00015117069415282
0.0027822304982692 0.037857141345739 0
0.0055695734918118 0.038553763180971 0
0.0078843785449862 0.039211686700583 0
0.010418133810163 0.039931580424309 0
0.014267539605498 0.040839839726686 0
0.019338969141245 0.041975162923336 0
0.02662898413837 0.043700851500034 0
0.037624932825565 0.045880671590567 0
0.055331900715828 0.048832509666681 0
0.082540892064571 0.053182628005743 0
0.12582240998745 0.0586868673563 0
0.19308777153492 0.065310999751091 0
0.29255032539368 0.073013447225094 0
0.4239644408226 0.080052256584167 0
0.58982509374619 0.088930629193783 0
0.7738676071167 0.11083678156137 0.012106108479202
0.90458053350449 0.16747350990772 0.066744014620781
0.99864017963409 0.23483383655548 0.15191073715687
1 0.32467272877693 0.25386053323746
1 0.42215114831924 0.36509639024734
1 0.50586944818497 0.45679605007172
1 0.57175207138062 0.52467054128647
1 0.63432466983795 0.5867372751236
1 0.69906717538834 0.65012919902802
1 0.77482062578201 0.73066198825836
1 0.84771102666855 0.80856394767761
1 0.91239804029465 0.87878286838531
1 0.97008436918259 0.94016873836517
1 1 0.99184119701385
1 1 1
3.7792673538206e-05 0.064415365457535 0.0013132954481989
0.00071806082269177 0.065728962421417 0.00033068589982577
0.0025897896848619 0.066744014620781 5.6689012126299e-05
0.0061980970203876 0.067818775773048 0
0.010171113535762 0.068833827972412 0
0.012806000187993 0.069789171218872 0
0.016765648499131 0.070923641324043 0
0.024205889552832 0.072416357696056 0
0.032322853803635 0.074327044188976 0
0.046198561787605 0.076894529163837 0
0.065490126609802 0.079984992742538 0
0.095656670629978 0.084693223237991 0
0.14295603334904 0.092024609446526 0
0.2133896946907 0.10062828660011 0
0.31609705090523 0.10956072062254 0
0.44403186440468 0.11742886900902 0
0.60423469543457 0.12598861753941 0
0.77696484327316 0.14852987229824 0.016870683059096
0.90275645256042 0.19677904248238 0.074506171047688
0.99809628725052 0.26221454143524 0.16031719744205
1 0.34211477637291 0.26031589508057
1 0.43581381440163 0.37052175402641
1 0.51586073637009 0.46029308438301
1 0.58364951610565 0.53209418058395
1 0.64168566465378 0.59147191047668
1 0.70338588953018 0.65294373035431
1 0.77767962217331 0.73248040676117
1 0.84945642948151 0.80956131219864
1 0.91370093822479 0.87956464290619
1 0.97090023756027 0.94071269035339
1 1 0.99184119701385
1 1 1
7.5585347076412e-05 0.11376421898603 0.0023714902345091
0.00031178956851363 0.11496522277594 0.0010015058796853
0.0017195666441694 0.11601609736681 0.00038737489376217
0.0057535315863788 0.11726266145706 3.7792673538206e-05
0.011653237044811 0.11859232932329 0
0.015977898612618 0.11992199718952 0
0.020546853542328 0.12141788005829 0
0.028664384037256 0.12341238558292 0
0.040794428437948 0.12615482509136 0
0.055908534675837 0.12931278347969 0
0.079103760421276 0.1335511058569 0
0.11331384629011 0.13911829888821 0
0.16617526113987 0.14725063741207 0
0.23918034136295 0.15510883927345 0
0.34037056565285 0.16258013248444 0
0.46623805165291 0.17066918313503 0
0.61926192045212 0.17706052958965 0
0.77243810892105 0.19667047262192 0.022687416523695
0.89884769916534 0.23577362298965 0.08583664894104
0.99156922101974 0.29282209277153 0.17066918313503
1 0.36912667751312 0.27044194936752
1 0.45242473483086 0.37703222036362
1 0.53170347213745 0.46886083483696
1 0.59785330295563 0.5418621301651
1 0.65272718667984 0.59826499223709
1 0.70997756719589 0.65684068202972
1 0.78149157762527 0.73475337028503
1 0.85219925642014 0.8110573887825
1 0.91552501916885 0.88060694932938
1 0.97226005792618 0.94125658273697
1 1 0.99184119701385
1 1 1
0.00028344505699351 0.19569337368011 0.0036909792106599
0.00096371315885335 0.19797326624393 0.0011243320768699
0.0032098770607263 0.19949319958687 0.00041571940528229
0.0075164623558521 0.2010131329298 8.503351273248e-05
0.013567647896707 0.20264162123203 0
0.018393667414784 0.20372729003429 0
0.025110511109233 0.20524722337723 0
0.035380255430937 0.20709285140038 0
0.048469204455614 0.20969843864441 0
0.069550335407257 0.21284687519073 0
0.094647765159607 0.21744781732559 0
0.13504698872566 0.22273410856724 0
0.18907082080841 0.22943006455898 0
0.26765730977058 0.23765318095684 0
0.36370128393173 0.24152979254723 0
0.48570185899734 0.24258705973625 0
0.62912863492966 0.24474708735943 0.0013132954481989
0.76957911252975 0.25816410779953 0.034606229513884
0.8918120265007 0.28684377670288 0.10167916119099
0.97987496852875 0.33644610643387 0.18484999239445
1 0.39989703893661 0.28249591588974
1 0.47700574994087 0.38664290308952
1 0.55202078819275 0.48163133859634
1 0.61493903398514 0.55338829755783
1 0.66679972410202 0.60711663961411
1 0.71861505508423 0.66160374879837
1 0.78697139024734 0.73793560266495
1 0.85544073581696 0.81305211782455
1 0.91787022352219 0.88190984725952
1 0.97361987829208 0.9420725107193
1 1 0.99211317300797
1 1 1
0.0006046827766113 0.30749610066414 0.0081756450235844
0.0017290147952735 0.30939829349518 0.0042255371809006
0.0042148460634053 0.31188189983368 0.0011810210999101
0.0084975715726614 0.31478890776634 6.6137181420345e-05
0.020861953496933 0.3163877427578 0
0.026564368978143 0.31711450219154 0
0.033135581761599 0.31813195347786 0
0.043292135000229 0.31973081827164 0
0.060102242976427 0.3214750289917 0
0.083011709153652 0.32336458563805 0
0.11278840899467 0.32670763134956 0
0.15474334359169 0.33034139871597 0
0.20991557836533 0.33513796329498 0
0.28317525982857 0.34007987380028 0
0.3872629404068 0.34516713023186 0
0.50198394060135 0.33760893344879 0
0.63497412204742 0.33048674464226 0.0087735084816813
0.76481407880783 0.33368444442749 0.055908534675837
0.87904345989227 0.3519204556942 0.12191650271416
0.97525161504745 0.38741794228554 0.20427012443542
1 0.44245818257332 0.29947975277901
1 0.50531440973282 0.39841341972351
1 0.57459199428558 0.49106755852699
1 0.6347576379776 0.56608664989471
1 0.68292880058289 0.61823266744614
1 0.73157119750977 0.66918122768402
1 0.79483360052109 0.74289506673813
1 0.8599289059639 0.81579494476318
1 0.92073667049408 0.88347333669662
1 0.97552359104156 0.94316035509109
1 1 0.99238508939743
1 1 1
0.0046104188077152 0.43861144781113 0.0013227435993031
0.0080530066043139 0.44001024961472 0.00039682307397015
0.014329294674098 0.44105938076973 3.7792673538206e-05
0.02278434112668 0.44210848212242 0
0.032438956201077 0.44280788302422 0
0.04129396751523 0.44333243370056 0
0.049332048743963 0.44385701417923 0
0.061255510896444 0.44438156485558 0
0.078566379845142 0.44508096575737 0
0.10085347294807 0.44595521688461 0
0.12939588725567 0.44805344939232 0
0.16797283291817 0.45032653212547 0
0.22144190967083 0.45312416553497 0
0.29282209277153 0.45662119984627 0
0.3841627240181 0.45749545097351 1.8896336769103e-05
0.51049506664276 0.45714575052261 0.0013416399015114
0.62782961130142 0.43966054916382 0.03089090436697
0.75028079748154 0.42610740661621 0.082339107990265
0.86317038536072 0.43022856116295 0.14953500032425
0.96246951818466 0.45294931530952 0.23036985099316
1 0.49051249027252 0.32002151012421
1 0.54518324136734 0.41473311185837
1 0.60588151216507 0.510125041008
1 0.65705722570419 0.57623881101608
1 0.70247668027878 0.6323761343956
1 0.74742180109024 0.67914026975632
1 0.80607050657272 0.74885129928589
1 0.86731725931168 0.8192857503891
1 0.92516654729843 0.8858186006546
1 0.97824317216873 0.94452011585236
1 1 0.99265706539154
1 1 1
0.03116181306541 0.57253348827362 0
0.037044413387775 0.57253348827362 0
0.043519198894501 0.57273936271667 0
0.050421960651875 0.57294517755508 0
0.05852960050106 0.57315105199814 0
0.066326051950455 0.57335692644119 0
0.075222678482533 0.57335692644119 0
0.086711034178734 0.57335692644119 9.4481683845515e-06
0.10273003578186 0.57335692644119 3.7792673538206e-05
0.12166719138622 0.5735627412796 4.7240842832252e-05
0.14679375290871 0.5735627412796 6.6137181420345e-05
0.18315228819847 0.57335692644119 0.00078419799683616
0.23283679783344 0.5735627412796 0.0013699844712391
0.29553949832916 0.57294517755508 0.0041720815934241
0.38059747219086 0.57233810424805 0.014288124628365
0.48551684617996 0.5674541592598 0.035689868032932
0.62132042646408 0.56237483024597 0.072237230837345
0.73248040676117 0.53912711143494 0.12332928180695
0.84596562385559 0.52330303192139 0.18765945732594
0.94452011585236 0.52799165248871 0.26259425282478
0.99809628725052 0.55143475532532 0.3461846113205
1 0.58920753002167 0.43511441349983
1 0.64320117235184 0.52740556001663
1 0.69020241498947 0.60114693641663
1 0.73111659288406 0.65294373035431
1 0.76481407880783 0.69179350137711
1 0.8192857503891 0.75576055049896
1 0.87643766403198 0.82402330636978
1 0.93173801898956 0.88894557952881
1 0.9823225736618 0.94642382860184
1 1 0.99292904138565
1 1 1
0.084020622074604 0.69270271062851 0.023430500179529
0.09121748059988 0.69247543811798 0.024593584239483
0.096732832491398 0.69179350137711 0.025982826948166
0.10265497118235 0.69179350137711 0.027210528030992
0.10858491063118 0.6913388967514 0.028438229113817
0.11451485008001 0.69111162424088 0.029652461409569
0.12141788005829 0.6908842921257 0.030929604545236
0.13089177012444 0.69020241498947 0.032671164721251
0.14441801607609 0.68974781036377 0.035031944513321
0.16377849876881 0.68906593322754 0.038011945784092
0.18863655626774 0.68747478723526 0.040204059332609
0.21697792410851 0.68611097335815 0.045108649879694
0.2575312256813 0.68474721908569 0.053497154265642
0.31449818611145 0.68179225921631 0.067161977291107
0.38478276133537 0.67935675382614 0.08314623683691
0.4732321202755 0.67545974254608 0.10543228685856
0.58323782682419 0.66874825954437 0.13371731340885
0.71770584583282 0.65987169742584 0.17745998501778
0.82202851772308 0.63280916213989 0.23506878316402
0.92203956842422 0.61802679300308 0.30301237106323
0.99292904138565 0.62255555391312 0.37951239943504
1 0.64688169956207 0.46221646666527
1 0.68179225921631 0.54596465826035
1 0.72611594200134 0.62049704790115
1 0.76052558422089 0.6737277507782
1 0.79125988483429 0.71043217182159
1 0.83424645662308 0.76481407880783
1 0.88738209009171 0.83050626516342
1 0.94044071435928 0.89285433292389
1 0.98830568790436 0.94914346933365
1 1 0.99347293376923
1 1 1
0.18635666370392 0.78792434930801 0.12150098383427
0.19113358855247 0.78768610954285 0.12199960649014
0.19580194354057 0.78768610954285 0.12249823659658
0.20047029852867 0.78673309087753 0.12299685925245
0.20503008365631 0.78673309087753 0.1234954893589
0.20991557836533 0.78649485111237 0.12440963089466
0.21592067182064 0.78601837158203 0.12590551376343
0.22426125407219 0.78554183244705 0.12790001928806
0.23483383655548 0.78482711315155 0.13047625124454
0.24715203046799 0.7841123342514 0.13363420963287
0.26461946964264 0.78292113542557 0.13802179694176
0.2883383333683 0.78149157762527 0.14149403572083
0.31973081827164 0.77958559989929 0.14569726586342
0.35688078403473 0.7774413228035 0.15428647398949
0.41489794850349 0.7738676071167 0.17026971280575
0.48385161161423 0.77005559206009 0.18928796052933
0.56999379396439 0.76600533723831 0.21615561842918
0.67740827798843 0.75814306735992 0.2490506619215
0.80407571792603 0.74885129928589 0.29757755994797
0.89832657575607 0.72156995534897 0.35533067584038
0.98504221439362 0.70656806230545 0.42149174213409
1 0.71156871318817 0.49421295523643
1 0.73293501138687 0.56960308551788
1 0.76576709747314 0.6466651558876
1 0.79626309871674 0.69520306587219
1 0.82003378868103 0.73043465614319
1 0.85569006204605 0.77863258123398
1 0.90119296312332 0.83823597431183
1 0.94968736171722 0.89832657575607
1 0.99211317300797 0.9526789188385
1 1 0.99401688575745
1 1 1
0.30382761359215 0.86835956573486 0.23824055492878
0.30668088793755 0.86809897422791 0.23871044814587
0.30939829349518 0.86809897422791 0.2390628606081
0.31231793761253 0.86731725931168 0.23953275382519
0.31537029147148 0.86757785081863 0.24000264704227
0.31842264533043 0.86705666780472 0.24047254025936
0.32220175862312 0.86679607629776 0.24105989933014
0.32728904485703 0.86679607629776 0.24176473915577
0.33426585793495 0.86627489328384 0.24270452558994
0.34385898709297 0.86549317836761 0.24537996947765
0.35703581571579 0.86445087194443 0.24930381774902
0.37532711029053 0.86366909742355 0.25474655628204
0.39808371663094 0.8616743683815 0.25917673110962
0.42511835694313 0.86017829179764 0.26398658752441
0.4613421857357 0.85793417692184 0.27120143175125
0.5136404633522 0.85444337129593 0.28725138306618
0.58097344636917 0.84970581531525 0.30790370702744
0.66117072105408 0.84471893310547 0.33630076050758
0.76100206375122 0.83673989772797 0.36912667751312
0.87747997045517 0.82676607370377 0.41522762179375
0.96192556619644 0.79983687400818 0.47025963664055
0.99918413162231 0.78720963001251 0.53268027305603
