AgX Luts/AgX - Very Low Contrast.cube
LUT_3D_SIZE 5
DOMAIN_MIN 0.000000 0.000000 0.000000
DOMAIN_MAX 0.903226 0.903226 0.903226
0.00045351209701039 0.00045351209701039 0.00045351209701039
0.028438229113817 0.0023620421998203 0.0019557708874345
0.2978492975235 0.025433590635657 0.01461246330291
0.79626309871674 0.1793574243784 0.1352963000536
0.84048002958298 0.53326636552811 0.49217769503593
0.0037658172659576 0.038321558386087 0.011591481976211
0.047651771456003 0.043337550014257 0.0048028598539531
0.29187098145485 0.066624596714973 0.016424290835857
0.79054510593414 0.19601906836033 0.13738217949867
0.84048002958298 0.53502458333969 0.49254775047302
0.037392724305391 0.25892356038094 0.021395100280643
0.086240209639072 0.25689834356308 0.02175048738718
0.27626445889473 0.2518353164196 0.024496661499143
0.74813657999039 0.27423924207687 0.15721045434475
0.84072941541672 0.54440182447433 0.49587818980217
0.27950674295425 0.61885023117065 0.2173303514719
0.28765898942947 0.61761510372162 0.21838760375977
0.33746355772018 0.61288052797318 0.22543598711491
0.62070286273956 0.58632558584213 0.27678933739662
0.83998137712479 0.61143952608109 0.51734095811844
0.62739664316177 0.82801282405853 0.57767981290817
0.62826263904572 0.82801282405853 0.57767981290817
0.63324213027954 0.8275141119957 0.57829737663269
0.67524325847626 0.82477134466171 0.58303195238113
0.83025693893433 0.81504690647125 0.62891215085983
0.0017762556672096 0.0051129036583006 0.029613759368658
0.039172984659672 0.0038620377890766 0.044200394302607
0.30532217025757 0.020047944039106 0.056642435491085
0.79102158546448 0.18657378852367 0.16128188371658
0.84048002958298 0.53482919931412 0.49624821543694
0.0051556681282818 0.046788927167654 0.047560948878527
0.045653607696295 0.045699018985033 0.045653607696295
0.31958547234535 0.053706839680672 0.043519198894501
0.78554183244705 0.20361872017384 0.16427782177925
0.84072941541672 0.53658747673035 0.49661827087402
0.031974539160728 0.26348030567169 0.053130205720663
0.070625096559525 0.26221454143524 0.047697186470032
0.27461895346642 0.25322765111923 0.053287468850613
0.74265682697296 0.27937087416649 0.18015633523464
0.84072941541672 0.54576933383942 0.49976366758347
0.28562092781067 0.61720341444016 0.23389405012131
0.2929579615593 0.61658585071564 0.23483383655548
0.34080663323402 0.61226296424866 0.24117738008499
0.61987948417664 0.58653146028519 0.28956118226051
0.83998137712479 0.61288052797318 0.52011632919312
0.62826263904572 0.82801282405853 0.57932662963867
0.62934511899948 0.82776349782944 0.57953244447708
0.63367515802383 0.8275141119957 0.57973831892014
0.67589277029037 0.82477134466171 0.58426707983017
0.83025693893433 0.81504690647125 0.6299946308136
0.015478989109397 0.049241226166487 0.28439810872078
0.050421960651875 0.040113233029842 0.31784126162529
0.3023330271244 0.041884336620569 0.30450695753098
0.76195508241653 0.22285157442093 0.28453397750854
0.84048002958298 0.54362034797668 0.51734095811844
0.015426472760737 0.087047338485718 0.28969705104828
0.039477452635765 0.076894529163837 0.32394596934319
0.28969705104828 0.083953358232975 0.29486012458801
0.75123381614685 0.23988518118858 0.28697964549065
0.84072941541672 0.54537862539291 0.5177109837532
0.034490127116442 0.2731000483036 0.27550500631332
0.0762974396348 0.27145457267761 0.27373293042183
0.2649992108345 0.26512578129768 0.2649992108345
0.7108867764473 0.31377145648003 0.29526776075363
0.84048002958298 0.55416977405548 0.51956123113632
0.31202724575996 0.61267465353012 0.31914940476418
0.32016685605049 0.6120570898056 0.31973081827164
0.36044603586197 0.60835176706314 0.32307386398315
0.61473315954208 0.58817827701569 0.35052534937859
0.84023070335388 0.61740922927856 0.53697818517685
0.63324213027954 0.8272647857666 0.58879578113556
0.63389164209366 0.8275141119957 0.58858996629715
0.63865464925766 0.8272647857666 0.58920753002167
0.67870730161667 0.82452201843262 0.59414798021317
0.83000755310059 0.81504690647125 0.63735568523407
0.15072286128998 0.23777066171169 0.72998005151749
0.17406457662582 0.23612603545189 0.72747975587845
0.27706107497215 0.25803753733635 0.70929569005966
0.64796417951584 0.32016685605049 0.65445917844772
0.84147745370865 0.57788562774658 0.62544810771942
0.14405252039433 0.25221505761147 0.72861629724503
0.17376498878002 0.25461998581886 0.72429758310318
0.27626445889473 0.26980909705162 0.70793187618256
0.64623218774796 0.331213504076 0.65142822265625
0.84147745370865 0.57973831892014 0.62588113546371
0.17426431179047 0.32612624764442 0.70656806230545
0.19406487047672 0.33019605278969 0.70293128490448
0.29472425580025 0.34487643837929 0.68542909622192
0.63107711076736 0.38741794228554 0.63778865337372
0.84122806787491 0.59167772531509 0.62804615497589
0.35734581947327 0.61082196235657 0.61390978097916
0.36416631937027 0.6104102730751 0.61329221725464
0.40385329723358 0.60752832889557 0.61061614751816
0.59991180896759 0.59991180896759 0.59991180896759
0.83873462677002 0.65077871084213 0.63670617341995
0.6590057015419 0.82502067089081 0.66052120923996
0.65965521335602 0.8252699971199 0.66052120923996
0.6642017364502 0.82502067089081 0.66073769330978
0.69588494300842 0.82352459430695 0.66311925649643
0.82826215028763 0.81629359722137 0.68679291009903
0.48681199550629 0.56374233961105 0.84696298837662
0.48958736658096 0.56452375650406 0.84696298837662
0.5075346827507 0.5678448677063 0.84721237421036
0.60999858379364 0.58941334486008 0.84646433591843
0.83349841833115 0.65857273340225 0.83848530054092
0.48736706376076 0.56550055742264 0.84696298837662
0.49051249027252 0.56608664989471 0.84696298837662
0.50864481925964 0.56940776109695 0.84721237421036
0.6104102730751 0.59147191047668 0.84646433591843
0.83349841833115 0.65965521335602 0.83823597431183
0.48958736658096 0.57665055990219 0.84646433591843
0.49254775047302 0.57767981290817 0.84646433591843
0.51234531402588 0.58323782682419 0.84621495008469
0.61082196235657 0.60197031497955 0.84596562385559
0.83324903249741 0.6665832400322 0.8374879360199
0.5361967086792 0.65077871084213 0.84322285652161
0.53815031051636 0.65099519491196 0.84322285652161
0.54987186193466 0.65445917844772 0.84297347068787
0.63454115390778 0.67091327905655 0.84172677993774
0.83250099420547 0.71043217182159 0.83374774456024
0.69702142477036 0.82601803541183 0.82676607370377
0.69770336151123 0.82601803541183 0.82676607370377
0.7013401389122 0.82626742124557 0.82676607370377
0.72907090187073 0.8252699971199 0.82601803541183
0.82327526807785 0.82352459430695 0.82327526807785
