AgX Luts/AgX - Very Low Contrast.cube
LUT_3D_SIZE 32
0.00045351209701039 0.00045351209701039 0.00045351209701039
0.00045351209701039 0.00045351209701039 0.00045351209701039
0.00045351209701039 0.00045351209701039 0.00045351209701039
0.00045351209701039 0.00045351209701039 0.00045351209701039
0.00045351209701039 0.00045351209701039 0.00045351209701039
0.00045351209701039 0.00045351209701039 0.00045351209701039
0.012970681302249 0.0015211551217362 0.0013794326223433
0.028438229113817 0.0023620421998203 0.0019557708874345
0.047606360167265 0.0033274798188359 0.0025470249820501
0.071401312947273 0.0045035071671009 0.0035092295147479
0.10010284930468 0.0061214477755129 0.0046211099252105
0.13537940382957 0.0083136139437556 0.0062440861947834
0.17975687980652 0.011262121610343 0.0083136139437556
0.23295426368713 0.018026050180197 0.010912175290287
0.2978492975235 0.025433590635657 0.01461246330291
0.37129682302475 0.033135581761599 0.019050126895308
0.45382356643677 0.040431123226881 0.022719725966454
0.54381573200226 0.050467371940613 0.025562822818756
0.62847912311554 0.06895324587822 0.033754799515009
0.69429385662079 0.099127031862736 0.061412774026394
0.75290155410767 0.1370414942503 0.094580501317978
0.79626309871674 0.1793574243784 0.1352963000536
0.82452201843262 0.22731555998325 0.1817541718483
0.83025693893433 0.27706107497215 0.23013490438461
0.8352438211441 0.32845184206963 0.2830393910408
0.8374879360199 0.38028743863106 0.33644610643387
0.83848530054092 0.43231678009033 0.39017114043236
0.84197610616684 0.4825564622879 0.44140908122063
0.84048002958298 0.53326636552811 0.49217769503593
0.84097874164581 0.57973831892014 0.54381573200226
0.83973199129105 0.62631410360336 0.59064847230911
0.83624118566513 0.67199575901031 0.63519066572189
0.00045351209701039 0.00045351209701039 0.00045351209701039
0.00045351209701039 0.00045351209701039 0.00045351209701039
0.00045351209701039 0.00045351209701039 0.00045351209701039
0.00045351209701039 0.00045351209701039 0.00045351209701039
0.00045351209701039 0.00045351209701039 0.00045351209701039
0.0051235947757959 0.0010581949027255 0.0011054356582463
0.018262375146151 0.0018046001205221 0.0015872922958806
0.033445190638304 0.0026325543876737 0.0020974932704121
0.051872093230486 0.0035840675700456 0.0026646277401596
0.075043551623821 0.0047066393308342 0.0035947586875409
0.10370584577322 0.0062594162300229 0.0047280215658247
0.13884417712688 0.0084669124335051 0.0063973846845329
0.18115498125553 0.014205784536898 0.0083596035838127
0.23213195800781 0.024884356185794 0.01122095156461
0.29730582237244 0.031084410846233 0.014743755571544
0.37005671858788 0.038050647825003 0.01912890188396
0.45172533392906 0.0457898452878 0.022881265729666
0.5414714217186 0.055436745285988 0.025821287184954
0.62631410360336 0.073013447225094 0.034335322678089
0.69202083349228 0.10265497118235 0.061936989426613
0.75099557638168 0.14003203809261 0.094782285392284
0.79507184028625 0.18145458400249 0.13587802648544
0.82427263259888 0.22872523963451 0.1817541718483
0.83025693893433 0.27801218628883 0.23036985099316
0.8352438211441 0.32917860150337 0.2830393910408
0.83723855018616 0.38090750575066 0.33644610643387
0.83848530054092 0.43266648054123 0.39017114043236
0.84197610616684 0.48292651772499 0.44140908122063
0.84048002958298 0.53346168994904 0.49217769503593
0.84097874164581 0.57973831892014 0.54381573200226
0.83973199129105 0.62631410360336 0.59064847230911
0.83624118566513 0.67221224308014 0.63519066572189
0.00045351209701039 0.00045351209701039 0.00045351209701039
0.00045351209701039 0.00045351209701039 0.00045351209701039
0.00045351209701039 0.00045351209701039 0.00045351209701039
0.00045351209701039 0.00045351209701039 0.00045351209701039
0.00045351209701039 0.00045351209701039 0.00045351209701039
0.011097440496087 0.0013983289245516 0.0013227435993031
0.023107420653105 0.0020785969682038 0.0018140483880416
0.037624932825565 0.0028998332563788 0.002220319584012
0.056065797805786 0.0038513466715813 0.0028677599038929
0.078506670892239 0.0049097714945674 0.003744435030967
0.10700859874487 0.0069339289329946 0.0047814776189625
0.13984929025173 0.013752913102508 0.0063973846845329
0.18025620281696 0.021879719570279 0.0087121892720461
0.23189701139927 0.030426487326622 0.011735578067601
0.29635471105576 0.036309089511633 0.015111371874809
0.36835160851479 0.043428376317024 0.019338969141245
0.45032653212547 0.050013244152069 0.023075113072991
0.53951781988144 0.060049820691347 0.026079749688506
0.62399649620056 0.077372200787067 0.034722335636616
0.68952053785324 0.10663328319788 0.062303937971592
0.7490895986557 0.1428646594286 0.095051325857639
0.79388064146042 0.18375147879124 0.13621045649052
0.82402330636978 0.23025238513947 0.18185403943062
0.83025693893433 0.27909913659096 0.23048733174801
0.8352438211441 0.3300507068634 0.28317525982857
0.83723855018616 0.38152754306793 0.33644610643387
0.83848530054092 0.43336588144302 0.39033600687981
0.84197610616684 0.48311153054237 0.44158393144608
0.84048002958298 0.53385245800018 0.49236273765564
0.84097874164581 0.57973831892014 0.54381573200226
0.83973199129105 0.62631410360336 0.59064847230911
0.83624118566513 0.67221224308014 0.63519066572189
0.00045351209701039 0.00045351209701039 0.00045351209701039
0.00045351209701039 0.00045351209701039 0.00045351209701039
0.00045351209701039 0.00045351209701039 0.00045351209701039
0.00045351209701039 0.00045351209701039 0.00045351209701039
0.0058608404360712 0.001086539356038 0.0011337802279741
0.016319256275892 0.0017101184930652 0.0015117069706321
0.027759762480855 0.002324249362573 0.0019368744688109
0.041611857712269 0.0040437872521579 0.0023714902345091
0.058319915086031 0.0071025569923222 0.0031136565376073
0.07916346937418 0.010809250175953 0.0040544788353145
0.1063330322504 0.015452731400728 0.0050594476051629
0.13930104672909 0.021330485120416 0.0065813427790999
0.17985674738884 0.028987463563681 0.0087275188416243
0.23189701139927 0.03611558303237 0.011817918159068
0.29581123590469 0.041384793817997 0.015557764098048
0.36711153388023 0.048151314258575 0.019575294107199
0.44892770051956 0.054807689040899 0.023204343393445
0.53854101896286 0.063771732151508 0.026208981871605
0.62173211574554 0.081801027059555 0.035960774868727
0.68724751472473 0.11031134426594 0.062775731086731
0.74742180109024 0.14569726586342 0.095387630164623
0.79268938302994 0.18594850599766 0.13629356026649
0.82402330636978 0.23166206479073 0.18185403943062
0.83025693893433 0.2801861166954 0.2306047976017
0.8354931473732 0.33048674464226 0.28317525982857
0.83723855018616 0.38214758038521 0.33659148216248
0.83873462677002 0.43371558189392 0.39050084352493
0.84197610616684 0.48329654335976 0.44158393144608
0.84048002958298 0.53424316644669 0.49236273765564
0.84097874164581 0.58035588264465 0.54401111602783
0.83973199129105 0.62631410360336 0.59064847230911
0.83624118566513 0.67221224308014 0.63519066572189
0.0011243320768699 0.0045355809852481 0.0018801855621859
0.001275502727367 0.0056462227366865 0.002220319584012
0.0013983289245516 0.0067193112336099 0.0025577160995454
0.0014928105520085 0.0078077293001115 0.0028463774360716
0.0094094667583704 0.0086355404928327 0.0015117069706321
0.018629992380738 0.010027018375695 0.0017951519694179
0.028858231380582 0.011529726907611 0.0022581121884286
0.042065989226103 0.013382381759584 0.0028143040835857
0.058215074241161 0.015846606343985 0.0035733764525503
0.079044051468372 0.01912890188396 0.0044286693446338
0.10625797510147 0.023139728233218 0.0054622646421194
0.13911829888821 0.028728999197483 0.0069952481426299
0.17945727705956 0.03615428134799 0.0088961478322744
0.23201447725296 0.041702684015036 0.011694407090545
0.29486012458801 0.046834342181683 0.015505247749388
0.36571642756462 0.052920520305634 0.019706586375833
0.44717919826508 0.059630449861288 0.02330126799643
0.53717350959778 0.06799790263176 0.026305904611945
0.61967360973358 0.08583664894104 0.038437660783529
0.6852018237114 0.11361409723759 0.063299939036369
0.74575406312943 0.14825575053692 0.095723927021027
0.79173636436462 0.18820229172707 0.13637666404247
0.82402330636978 0.23318921029568 0.18185403943062
0.83025693893433 0.28113719820976 0.23083974421024
0.8354931473732 0.33135885000229 0.28331112861633
0.83723855018616 0.38261261582375 0.33659148216248
0.83873462677002 0.43424013257027 0.39050084352493
0.84197610616684 0.48385161161423 0.44175878167152
0.84048002958298 0.53424316644669 0.49236273765564
0.84097874164581 0.58056169748306 0.54401111602783
0.83973199129105 0.62631410360336 0.59085434675217
0.83624118566513 0.67242872714996 0.63519066572189
0.002116389805451 0.014743755571544 0.0047814776189625
0.0022014232818037 0.015689056366682 0.0049846097826958
0.0023053530603647 0.016634358093143 0.0052016577683389
0.0033916267566383 0.01752714253962 0.0017857038183138
0.012311959639192 0.018078567460179 0.0021919750142843
0.020573111250997 0.018866317346692 0.0023998348042369
0.030271682888269 0.020021686330438 0.0027501571457833
0.043246723711491 0.021879719570279 0.0029425979591906
0.059315919876099 0.024044349789619 0.0038834200240672
0.079402305185795 0.026984371244907 0.0049418448470533
0.10648316144943 0.031045708805323 0.0061827669851482
0.13920967280865 0.035922076553106 0.0079303681850433
0.1793574243784 0.042928833514452 0.0097182421013713
0.23166206479073 0.046879753470421 0.012106108479202
0.29418078064919 0.052029356360435 0.015478989109397
0.36447632312775 0.057900544255972 0.019496519118547
0.44490611553192 0.064086265861988 0.023107420653105
0.5358060002327 0.072177521884441 0.025982826948166
0.61782097816467 0.089468710124493 0.038902077823877
0.68292880058289 0.11668093502522 0.064033843576908
0.74408632516861 0.15072286128998 0.095925711095333
0.79149812459946 0.19026504456997 0.13662597537041
0.82402330636978 0.23424646258354 0.18185403943062
0.83025693893433 0.28249591588974 0.2309572249651
0.8354931473732 0.33223095536232 0.28331112861633
0.83723855018616 0.38338768482208 0.33673682808876
0.83873462677002 0.43476468324661 0.39066568017006
0.84197610616684 0.48403665423393 0.44175878167152
0.84048002958298 0.53443849086761 0.49236273765564
0.84097874164581 0.58056169748306 0.54401111602783
0.83948266506195 0.62696361541748 0.59085434675217
0.83624118566513 0.67242872714996 0.63519066572189
0.0027822304982692 0.02559513039887 0.0078383889049292
0.0028036129660904 0.026241289451718 0.0080376770347357
0.0027608482632786 0.026984371244907 0.0067039811983705
0.0078077293001115 0.027727454900742 0.0024401133414358
0.015951639041305 0.028212072327733 0.0024508046917617
0.023592039942741 0.028793616220355 0.0031243476551026
0.032864671200514 0.029845967888832 0.0035413028672338
0.044836174696684 0.031432721763849 0.0038941111415625
0.060888562351465 0.033561293035746 0.004107934422791
0.080792121589184 0.03611558303237 0.0050808298401535
0.10655821859837 0.039795342832804 0.0066120023839176
0.13939242064953 0.044836174696684 0.0084362523630261
0.18005646765232 0.049513701349497 0.010747495107353
0.23107469081879 0.053654417395592 0.012703075073659
0.29309383034706 0.05889655277133 0.015715314075351
0.36308124661446 0.063719309866428 0.019365226849914
0.44333243370056 0.069729462265968 0.022945880889893
0.53346168994904 0.077611036598682 0.025498207658529
0.61514484882355 0.093907900154591 0.038902077823877
0.68043929338455 0.12075304239988 0.064833328127861
0.74218028783798 0.15346410870552 0.096531055867672
0.79102158546448 0.19265350699425 0.13687528669834
0.82377398014069 0.23589108884335 0.18195390701294
0.83025693893433 0.28358286619186 0.23119217157364
0.8354931473732 0.33295771479607 0.2834469974041
0.83723855018616 0.38431772589684 0.33688217401505
0.83873462677002 0.43528926372528 0.39066568017006
0.84197610616684 0.48440670967102 0.44193363189697
0.84048002958298 0.53463387489319 0.49254775047302
0.84097874164581 0.58056169748306 0.54401111602783
0.83948266506195 0.62696361541748 0.59085434675217
0.83624118566513 0.67264527082443 0.63519066572189
0.0037658172659576 0.038321558386087 0.011591481976211
0.0037978908512741 0.038940779864788 0.010706325061619
0.0035092295147479 0.040022406727076 0.0034985383972526
0.012538394890726 0.040431123226881 0.0034237001091242
0.020100461319089 0.040839839726686 0.003562685335055
0.027468990534544 0.041384793817997 0.0033595531713217
0.036076880991459 0.04215681552887 0.0041934638284147
0.047651771456003 0.043337550014257 0.0048028598539531
0.062513619661331 0.045471955090761 0.0052323173731565
0.082473628222942 0.048060487955809 0.0056155631318688
0.10730884969234 0.051190614700317 0.0069952481426299
0.13984929025173 0.055698849260807 0.008666199631989
0.18035607039928 0.059158656746149 0.011406216770411
0.2306047976017 0.062775731086731 0.01354706287384
0.29187098145485 0.066624596714973 0.016424290835857
0.36106610298157 0.071938693523407 0.019575294107199
0.44123423099518 0.077073656022549 0.022816648706794
0.53014063835144 0.085567608475685 0.025692055001855
0.61123371124268 0.10077840834856 0.038282856345177
0.67762476205826 0.12615482509136 0.065370708703995
0.73979783058167 0.15702770650387 0.097400598227978
0.79054510593414 0.19601906836033 0.13738217949867
0.82402330636978 0.23788812756538 0.18265296518803
0.83025693893433 0.28507745265961 0.23154458403587
0.83574247360229 0.33412051200867 0.28371873497963
0.83723855018616 0.38540282845497 0.33702751994133
0.83873462677002 0.43581381440163 0.39083054661751
0.84197610616684 0.48496177792549 0.44210848212242
0.84048002958298 0.53502458333969 0.49254775047302
0.84097874164581 0.58076757192612 0.54401111602783
0.83948266506195 0.62696361541748 0.59085434675217
0.83624118566513 0.67264527082443 0.63519066572189
0.0048883892595768 0.05428347364068 0.013567647896707
0.0042896843515337 0.055489163845778 0.0073018446564674
0.010541643947363 0.056170642375946 0.0042148460634053
0.018472442403436 0.056432750076056 0.0045035071671009
0.025724362581968 0.056852120906115 0.0048028598539531
0.032980773597956 0.057323910295963 0.0040010227821767
0.040976077318192 0.057848125696182 0.0046531837433577
0.051976937800646 0.05884413048625 0.0057995212264359
0.066326051950455 0.060469191521406 0.0067346408031881
0.085164047777653 0.062670886516571 0.0073784939013422
0.10918541252613 0.065967798233032 0.0079303681850433
0.14048892259598 0.068356156349182 0.009064775891602
0.18035607039928 0.07086393237114 0.011756163090467
0.23013490438461 0.07438675314188 0.014507429674268
0.28996878862381 0.078028999269009 0.017422107979655
0.3584309220314 0.082339107990265 0.020126719027758
0.43843659758568 0.087249115109444 0.02278434112668
0.52545201778412 0.09498406201601 0.026693601161242
0.60649907588959 0.10971084982157 0.038979478180408
0.6737277507782 0.13396663963795 0.064893037080765
0.73634451627731 0.16258013248444 0.097550719976425
0.79054510593414 0.19971032440662 0.13857005536556
0.82402330636978 0.24059000611305 0.18355174362659
0.83025693893433 0.28697964549065 0.23201447725296
0.83599185943604 0.33571937680244 0.28412637114525
0.83723855018616 0.38664290308952 0.33717286586761
0.83898395299911 0.43668806552887 0.39099538326263
0.84197610616684 0.48570185899734 0.44228333234787
0.84048002958298 0.53561067581177 0.49273276329041
0.84097874164581 0.58117926120758 0.54420644044876
0.83948266506195 0.6271800994873 0.59106016159058
0.83624118566513 0.67264527082443 0.63540714979172
0.0055389138869941 0.075222678482533 0.0087581789121032
0.0099240923300385 0.075998894870281 0.0054469350725412
0.020100461319089 0.076357148587704 0.0056308931671083
0.025692055001855 0.076655693352222 0.0060447985306382
0.032748565077782 0.077013947069645 0.0064587038941681
0.039211686700583 0.077431909739971 0.0060907881706953
0.047651771456003 0.077969290316105 0.0058915000408888
0.057323910295963 0.078745506703854 0.0068266200833023
0.071461021900177 0.079581432044506 0.0080530066043139
0.088930629193783 0.0804558172822 0.0088348276913166
0.1117375344038 0.081935547292233 0.009738827124238
0.14094579219818 0.08422239869833 0.010562229901552
0.18055579066277 0.086643777787685 0.012126693502069
0.22849029302597 0.089872270822525 0.015111371874809
0.287930727005 0.093100771307945 0.01870876736939
0.35579571127892 0.095858447253704 0.020914470776916
0.43389043211937 0.1005532220006 0.023107420653105
0.51937621831894 0.10768415778875 0.027824377641082
0.60052937269211 0.12042062729597 0.041066903620958
0.6689647436142 0.14240777492523 0.065908089280128
0.7327076792717 0.17046944797039 0.09659831225872
0.78720963001251 0.20546434819698 0.13884417712688
0.82277655601501 0.24487365782261 0.18475012481213
0.83050626516342 0.28996878862381 0.23295426368713
0.83599185943604 0.33760893344879 0.28466984629631
0.83698922395706 0.38819301128387 0.33760893344879
0.83898395299911 0.43773716688156 0.39132505655289
0.84172677993774 0.48681199550629 0.44245818257332
0.84048002958298 0.53639209270477 0.49291780591011
0.84097874164581 0.5817968249321 0.54420644044876
0.83948266506195 0.62739664316177 0.59106016159058
0.83624118566513 0.67307823896408 0.63540714979172
0.013649987988174 0.10107865929604 0.0075471219606698
0.022719725966454 0.10122878104448 0.0074858027510345
0.028502844274044 0.10122878104448 0.0076850904151797
0.033754799515009 0.101303845644 0.0079150376841426
0.039018180221319 0.10145397484303 0.0082522947341204
0.044836174696684 0.10160409659147 0.0084822420030832
0.052815675735474 0.10175421833992 0.0081296553835273
0.062566041946411 0.1020544692874 0.0080989962443709
0.074207626283169 0.10242978483438 0.009018786251545
0.090343095362186 0.10303028672934 0.010541643947363
0.11398941278458 0.10378091037273 0.011797333136201
0.14222502708435 0.10528215765953 0.012558979913592
0.18055579066277 0.10700859874487 0.013649987988174
0.22766797244549 0.1090352833271 0.015872864052653
0.28507745265961 0.11166246980429 0.019076384603977
0.35099038481712 0.11428965628147 0.021362792700529
0.42874494194984 0.11684714257717 0.023721270263195
0.51401048898697 0.1228306517005 0.027759762480855
0.59106016159058 0.13679218292236 0.038824673742056
0.66290271282196 0.15328136086464 0.06847557425499
0.72725248336792 0.18045593798161 0.099127031862736
0.78244459629059 0.21306400001049 0.13984929025173
0.81853771209717 0.25158217549324 0.18564890325069
0.83075559139252 0.29363730549812 0.23365910351276
0.83599185943604 0.34051594138145 0.28534919023514
0.83698922395706 0.39066568017006 0.33804497122765
0.83923333883286 0.43948569893837 0.39198446273804
0.84172677993774 0.48810717463493 0.44298273324966
0.84048002958298 0.53717350959778 0.49310281872749
0.84097874164581 0.58241438865662 0.54440182447433
0.83948266506195 0.62804615497589 0.59126603603363
0.83624118566513 0.67351126670837 0.63540714979172
0.018524959683418 0.12964521348476 0.010150528512895
0.026822831481695 0.12964521348476 0.010047603398561
0.033522594720125 0.12964521348476 0.010171113535762
0.038785971701145 0.12981142103672 0.010438718833029
0.044518284499645 0.12981142103672 0.010706325061619
0.049241226166487 0.12981142103672 0.01095334533602
0.056170642375946 0.12981142103672 0.01128270663321
0.065788671374321 0.12997762858868 0.01082983519882
0.078327544033527 0.13022693991661 0.010768080130219
0.094580501317978 0.13047625124454 0.011982598342001
0.11474003642797 0.13105797767639 0.01354706287384
0.14478352665901 0.13172282278538 0.015347697772086
0.18055579066277 0.13321869075298 0.016345515847206
0.22649323940277 0.13479767739773 0.01773720793426
0.2830393910408 0.13670907914639 0.019890394061804
0.3470566868782 0.13802179694176 0.021879719570279
0.4234699010849 0.13911829888821 0.022558186203241
0.50919991731644 0.14277328550816 0.025885902345181
0.58303195238113 0.15346410870552 0.043655440211296
0.65294373035431 0.1712683737278 0.072416357696056
0.72066074609756 0.19221924245358 0.10310534387827
0.77696484327316 0.22285157442093 0.14268191158772
0.81355082988739 0.25942987203598 0.18689949810505
0.83150362968445 0.29934388399124 0.234011515975
0.83599185943604 0.344731092453 0.28630030155182
0.83723855018616 0.39346805214882 0.33891707658768
0.83948266506195 0.44123423099518 0.39297351241112
0.84147745370865 0.48958736658096 0.44350728392601
0.84048002958298 0.53834569454193 0.49347287416458
0.84097874164581 0.58323782682419 0.54459714889526
0.83948266506195 0.62869560718536 0.59126603603363
0.83624118566513 0.67394423484802 0.63562363386154
0.024141274392605 0.16547620296478 0.013073606416583
0.029458954930305 0.1652764827013 0.013073606416583
0.037354022264481 0.1652764827013 0.013114776462317
0.044472869485617 0.16507674753666 0.01327945664525
0.050149481743574 0.1647771447897 0.01354706287384
0.054964952170849 0.16507674753666 0.013752913102508
0.061045825481415 0.16507674753666 0.014041103422642
0.070744514465332 0.16507674753666 0.014481171965599
0.083482533693314 0.16517661511898 0.014226369559765
0.09882678091526 0.16517661511898 0.013999933376908
0.11983889341354 0.16517661511898 0.015321439132094
0.14651963114738 0.16547620296478 0.01710700802505
0.18275281786919 0.16657471656799 0.019522776827216
0.22578839957714 0.16677445173264 0.020573111250997
0.28072959184647 0.16727377474308 0.021524332463741
0.34400433301926 0.16757336258888 0.023721270263195
0.41720578074455 0.16687431931496 0.023785887286067
0.4973583817482 0.16877174377441 0.028793616220355
0.57273936271667 0.17626160383224 0.048060487955809
0.64385068416595 0.18961365520954 0.076118312776089
0.70997756719589 0.210349842906 0.10941059887409
0.76981735229492 0.23542119562626 0.14661100506783
0.8113067150116 0.26879647374153 0.18809372186661
0.83250099420547 0.30722436308861 0.23659592866898
0.8354931473732 0.35099038481712 0.287930727005
0.83723855018616 0.39775404334068 0.33993452787399
0.83973199129105 0.44403186440468 0.39396259188652
0.84147745370865 0.49162262678146 0.44420671463013
0.84048002958298 0.53990852832794 0.49402794241905
0.84097874164581 0.58447289466858 0.54498785734177
0.83948266506195 0.62934511899948 0.59167772531509
0.83624118566513 0.67459374666214 0.63562363386154
0.032980773597956 0.20893847942352 0.01710700802505
0.039295800030231 0.20882990956306 0.017133265733719
0.046107735484838 0.20861278474331 0.017159525305033
0.053811684250832 0.20850421488285 0.01721204072237
0.059420764446259 0.20839564502239 0.017395850270987
0.063352361321449 0.20839564502239 0.017553400248289
0.068654701113701 0.20828707516193 0.017763467505574
0.076237730681896 0.20806995034218 0.018104825168848
0.088459804654121 0.20796138048172 0.01849870197475
0.10445646941662 0.20752711594105 0.01849870197475
0.12474205344915 0.20741854608059 0.018577476963401
0.15017461776733 0.20730997622013 0.019627811387181
0.18295255303383 0.20698428153992 0.021201252937317
0.2275505065918 0.20741854608059 0.020021686330438
0.27692520618439 0.20579005777836 0.022493569180369
0.33993452787399 0.20340159535408 0.025401283055544
0.41011741757393 0.20090456306934 0.025659747421741
0.48755210638046 0.19992746412754 0.03089090436697
0.56100732088089 0.20372729003429 0.051557566970587
0.63172662258148 0.21328113973141 0.079223178327084
0.69997638463974 0.22978249192238 0.1136891618371
0.7586196064949 0.25512629747391 0.15227623283863
0.80931198596954 0.28086546063423 0.19287064671516
0.83225166797638 0.31784126162529 0.23965023458004
0.8352438211441 0.35920596122742 0.29024052619934
0.83773726224899 0.40352362394333 0.34109732508659
0.83998137712479 0.44770374894142 0.39528134465218
0.84147745370865 0.49439799785614 0.44508096575737
0.84048002958298 0.5418621301651 0.49476802349091
0.84097874164581 0.58591389656067 0.54537862539291
0.83948266506195 0.63021111488342 0.59188359975815
0.83599185943604 0.67524325847626 0.63584017753601
0.037392724305391 0.25892356038094 0.021395100280643
0.042747180908918 0.25867041945457 0.021168945357203
0.050058655440807 0.25841727852821 0.021019503474236
0.05879170820117 0.25816410779953 0.021045763045549
0.06895324587822 0.25765782594681 0.02123356051743
0.07486442476511 0.25740465521812 0.021330485120416
