AgX Luts/AgX - High Contrast.cube
LUT_3D_SIZE 32
0 0 0
0 0 0
0 0 0
0 0 0
0 0 0
0 0 0
0.00017006702546496 0 0
0.001464466098696 0 2.8344506063149e-05
0.0046318015083671 0 6.6137181420345e-05
0.010665155015886 0 0.00013227436284069
0.021019503474236 0 0.0002551005454734
0.038940779864788 0 0.00049130473053083
0.070326551795006 0 0.00090702419402078
0.1252406835556 0 0.0002551005454734
0.21639056503773 1.8896336769103e-05 5.6689012126299e-05
0.3461846113205 0.00043461573659442 9.4481685664505e-05
0.51253032684326 0.00082199065946043 0.00056689011398703
0.7227064371109 0.0059681492857635 0.00012282618263271
0.88164925575256 0.051819670945406 0.033445190638304
0.98884963989258 0.12341238558292 0.096800096333027
1 0.2153332978487 0.18445052206516
1 0.31202724575996 0.2781480550766
1 0.39989703893661 0.3629262149334
1 0.4676368534565 0.42561289668083
1 0.5358060002327 0.48810717463493
1 0.62070286273956 0.57706224918365
1 0.70361316204071 0.66203671693802
1 0.77934736013412 0.74051254987717
1 0.84721237421036 0.81180542707443
1 0.90692579746246 0.87695878744125
1 0.96219754219055 0.93228191137314
1 0.99728041887283 0.98286652565002
0 0 0
0 0 0
0 0 0
0 0 0
0 0 0
0 0 0
0.00047240842832252 0 9.4481683845515e-06
0.0020974932704121 0 3.7792673538206e-05
0.005523584317416 0 7.5585347076412e-05
0.011838503181934 0 0.00015117069415282
0.022622801363468 0 0.00027399687678553
0.040976077318192 0 0.00051020109094679
0.075700350105762 0 5.6689012126299e-05
0.13330179452896 0.0012849508784711 0
0.22437873482704 0.0013321917504072 0
0.35440063476563 0.0022014232818037 0
0.52122646570206 0.0047066393308342 0
0.72407025098801 0.011097440496087 0.00020785970264114
0.88164925575256 0.057166647166014 0.034257918596268
0.98721784353256 0.12831553816795 0.097926035523415
1 0.21944485604763 0.18544916808605
1 0.31478890776634 0.27909913659096
1 0.4028642475605 0.36432132124901
1 0.4697350859642 0.42676681280136
1 0.53736889362335 0.48884725570679
1 0.62152630090714 0.57726806402206
1 0.70429509878159 0.66225320100784
1 0.77982383966446 0.74051254987717
1 0.84746170043945 0.81180542707443
1 0.90718638896942 0.87695878744125
1 0.96219754219055 0.93228191137314
1 0.99728041887283 0.98286652565002
0 0 0
0 0 0
0 0 0
0 0 0
0 0 0
9.4481685664505e-05 0 0
0.00087867968250066 0 1.8896336769103e-05
0.0027822304982692 0 3.7792673538206e-05
0.0065353531390429 0 7.5585347076412e-05
0.012950096279383 0 0.00016061885980889
0.024464353919029 0 0.00017006702546496
0.046153146773577 0.00023620421416126 0
0.081262938678265 0.0021447341423482 0
0.13930104672909 0.0045355809852481 0
0.23036985099316 0.0056002330966294 0
0.35967099666595 0.0064893634989858 0
0.52506130933762 0.0086355404928327 0
0.72634327411652 0.016896940767765 0.0003495822311379
0.88164925575256 0.06324752420187 0.035186748951674
0.98504221439362 0.13371731340885 0.099127031862736
1 0.2237913608551 0.18646523356438
1 0.31740519404411 0.28005024790764
1 0.40566661953926 0.36587142944336
1 0.47200816869736 0.42792072892189
1 0.53873640298843 0.48977237939835
1 0.62255555391312 0.57767981290817
1 0.70474970340729 0.66268622875214
1 0.78006207942963 0.74075078964233
1 0.84771102666855 0.81205475330353
1 0.90744692087173 0.87695878744125
1 0.96246951818466 0.93228191137314
1 0.99728041887283 0.98313844203949
0 0 0
0 0 0
0 0 0
0 0 0
0 0 0
0.0003495822311379 0 9.4481683845515e-06
0.0013794326223433 0 2.8344506063149e-05
0.0038406553212553 0 9.4481683845515e-06
0.0081756450235844 0.00018896337132901 0
0.015636539086699 0.00057633826509118 0
0.028438229113817 0.0013132954481989 0
0.050331134349108 0.0027287746779621 0
0.086307473480701 0.0050166831351817 0
0.1454231441021 0.0074551431462169 0
0.23577362298965 0.0086508700624108 0
0.36509639024734 0.010500473901629 0
0.52877312898636 0.013649987988174 0
0.72838896512985 0.022461261600256 0.00053854560246691
0.88217043876648 0.069669753313065 0.036076880991459
0.98395437002182 0.13875280320644 0.10025297105312
1 0.22731555998325 0.18765945732594
1 0.32045757770538 0.281001329422
1 0.40830412507057 0.36726653575897
1 0.47445610165596 0.42907464504242
1 0.54029929637909 0.49051249027252
1 0.6235848069191 0.57788562774658
1 0.70520424842834 0.66290271282196
1 0.78053861856461 0.74098908901215
1 0.84796041250229 0.81205475330353
1 0.90770751237869 0.87721937894821
1 0.96246951818466 0.93228191137314
1 0.99728041887283 0.98313844203949
0 9.4481683845515e-06 0
0 2.8344506063149e-05 9.4481683845515e-06
0 6.6137181420345e-05 1.8896336769103e-05
0 0.0001133780242526 2.8344506063149e-05
0.00026454872568138 0.00023620421416126 0
0.0011243320768699 0.00044406391680241 0
0.0027073924429715 0.00068971631117165 0
0.0054775946773589 0.0010298503329977 0
0.010232868604362 0.0015494995750487 0
0.018314892426133 0.0022959050256759 0
0.031897138804197 0.0035519939847291 0
0.05438831821084 0.0051709981635213 0
0.091486521065235 0.0081756450235844 0
0.15072286128998 0.010521058924496 0
0.24105989933014 0.012414884753525 0
0.36959168314934 0.014349879696965 0
0.53228956460953 0.018104825168848 0
0.73020738363266 0.027985917404294 0.00072750897379592
0.88321280479431 0.072774611413479 0.037005711346865
0.9823225736618 0.14341290295124 0.10122878104448
1 0.23142711818218 0.18852798640728
1 0.32423669099808 0.28222417831421
1 0.41094166040421 0.36866164207458
1 0.47682070732117 0.43022856116295
1 0.54166680574417 0.49143761396408
1 0.62440824508667 0.57829737663269
1 0.70588618516922 0.66311925649643
1 0.78101509809494 0.74122732877731
1 0.84820973873138 0.81230407953262
1 0.90770751237869 0.87721937894821
1 0.96274143457413 0.93228191137314
1 0.99728041887283 0.98313844203949
0 0.00081254250835627 0.00017006702546496
0 0.00092592049622908 0.00019841153698508
0 0.0010581949027255 0.00021730786829721
9.4481683845515e-06 0.0011621246812865 1.8896336769103e-05
0.00079364614794031 0.0014266733778641 0
0.0019557708874345 0.0017290147952735 0
0.0039048024918884 0.0021069415379316 0
0.0071025569923222 0.0027180835604668 0
0.012250203639269 0.0035306117497385 0
0.02070440351963 0.0045035071671009 0
0.035070646554232 0.0060294684953988 0
0.057952966541052 0.0082676243036985 0
0.096060231328011 0.011735578067601 0
0.15583984553814 0.013814668171108 0
0.24651914834976 0.016292998567224 0
0.37424203753471 0.01902386918664 0
0.53521996736526 0.023107420653105 0
0.73157119750977 0.033522594720125 0.00096371315885335
0.88321280479431 0.077969290316105 0.037741038948298
0.98150670528412 0.14725063741207 0.1020544692874
1 0.23506878316402 0.18939651548862
1 0.32757973670959 0.28399047255516
1 0.41357919573784 0.37005671858788
1 0.47904101014137 0.43144249916077
1 0.54322963953018 0.49217769503593
1 0.62544810771942 0.57870906591415
1 0.70656806230545 0.66333574056625
1 0.78125333786011 0.74122732877731
1 0.84845906496048 0.81230407953262
1 0.90796810388565 0.87721937894821
1 0.96274143457413 0.93255388736725
1 0.99728041887283 0.98313844203949
0 0.0028143040835857 0.00057633826509118
0 0.003006744896993 0.00062357913702726
0 0.003188494592905 0.00046296024811454
0.00029289320809767 0.003466464811936 0
0.0015211551217362 0.0038620377890766 0
0.0030708918347955 0.0042362282983959 0
0.0051556681282818 0.0046531837433577 0
0.008742849342525 0.0053549557924271 0
0.014454913325608 0.0064127142541111 0
0.023785887286067 0.0078383889049292 0
0.038437660783529 0.0096564870327711 0
0.062670886516571 0.012394299730659 0
0.10137891024351 0.015741573646665 0
0.16128188371658 0.018367409706116 0
0.25373396277428 0.021136635914445 0
0.37966740131378 0.024722816422582 0
0.54029929637909 0.029019771143794 0
0.73202580213547 0.041838921606541 0.0012566064251587
0.88217043876648 0.084491439163685 0.038553763180971
0.98041886091232 0.15255035459995 0.10318040847778
1 0.23835802078247 0.19037361443043
1 0.33179488778114 0.28616440296173
1 0.41621670126915 0.37160682678223
1 0.48126128315926 0.43266648054123
1 0.54498785734177 0.49310281872749
1 0.62674713134766 0.57912075519562
1 0.70724999904633 0.66355222463608
1 0.78172987699509 0.74146556854248
1 0.84870839118958 0.81255346536636
1 0.90822869539261 0.87721937894821
1 0.96274143457413 0.93255388736725
1 0.99728041887283 0.98313844203949
0 0.0066273319534957 0.0013605362037197
0 0.0068419496528804 0.0012188137043267
0 0.0070718973875046 0.00029289320809767
0.00096371315885335 0.0075624519959092 0
0.0026539366226643 0.0080223465338349 0
0.004567654337734 0.0084515819326043 0
0.0071485466323793 0.0089574670419097 0
0.01107685547322 0.009738827124238 0
0.017369590699673 0.011241536587477 0
0.027372067794204 0.012950096279383 0
0.043564613908529 0.015452731400728 0
0.068774119019508 0.018761284649372 0
0.10760910063982 0.021524332463741 0
0.16877174377441 0.024981280788779 0
0.26158165931702 0.028567461296916 0
0.38664290308952 0.032168045639992 0
0.54616004228592 0.037586230784655 0
0.7331622838974 0.051767252385616 0.0017101184930652
0.88008576631546 0.095791190862656 0.039749931544065
0.97742730379105 0.16022582352161 0.10483178496361
1 0.24352684617043 0.19189354777336
1 0.33688217401505 0.28901770710945
1 0.42000815272331 0.37377700209618
1 0.48440670967102 0.43458983302116
1 0.5471368432045 0.49439799785614
1 0.62847912311554 0.57994419336319
1 0.70815920829773 0.66398525238037
1 0.78244459629059 0.74194204807281
1 0.84920710325241 0.81280279159546
1 0.90848928689957 0.87747997045517
1 0.96301341056824 0.93255388736725
1 0.99728041887283 0.98313844203949
0 0.013073606416583 0.0020974932704121
0 0.013402966782451 0.0010392984841019
0.00023620421416126 0.013876423239708 0.0001133780242526
0.0022864567581564 0.014376138336957 0
0.0043859044089913 0.015111371874809 0
0.0068879392929375 0.015794089064002 0
0.0099035073071718 0.016608098521829 0
0.014308709651232 0.017710950225592 0
0.021395100280643 0.019102644175291 0
0.032322853803635 0.021201252937317 0
0.049195811152458 0.024528969079256 0
0.075222678482533 0.027242835611105 0
0.11481510102749 0.03058129362762 0
0.17805917561054 0.034644931554794 0
0.27145457267761 0.038979478180408 0
0.39528134465218 0.043882504105568 0
0.5531929731369 0.04942287504673 0
0.73429876565933 0.064534783363342 0.0023148013278842
0.87878286838531 0.10843478143215 0.041884336620569
0.97525161504745 0.17256660759449 0.10730884969234
1 0.25335422158241 0.19417344033718
1 0.3435682952404 0.29336556792259
1 0.42478865385056 0.37672218680382
1 0.48829218745232 0.43686291575432
1 0.55006724596024 0.49624821543694
1 0.63064414262772 0.58076757192612
1 0.70952302217484 0.66441822052002
1 0.7833976149559 0.74218028783798
1 0.84970581531525 0.81305211782455
1 0.90901041030884 0.87747997045517
1 0.96328538656235 0.93255388736725
1 0.99728041887283 0.98313844203949
0 0.024658201262355 0.0017006703419611
6.6137181420345e-05 0.025433590635657 0.00051020109094679
0.0018518409924582 0.026208981871605 1.8896336769103e-05
0.0045462721027434 0.026952063664794 0
0.0073018446564674 0.027630530297756 0
0.010047603398561 0.028341304510832 0
0.013979348354042 0.029149003326893 0
0.019207676872611 0.030619993805885 0
0.027210528030992 0.032555058598518 0
0.038631167262793 0.034335322678089 0
0.056065797805786 0.036967009305954 0
0.083280757069588 0.039976995438337 0
0.12565620243549 0.044518284499645 0
0.18950508534908 0.04942287504673 0
0.2830393910408 0.05438831821084 0
0.40649083256721 0.059997398406267 0
0.55905371904373 0.067281395196915 0
0.73452609777451 0.083213493227959 0.0033488620538265
0.8766981959343 0.12399411201477 0.044291220605373
0.97253203392029 0.18624809384346 0.11046147346497
1 0.26575866341591 0.1974304318428
1 0.35316053032875 0.29594710469246
1 0.43161734938622 0.38013243675232
1 0.49365788698196 0.44035995006561
1 0.55397439002991 0.49865353107452
1 0.63345867395401 0.5817968249321
1 0.71111410856247 0.66528421640396
1 0.78458887338638 0.74289506673813
1 0.85045385360718 0.81355082988739
1 0.90953159332275 0.87774056196213
1 0.96355736255646 0.93282586336136
1 0.99728041887283 0.9834104180336
9.4481685664505e-05 0.044881585985422 0.00097316136816517
0.0012566064251587 0.045744430273771 0.00023620421416126
0.0043645221740007 0.046607278287411 9.4481683845515e-06
0.0077004204504192 0.047243058681488 0
0.010438718833029 0.047924250364304 0
0.013361796736717 0.048605445772409 0
0.018183600157499 0.049468290060759 0
0.02381819486618 0.050467371940613 0
0.03263246268034 0.052081778645515 0
0.044427458196878 0.054126210510731 0
0.063771732151508 0.056694854050875 0
0.093033514916897 0.060678876936436 0
0.13729080557823 0.065669253468513 0
0.20383585989475 0.071938693523407 0
0.29649057984352 0.077372200787067 0
0.41671124100685 0.083886101841927 0
0.56667274236679 0.090746656060219 0
0.73520797491074 0.10753403604031 0.0048135509714484
0.86809897422791 0.15108835697174 0.047197643667459
0.96763676404953 0.20383585989475 0.11428965628147
1 0.27964261174202 0.20155596733093
1 0.36463135480881 0.29920798540115
1 0.43896114826202 0.38214758038521
1 0.50124388933182 0.44508096575737
1 0.55924910306931 0.50179892778397
1 0.63692265748978 0.5834436416626
1 0.71315979957581 0.6665832400322
1 0.7862566113472 0.74360984563828
1 0.8514512181282 0.81404954195023
1 0.91031336784363 0.87800115346909
1 0.96410125494003 0.93309777975082
1 0.99728041887283 0.9834104180336
0.0001133780242526 0.075282387435436 0.0017762556672096
0.0012943990295753 0.076357148587704 0.00067081995075569
0.0041720815934241 0.077133364975452 0.00014172252849676
0.0090034566819668 0.078088708221912 0
0.01282658521086 0.078805215656757 0
0.015977898612618 0.079521723091602 0
0.020861953496933 0.0804558172822 0
0.028728999197483 0.081868283450603 0
0.038050647825003 0.083415277302265 0
0.052763257175684 0.085702128708363 0
0.073491118848324 0.088796108961105 0
0.10498190671206 0.092898994684219 0
0.15136249363422 0.099127031862736 0
0.21979728341103 0.10573253780603 0
0.3152249455452 0.1124881580472 0
0.43022856116295 0.11842612177134 0
0.57562124729156 0.12465894967318 0
0.74051254987717 0.13984929025173 0.0080989962443709
0.86445087194443 0.17646133899689 0.051872093230486
0.9657329916954 0.22896018624306 0.12058683484793
1 0.29662644863129 0.20655001699924
1 0.37765225768089 0.30328410863876
1 0.45015168190002 0.38493779301643
1 0.51271533966064 0.45190018415451
1 0.56667274236679 0.50642454624176
1 0.64103615283966 0.58570802211761
1 0.71611469984055 0.66809874773026
1 0.78816258907318 0.74456280469894
1 0.85294729471207 0.81479758024216
1 0.91109508275986 0.87852227687836
1 0.96464520692825 0.93336975574493
1 0.9975523352623 0.98368239402771
0.0001133780242526 0.12382790446281 0.0030922743026167
0.00089757598470896 0.12474205344915 0.0018801855621859
0.0033488620538265 0.12582240998745 0.00077474978752434
0.0081603154540062 0.12690275907516 0.00015117069415282
0.015505247749388 0.128149330616 0
0.019890394061804 0.12914657592773 0
0.024787433445454 0.13047625124454 0
0.032942075282335 0.13230454921722 0
0.045971497893333 0.13463146984577 0
0.061674881726503 0.13679218292236 0
0.086038433015347 0.14039753377438 0
0.11859232932329 0.14505764842033 0
0.17036958038807 0.15127111971378 0
0.23835802078247 0.15693633258343 0
0.33164954185486 0.16228052973747 0
0.44613006711006 0.16757336258888 0
0.5850904583931 0.17216715216637 0
0.73634451627731 0.18335200846195 0.011838503181934
0.85843288898468 0.21208690106869 0.059106238186359
0.96002185344696 0.25550600886345 0.12831553816795
0.99836826324463 0.3214750289917 0.21427604556084
1 0.39330321550369 0.30831134319305
1 0.46536380052567 0.39247900247574
1 0.52603805065155 0.46046793460846
1 0.57767981290817 0.51308542490005
1 0.6470981836319 0.58879578113556
1 0.71975153684616 0.67026376724243
1 0.79054510593414 0.74599230289459
1 0.85444337129593 0.81579494476318
1 0.91265857219696 0.87904345989227
1 0.96546107530594 0.93364173173904
1 0.9975523352623 0.98395437002182
0.00021730786829721 0.2010131329298 0.0034985383972526
0.0014550179475918 0.20231592655182 0.0020030117593706
0.0039261844940484 0.20361872017384 0.0011054356582463
0.0081909755244851 0.2047043889761 0.00047240842832252
0.015085114166141 0.20589861273766 0.00012282618263271
0.021976642310619 0.20687571167946 1.8896336769103e-05
0.030736098065972 0.20806995034218 0
0.038592465221882 0.20948131382465 0
0.052291464060545 0.2113269418478 0
0.073192574083805 0.21371540427208 0
0.098001100122929 0.21697792410851 0
0.13679218292236 0.22097201645374 0
0.18841941654682 0.2255534529686 0
0.26094877719879 0.2322494238615 0
0.3488202393055 0.23365910351276 0
0.46011823415756 0.23318921029568 0
0.59353041648865 0.23318921029568 9.4481683845515e-06
0.72998005151749 0.23965023458004 0.018131084740162
0.84796041250229 0.26056906580925 0.069132372736931
0.94778364896774 0.29812103509903 0.13911829888821
0.99918413162231 0.34975028038025 0.22402630746365
1 0.41671124100685 0.31624239683151
1 0.48477673530579 0.40385329723358
1 0.54322963953018 0.47078421711922
1 0.59188359975815 0.52196651697159
1 0.65532523393631 0.59332454204559
1 0.72543406486511 0.67286175489426
1 0.79364234209061 0.74789834022522
1 0.85668742656708 0.81704163551331
1 0.91422206163406 0.87956464290619
1 0.96627694368362 0.93418562412262
1 0.99782431125641 0.98422628641129
0.00017006702546496 0.30178955197334 0.0054316050373018
0.00073695712490007 0.30341997742653 0.0026111719198525
0.002643245505169 0.3051863014698 0.00087867968250066
0.008666199631989 0.30640915036201 0.00029289320809767
0.020888213068247 0.30736023187637 3.7792673538206e-05
0.030078176409006 0.30790370702744 0
0.03847636282444 0.30885481834412 0
0.048560030758381 0.31007763743401 0
0.06293299049139 0.31116461753845 0
0.083818838000298 0.31246328353882 0
0.11376421898603 0.31449818611145 0
0.15181936323643 0.31682381033897 0
0.20285876095295 0.32016685605049 0
0.2699356675148 0.32307386398315 0
0.36556142568588 0.32627159357071 0
0.46938538551331 0.31914940476418 0
0.59332454204559 0.31116461753845 0.001464466098696
0.72088801860809 0.30912655591965 0.029342850670218
0.83499449491501 0.32060292363167 0.084155142307281
0.93554544448853 0.34632995724678 0.15446922183037
1 0.39116021990776 0.23706582188606
1 0.44525581598282 0.32598087191582
1 0.50660955905914 0.41143620014191
1 0.56257021427155 0.48218640685081
1 0.60835176706314 0.53228956460953
1 0.66766571998596 0.60032349824905
1 0.7331622838974 0.67632573843002
1 0.79840737581253 0.75028079748154
1 0.8596795797348 0.81878703832626
1 0.91630673408508 0.88060694932938
1 0.96763676404953 0.93500149250031
1 0.99809628725052 0.98477023839951
0.0073171746917069 0.41638153791428 0.0015872922958806
0.011509141884744 0.41720578074455 0.00056689011398703
0.018367409706116 0.41819486021996 9.4481685664505e-05
0.027372067794204 0.41901907324791 0
0.037470128387213 0.41918390989304 0
0.043655440211296 0.41934877634048 0
0.05083067715168 0.41967844963074 0
0.061989407986403 0.42000815272331 0
0.078327544033527 0.42050269246101 0
0.098901845514774 0.42099723219872 0
0.12681965529919 0.42165660858154 0
0.16188107430935 0.42330506443977 0
0.21110980212688 0.42462381720543 0
0.27626445889473 0.42660194635391 0
0.36044603586197 0.42676681280136 0
0.47608062624931 0.42627227306366 0
0.58776652812958 0.40978774428368 0.0099240923300385
0.70634078979492 0.39412742853165 0.049104984849691
0.81953507661819 0.39247900247574 0.10588265955448
0.91917318105698 0.40780958533287 0.17486350238323
0.99048137664795 0.43808689713478 0.25335422158241
1 0.48477673530579 0.33949849009514
1 0.53775960206985 0.42792072892189
1 0.58653146028519 0.49125257134438
1 0.62847912311554 0.54518324136734
1 0.68247419595718 0.60896933078766
1 0.74384808540344 0.68111038208008
1 0.80582112073898 0.75337809324265
1 0.86419028043747 0.8212805390358
1 0.91917318105698 0.88190984725952
1 0.9692685008049 0.93581742048264
1 0.99836826324463 0.98531413078308
0.032864671200514 0.53482919931412 0
0.040249470621347 0.53482919931412 0
0.046425625681877 0.53482919931412 0
0.052920520305634 0.53502458333969 0
0.060311928391457 0.53502458333969 0
0.06752023100853 0.53521996736526 0
0.07486442476511 0.53521996736526 0
0.084625959396362 0.53502458333969 0
0.098526537418365 0.53463387489319 0
0.11759507656097 0.53424316644669 0
0.14167678356171 0.53424316644669 0
0.17346540093422 0.53463387489319 0
0.21803517639637 0.53443849086761 0
0.27525183558464 0.53463387489319 0
0.35114538669586 0.53365707397461 0.0010959875071421
0.45015168190002 0.52740556001663 0.010212283581495
0.57809150218964 0.52104145288467 0.035922076553106
0.68724751472473 0.4973583817482 0.079402305185795
0.79840737581253 0.47904101014137 0.13388352096081
0.89858716726303 0.47978109121323 0.19981889426708
0.97661143541336 0.49717333912849 0.2748721241951
1 0.52877312898636 0.35672578215599
1 0.57541543245316 0.44333243370056
1 0.61761510372162 0.51438057422638
1 0.65532523393631 0.56354695558548
1 0.69974905252457 0.61885023117065
1 0.75623708963394 0.68724751472473
1 0.81554555892944 0.75766658782959
1 0.87122601270676 0.82427263259888
1 0.92308187484741 0.88373392820358
1 0.9717161655426 0.9371771812439
1 0.99864017963409 0.98613005876541
0.06465420126915 0.64753121137619 0.006903269328177
0.070983350276947 0.64774769544601 0.0071332165971398
0.077431909739971 0.6470981836319 0.007363164331764
0.084558703005314 0.6470981836319 0.0075624519959092
0.091150224208832 0.64688169956207 0.0080836666747928
0.097175411880016 0.6466651558876 0.0088808173313737
0.10348065942526 0.64644867181778 0.0097182421013713
0.11113703250885 0.64579916000366 0.010706325061619
0.12266444414854 0.64493316411972 0.011509141884744
0.13902692496777 0.64363420009613 0.012538394890726
0.16108214855194 0.64255166053772 0.013629402965307
0.1906993240118 0.64103615283966 0.014901305548847
0.22696313261986 0.63908767700195 0.018761284649372
0.28168067336082 0.63605666160583 0.030697396025062
0.34990531206131 0.6323761343956 0.048650857061148
0.43598866462708 0.62804615497589 0.067699357867241
0.54010391235352 0.62008529901505 0.090410359203815
0.66918122768402 0.61143952608109 0.12083614617586
0.77267634868622 0.58447289466858 0.17246674001217
0.87461358308792 0.56569594144821 0.23307172954082
0.96355736255646 0.56725877523422 0.30301237106323
0.99782431125641 0.58426707983017 0.37966740131378
1 0.61596828699112 0.46046793460846
1 0.65554171800613 0.53307098150253
1 0.68724751472473 0.5850904583931
1 0.72407025098801 0.63259261846542
1 0.77053207159042 0.69520306587219
1 0.82701545953751 0.76338458061218
1 0.87956464290619 0.82826215028763
1 0.92881470918655 0.8858186006546
1 0.97497963905334 0.93880897760391
1 0.99918413162231 0.98721784353256
0.15520021319389 0.73793560266495 0.081128418445587
0.1587638258934 0.73770833015442 0.0815319865942
0.16248026490211 0.73748099803925 0.081935547292233
0.16627512872219 0.73725372552872 0.082271851599216
0.17006999254227 0.73702639341354 0.082675412297249
0.17396472394466 0.73679912090302 0.083078972995281
0.17875823378563 0.73657178878784 0.083549797534943
0.18494984507561 0.73634451627731 0.084087878465652
0.19363060593605 0.73543530702591 0.085500344634056
0.20687571167946 0.73452609777451 0.087383642792702
0.22614082694054 0.73338961601257 0.089334189891815
0.2486709356308 0.73179847002029 0.091688305139542
0.27575814723969 0.72998005151749 0.096531055867672
0.31362608075142 0.72793436050415 0.10535722225904
0.37098678946495 0.7236156463623 0.12258134037256
0.43878629803658 0.71952420473099 0.14460076391697
0.52122646570206 0.71475088596344 0.16088242828846
0.62566465139389 0.70634078979492 0.18896225094795
0.75218683481216 0.69611221551895 0.22332146763802
0.84746170043945 0.66723275184631 0.27991437911987
0.93989682197571 0.64861369132996 0.33920776844025
0.99728041887283 0.65034568309784 0.40863382816315
1 0.66701626777649 0.48163133859634
1 0.69633954763412 0.55670940876007
1 0.72293376922607 0.60505813360214
1 0.75075733661652 0.65056216716766
1 0.79197460412979 0.70543158054352
1 0.84023070335388 0.77053207159042
1 0.88920617103577 0.83349841833115
1 0.93636131286621 0.88920617103577
1 0.98014688491821 0.9409846663475
1 0.99972802400589 0.98884963989258
0.25145560503006 0.81729102134705 0.17945727705956
