AgX Luts/AgX - Punchy.cube
LUT_3D_SIZE 32
0.00010392985132057 9.4481685664505e-05 0.00010392985132057
0.00010392985132057 9.4481685664505e-05 0.00010392985132057
0.00010392985132057 9.4481685664505e-05 0.00010392985132057
0.00010392985132057 9.4481685664505e-05 0.00010392985132057
0.00010392985132057 9.4481685664505e-05 0.00010392985132057
0.00010392985132057 9.4481685664505e-05 0.00010392985132057
0.00029289320809767 0.0001133780242526 0.0001133780242526
0.00099205772858113 6.6137181420345e-05 7.5585347076412e-05
0.0029746715445071 0 5.6689012126299e-05
0.007501132786274 0 0.0002551005454734
0.015584022738039 0 0.00048185657942668
0.029084388166666 0 0.0006991644622758
0.051243036985397 0 0.00068971631117165
0.08583664894104 1.8896336769103e-05 9.4481683845515e-06
0.13321869075298 0.00087867968250066 0
0.19591049849987 0.0030922743026167 0
0.28032198548317 0.0053089666180313 0
0.39099538326263 0.0095329768955708 0
0.5203013420105 0.017474625259638 0
0.66636675596237 0.02123356051743 0.00051964924205095
0.77529710531235 0.050421960651875 0.022590493783355
0.85793417692184 0.094311460852623 0.056747276335955
0.91031336784363 0.15181936323643 0.10573253780603
0.92907530069351 0.21697792410851 0.16907134652138
0.93772113323212 0.29078403115273 0.24035507440567
0.94587993621826 0.36385628581047 0.31595170497894
0.94914346933365 0.44001024961472 0.39181959629059
0.9526789188385 0.51123517751694 0.46623805165291
0.95431071519852 0.58200269937515 0.53736889362335
0.95485460758209 0.64579916000366 0.60711663961411
0.95322287082672 0.70929569005966 0.66983073949814
0.9537667632103 0.76552885770798 0.72929817438126
0.00010392985132057 9.4481685664505e-05 0.00010392985132057
0.00010392985132057 9.4481685664505e-05 0.00010392985132057
0.00010392985132057 9.4481685664505e-05 0.00010392985132057
0.00010392985132057 9.4481685664505e-05 0.00010392985132057
0.00010392985132057 9.4481685664505e-05 0.00010392985132057
0.00015117069415282 0.00013227436284069 0.00012282618263271
0.00045351209701039 0.00010392985132057 0.0001133780242526
0.0013510880526155 1.8896336769103e-05 5.6689012126299e-05
0.0036695967428386 0 9.4481685664505e-05
0.0083136139437556 0 0.00028344505699351
0.016765648499131 0 0.00050075293984264
0.030658695846796 0 0.0006991644622758
0.055069793015718 0 9.4481683845515e-06
0.08906514942646 0.002324249362573 0
0.13587802648544 0.0040437872521579 0
0.19775614142418 0.0064127142541111 0
0.28195244073868 0.0094712218269706 0
0.39231413602829 0.013238286599517 0
0.52159649133682 0.020021686330438 0
0.66485124826431 0.025659747421741 0.00056689011398703
0.7745823264122 0.053916525095701 0.022493569180369
0.85693681240082 0.096800096333027 0.057114224880934
0.91057395935059 0.15373823046684 0.10580759495497
0.92933589220047 0.21850506961346 0.16937093436718
0.93799310922623 0.29173511266708 0.24059000611305
0.94587993621826 0.36463135480881 0.31609705090523
0.94914346933365 0.44070965051651 0.39214929938316
0.95295089483261 0.5116052031517 0.46641290187836
0.95431071519852 0.58200269937515 0.53756427764893
0.95485460758209 0.64579916000366 0.60711663961411
0.95322287082672 0.70952302217484 0.66983073949814
0.9537667632103 0.76576709747314 0.72952544689178
0.00010392985132057 9.4481685664505e-05 0.00010392985132057
0.00010392985132057 9.4481685664505e-05 0.00010392985132057
0.00010392985132057 9.4481685664505e-05 0.00010392985132057
0.00010392985132057 9.4481685664505e-05 0.00010392985132057
0.00010392985132057 9.4481685664505e-05 0.00010392985132057
0.00024565236526541 0.0001133780242526 0.00012282618263271
0.00067081995075569 7.5585347076412e-05 0.00010392985132057
0.0017762556672096 0 3.7792673538206e-05
0.0043217577040195 0 0.00013227436284069
0.0091006904840469 0 0.00031178956851363
0.017999792471528 0 0.00051964924205095
0.034915842115879 2.8344506063149e-05 0
0.058162651956081 0.0018801855621859 0
0.091822825372219 0.0045035071671009 0
0.13847868144512 0.0063973846845329 0
0.19971032440662 0.0089727966114879 0
0.28358286619186 0.012064938433468 0
0.3942922949791 0.016214223578572 0
0.52271699905396 0.022945880889893 0
0.66355222463608 0.029845967888832 0.00061413092771545
0.77362936735153 0.057376332581043 0.022428954020143
0.85593938827515 0.099577412009239 0.057376332581043
0.91057395935059 0.15547434985638 0.10603278130293
0.92933589220047 0.22003223001957 0.1697703897953
0.93826502561569 0.29268619418144 0.2408249527216
0.94587993621826 0.36540639400482 0.31624239683151
0.94914346933365 0.44140908122063 0.39231413602829
0.95295089483261 0.51197522878647 0.46658775210381
0.95431071519852 0.58241438865662 0.53775960206985
0.95485460758209 0.64601570367813 0.60711663961411
0.95322287082672 0.70952302217484 0.66983073949814
0.9537667632103 0.76576709747314 0.72952544689178
0.00010392985132057 9.4481685664505e-05 0.00010392985132057
0.00010392985132057 9.4481685664505e-05 0.00010392985132057
0.00010392985132057 9.4481685664505e-05 0.00010392985132057
0.00010392985132057 9.4481685664505e-05 0.00010392985132057
0.00016061885980889 0.00013227436284069 0.00012282618263271
0.00038737489376217 0.00010392985132057 0.0001133780242526
0.00093536864733323 6.6137181420345e-05 8.503351273248e-05
0.0023336976300925 0 2.8344506063149e-05
0.005523584317416 0 2.8344506063149e-05
0.011673822067678 0 0
0.021685872226954 0.00050075293984264 0
0.037508830428123 0.001842392841354 0
0.060888562351465 0.0042255371809006 0
0.094378724694252 0.0066886516287923 0
0.14039753377438 0.0088501581922174 0
0.20144739747047 0.011612066999078 0
0.28494158387184 0.014691238291562 0
0.39643526077271 0.018866317346692 0
0.52447521686554 0.025627437978983 0
0.66311925649643 0.033058177679777 0.00075585348531604
0.77267634868622 0.060102242976427 0.022655108943582
0.85519140958786 0.10227965563536 0.057481177151203
0.9108344912529 0.15721045434475 0.10625797510147
0.92933589220047 0.22155937552452 0.17006999254227
0.9385370016098 0.29336556792259 0.24105989933014
0.94587993621826 0.3663364648819 0.3163877427578
0.94914346933365 0.44193363189697 0.39247900247574
0.95295089483261 0.51253032684326 0.46676260232925
0.95431071519852 0.58262026309967 0.53775960206985
0.95485460758209 0.64623218774796 0.60711663961411
0.95322287082672 0.70952302217484 0.67004722356796
0.9537667632103 0.76576709747314 0.72952544689178
0.0001133780242526 0.00015117069415282 0.00012282618263271
0.0001133780242526 0.00017006702546496 0.00013227436284069
0.00010392985132057 0.00018896337132901 0.00013227436284069
0.00010392985132057 0.00021730786829721 0.00013227436284069
0.00027399687678553 0.0002551005454734 0.00010392985132057
0.00066137179965153 0.00030234138830565 7.5585347076412e-05
0.0015211551217362 0.00034013405092992 1.8896336769103e-05
0.003562685335055 0.00039682307397015 0
0.0073018446564674 0.0006046827766113 0
0.013588232919574 0.0010959875071421 0
0.024173581972718 0.0021447341423482 0
0.039704516530037 0.0040330961346626 0
0.063352361321449 0.0067039811983705 0
0.096800096333027 0.0088961478322744 0
0.14249914884567 0.011550311930478 0
0.20285876095295 0.014329294674098 0
0.28602853417397 0.017763467505574 0
0.39791887998581 0.021621255204082 0
0.52779632806778 0.026984371244907 0
0.66268622875214 0.035728570073843 0.00093536864733323
0.7717233300209 0.062566041946411 0.022881265729666
0.85469269752502 0.10445646941662 0.057743281126022
0.9108344912529 0.15885519981384 0.1063330322504
0.92933589220047 0.22320400178432 0.17046944797039
0.9385370016098 0.29458838701248 0.24129484593868
0.94587993621826 0.36726653575897 0.31667846441269
0.94941538572311 0.44245818257332 0.39280867576599
0.95295089483261 0.51271533966064 0.4669374525547
0.95431071519852 0.58282607793808 0.53795498609543
0.95485460758209 0.64644867181778 0.60732251405716
0.95322287082672 0.70997756719589 0.67004722356796
0.9537667632103 0.76600533723831 0.72952544689178
2.8344506063149e-05 0.00049130473053083 0.00016061885980889
1.8896336769103e-05 0.00053854560246691 0.00016061885980889
9.4481683845515e-06 0.00058578641619533 0.00016061885980889
1.8896336769103e-05 0.00065192359033972 6.6137181420345e-05
0.00039682307397015 0.00074640527600423 1.8896336769103e-05
0.00099205772858113 0.00086923147318885 9.4481683845515e-06
0.0021825269795954 0.0010392984841019 0
0.0046318015083671 0.0013510880526155 0
0.0087121892720461 0.0018612891435623 0
0.015584022738039 0.002824995201081 0
0.026273597031832 0.0043431399390101 0
0.042293053120375 0.0063973846845329 0
0.065908089280128 0.0091418605297804 0
0.098901845514774 0.011509141884744 0
0.14432664215565 0.013958763331175 0
0.20437869429588 0.017500882968307 0
0.28697964549065 0.020940728485584 0
0.39923763275146 0.024755124002695 0
0.52916383743286 0.029116695746779 0
0.66203671693802 0.038244154304266 0.0012188137043267
0.77053207159042 0.064893037080765 0.023075113072991
0.85494202375412 0.10663328319788 0.058110229671001
0.91135567426682 0.16013444960117 0.10648316144943
0.92959642410278 0.22461368143559 0.17076903581619
0.93880897760391 0.2954036295414 0.24152979254723
0.94615191221237 0.36804157495499 0.31696915626526
0.94941538572311 0.44280788302422 0.39297351241112
0.95295089483261 0.51327043771744 0.46711230278015
0.95403873920441 0.58323782682419 0.53795498609543
0.95485460758209 0.64688169956207 0.60732251405716
0.95322287082672 0.70997756719589 0.67004722356796
0.9537667632103 0.76600533723831 0.72952544689178
0 0.001464466098696 0.00033068589982577
0 0.0015778441447765 0.0003495822311379
0 0.0016817739233375 0.00032123771961778
9.4481683845515e-06 0.0018707372946665 5.6689012126299e-05
0.00058578641619533 0.0021069415379316 0
0.0015494995750487 0.0023809385020286 0
0.0032205681782216 0.0027715393807739 0
0.0060294684953988 0.0034023178741336 0
0.010623984970152 0.0042789927683771 0
0.017763467505574 0.0054469350725412 0
0.028632076457143 0.0072711850516498 0
0.045108649879694 0.0094300517812371 0
0.06847557425499 0.012311959639192 0
0.10145397484303 0.01455994695425 0
0.14624550938606 0.01752714253962 0
0.20633287727833 0.020730661228299 0
0.28915357589722 0.024819741025567 0
0.39973217248917 0.028922848403454 0
0.52955454587936 0.032748565077782 0
0.66117072105408 0.041566446423531 0.0016250850167125
0.76957911252975 0.067699357867241 0.023462807759643
0.85544073581696 0.10911034792662 0.05858202278614
0.91187685728073 0.16198094189167 0.10685846954584
0.92959642410278 0.22625829279423 0.1712683737278
0.93908095359802 0.29649057984352 0.24188221991062
0.94615191221237 0.3694366812706 0.31725984811783
0.94941538572311 0.44368213415146 0.39313837885857
0.95295089483261 0.51382547616959 0.4672871530056
0.95403873920441 0.58364951610565 0.53815031051636
0.95485460758209 0.64688169956207 0.60732251405716
0.95322287082672 0.71043217182159 0.67004722356796
0.9537667632103 0.76600533723831 0.72952544689178
0 0.0042896843515337 0.0009542650077492
0 0.0044500515796244 0.00093536864733323
0 0.0046318015083671 0.00059523462550715
6.6137181420345e-05 0.0049525359645486 4.7240842832252e-05
0.0011337802279741 0.0053396262228489 0
0.0025897896848619 0.0057841911911964 0
0.0046852570958436 0.0062747457996011 0
0.0078383889049292 0.0069339289329946 0
0.01282658521086 0.0080989962443709 0
0.020336786285043 0.0094918068498373 0
0.031781032681465 0.011673822067678 0
0.048287555575371 0.014020518399775 0
0.071401312947273 0.016503065824509 0
0.10423128306866 0.019050126895308 0
0.14871262013912 0.022332029417157 0
0.20872133970261 0.025853594765067 0
0.29159924387932 0.029278235509992 0
0.40154546499252 0.034490127116442 0
0.52838236093521 0.038708571344614 0
0.65987169742584 0.046425625681877 0.0021730787120759
0.76814961433411 0.071640148758888 0.024044349789619
0.85593938827515 0.11233803629875 0.059315919876099
0.91265857219696 0.16447755694389 0.10783428698778
0.92959642410278 0.22825534641743 0.17196741700172
0.93935286998749 0.29798516631126 0.24235211312771
0.94615191221237 0.37083178758621 0.31769591569901
0.94968736171722 0.44473126530647 0.39346805214882
0.95295089483261 0.51456558704376 0.4676368534565
0.95403873920441 0.58406120538712 0.53834569454193
0.95485460758209 0.64731466770172 0.60752832889557
0.95322287082672 0.71043217182159 0.67026376724243
0.9537667632103 0.76600533723831 0.72952544689178
0 0.0093271257355809 0.0017668075161055
0 0.0096359020099044 0.0012471582740545
9.4481683845515e-06 0.010047603398561 0.00022675604850519
0.00087867968250066 0.010582814924419 0
0.0027073924429715 0.011097440496087 0
0.0046531837433577 0.011632652021945 0
0.0071178870275617 0.012209033593535 0
0.010644569993019 0.012991266325116 0
0.015846606343985 0.013979348354042 0
0.023656655102968 0.015820348635316 0
0.035186748951674 0.018157342448831 0
0.051400300115347 0.019995428621769 0
0.074745006859303 0.022493569180369 0
0.10768415778875 0.025530515238643 0
0.15181936323643 0.028890538960695 0
0.21165263652802 0.032709866762161 0
0.29458838701248 0.036463893949986 0
0.40385329723358 0.040703602135181 0
0.52779632806778 0.046471036970615 0
0.65684068202972 0.05459800362587 0.0026860102079809
0.76624357700348 0.077611036598682 0.024432046338916
0.85718613862991 0.11668093502522 0.060574032366276
0.91344034671783 0.16797283291817 0.10918541252613
0.92985701560974 0.23130963742733 0.17286621034145
0.9396248459816 0.30002322793007 0.24317441880703
0.94615191221237 0.37238189578056 0.31827729940414
0.94995933771133 0.44595521688461 0.39396259188652
0.9526789188385 0.5156757235527 0.46798658370972
0.95403873920441 0.58467876911163 0.53854101896286
0.95485460758209 0.64818066358566 0.60773420333862
0.95322287082672 0.71043217182159 0.67026376724243
0.9537667632103 0.76648181676865 0.72975277900696
0 0.018209859728813 0.0014928105520085
9.4481685664505e-05 0.018761284649372 0.00012282618263271
0.0010392984841019 0.019260194152594 0
0.0033060973510146 0.019732844084501 0
0.0052783070132136 0.020205494016409 0
0.0075317923910916 0.020678145810962 0
0.010459303855896 0.021362792700529 0
0.014164614491165 0.022364338859916 0
0.019864136353135 0.023624347522855 0
0.027824377641082 0.024787433445454 0
0.038979478180408 0.026467444375157 0
0.055489163845778 0.028438229113817 0
0.078626088798046 0.031200513243675 0
0.11113703250885 0.034683633595705 0
0.15547434985638 0.037934545427561 0
0.21545077860355 0.04215681552887 0
0.2974416911602 0.046243973076344 0
0.40484237670898 0.049740765243769 0
0.53014063835144 0.053549576550722 0
0.65575820207596 0.062828153371811 0.0028143040835857
0.76362282037735 0.087181858718395 0.022687416523695
0.85469269752502 0.12374480068684 0.061150666326284
0.91317975521088 0.17326566576958 0.11106197535992
0.93037819862366 0.23518624901772 0.17426431179047
0.94016873836517 0.30301237106323 0.2441142052412
0.94615191221237 0.37501707673073 0.31914940476418
0.95023131370544 0.44752889871597 0.39445713162422
0.9526789188385 0.51715594530106 0.46851113438606
0.95403873920441 0.58550214767456 0.53893178701401
0.95485460758209 0.64861369132996 0.60794007778168
0.95322287082672 0.71111410856247 0.67048025131226
0.9537667632103 0.76695835590363 0.72975277900696
0.00019841153698508 0.032168045639992 5.6689012126299e-05
0.0015117069706321 0.03263246268034 0
0.003744435030967 0.033096879720688 0
0.0061521073803306 0.033522594720125 0
0.0082982843741775 0.033909607678652 0
0.010582814924419 0.034296620637178 0
0.013711743056774 0.034838438034058 0
0.017500882968307 0.035418957471848 0
0.023656655102968 0.036231685429811 0
0.031355317682028 0.037237919867039 0
0.043428376317024 0.038592465221882 0
0.060207083821297 0.040839839726686 0
0.083886101841927 0.043791677802801 0
0.11564078181982 0.047333881258965 0
0.15931206941605 0.05083067715168 0
0.21991474926472 0.05459800362587 0
0.30178955197334 0.05858202278614 0
0.40599629282951 0.062251515686512 0
0.52447521686554 0.068714410066605 0
0.65532523393631 0.072714902460575 0.0036054498050362
0.76028734445572 0.097175411880016 0.023979734629393
0.85095250606537 0.13438215851784 0.061727304011583
0.90901041030884 0.18145458400249 0.1129385381937
0.93119406700134 0.24047254025936 0.1757622808218
0.94071269035339 0.30681675672531 0.24563311040401
0.94642382860184 0.37827232480049 0.32045757770538
0.95050323009491 0.44962710142136 0.39561104774475
0.9526789188385 0.51863610744476 0.46921053528786
0.95403873920441 0.5867372751236 0.53932249546051
0.95485460758209 0.64969617128372 0.60814589262009
0.95322287082672 0.71156871318817 0.67069673538208
0.9537667632103 0.76719659566879 0.72998005151749
0.00063302728813142 0.050512786954641 0.00029289320809767
0.0024401133414358 0.050980929285288 4.7240842832252e-05
0.0054775946773589 0.051400300115347 0
0.0081756450235844 0.051819670945406 0
0.010438718833029 0.052186623215675 0
0.01282658521086 0.052553571760654 0
0.016476806253195 0.053025361150503 0
0.021362792700529 0.053601998835802 0
0.027275143191218 0.05433589592576 0
0.036463893949986 0.055384323000908 0
0.048151314258575 0.056694854050875 0
0.065072163939476 0.058319915086031 0
0.08960323035717 0.061203088611364 0
0.12191650271416 0.064773619174957 0
0.16567593812943 0.069192081689835 0
0.22625829279423 0.072655193507671 0
0.30871894955635 0.075043551623821 0
0.41094166040421 0.078745506703854 0
0.5264288187027 0.082406371831894 0
0.65294373035431 0.089401453733444 0.0048563154414296
0.75623708963394 0.10971084982157 0.027533607557416
0.84646433591843 0.14597138762474 0.063771732151508
0.9035382270813 0.19287064671516 0.11489015817642
0.93255388736725 0.24879750609398 0.17716039717197
0.94152855873108 0.31246328353882 0.24765832722187
0.94669580459595 0.38183757662773 0.32205641269684
0.95104718208313 0.45224988460541 0.39709466695786
0.9526789188385 0.52085638046265 0.4700847864151
0.95403873920441 0.5883840918541 0.53990852832794
0.95485460758209 0.65056216716766 0.60855758190155
0.95322287082672 0.71247792243958 0.67091327905655
0.9537667632103 0.76791131496429 0.72998005151749
0.0016628776211292 0.076536275446415 0.00050075293984264
0.0036589056253433 0.076894529163837 0.00016061885980889
0.0071332165971398 0.077312491834164 9.4481683845515e-06
0.010850420221686 0.077491618692875 0
0.014123444445431 0.077790163457394 0
0.016765648499131 0.078148417174816 0
0.02007420361042 0.078626088798046 0
0.025692055001855 0.079223178327084 0
0.032322853803635 0.079984992742538 0
0.041475620120764 0.080792121589184 0
0.054860107600689 0.082002803683281 0
0.071759566664696 0.083617053925991 0
0.095656670629978 0.085971169173717 0
0.12823243439198 0.08906514942646 0
0.17386485636234 0.092629954218864 0
0.23483383655548 0.096060231328011 0
0.31478890776634 0.098751723766327 0
0.41357919573784 0.10122878104448 0
0.52838236093521 0.10340559482574 0.00010392985132057
0.64731466770172 0.10941059887409 0.0046104188077152
0.74861305952072 0.13105797767639 0.033406488597393
0.84048002958298 0.1604085713625 0.069550335407257
0.90249586105347 0.20579005777836 0.11742886900902
0.93391370773315 0.26031589508057 0.18135471642017
0.94261640310287 0.32118430733681 0.25094929337502
0.94723975658417 0.3875729739666 0.32438203692436
0.95159107446671 0.45592179894447 0.39890795946121
0.95295089483261 0.52369374036789 0.47113391757011
0.95403873920441 0.59023678302765 0.54088532924652
0.95485460758209 0.65229421854019 0.60896933078766
0.95322287082672 0.71315979957581 0.6713462471962
0.9537667632103 0.76862609386444 0.73020738363266
0.0051022125408053 0.11211284995079 0.00013227436284069
0.0087275188416243 0.11256322264671 9.4481683845515e-06
0.012044353410602 0.11286347359419 0
0.014848788268864 0.11308865994215 0
0.018419925123453 0.11338891088963 0
0.021298175677657 0.11353903263807 0
0.025562822818756 0.11383928358555 0
0.031084410846233 0.11421459913254 0
0.038631167262793 0.11481510102749 0
0.048151314258575 0.11549066007137 0
0.061098247766495 0.11651472002268 0
0.079715952277184 0.11776129156351 0
0.10385597497225 0.11942337453365 0
0.13645976781845 0.12249823659658 0
0.18215364217758 0.12532378733158 0
0.24352684617043 0.128149330616 0
0.32162037491798 0.13047625124454 0
0.41506278514862 0.13180592656136 0
0.52896845340729 0.13089177012444 0.00028344505699351
0.6395206451416 0.13756492733955 0.0046318015083671
0.74075078964233 0.15382960438728 0.036425191909075
0.83100497722626 0.18415093421936 0.076715402305126
0.90275645256042 0.22132442891598 0.12565620243549
0.93581742048264 0.27297347784042 0.18689949810505
0.94370424747467 0.33339375257492 0.25537943840027
0.94805562496185 0.39594075083733 0.32728904485703
0.95240694284439 0.4613421857357 0.4008860886097
0.95295089483261 0.52779632806778 0.47270756959915
0.95403873920441 0.59250116348267 0.54205751419067
0.95485460758209 0.6542426943779 0.60958689451218
0.95349478721619 0.71475088596344 0.67177927494049
0.9537667632103 0.76957911252975 0.73066198825836
0.0061521073803306 0.15940344333649 0.00020785970264114
0.0093065407127142 0.15976895391941 4.7240842832252e-05
0.014481171965599 0.16013444960117 0
0.018656251952052 0.16049994528294 0
0.023979734629393 0.16088242828846 0
0.027372067794204 0.16108214855194 0
0.03116181306541 0.16128188371658 0
0.03673480451107 0.16178120672703 0
0.045290302485228 0.16218066215515 0
0.055174637585878 0.16307945549488 0
0.067699357867241 0.16407810151577 0
0.086172953248024 0.1652764827013 0
0.11121209710836 0.16707403957844 9.4481683845515e-06
0.14441801607609 0.16867187619209 0
0.1917849779129 0.17166782915592 0
0.2519619166851 0.17246674001217 0
0.32699832320213 0.17246674001217 0
0.41885423660278 0.17086890339851 0
0.52525663375854 0.16837228834629 0.00036847856245004
0.63172662258148 0.17166782915592 0.011447386816144
0.73134386539459 0.18544916808605 0.039659105241299
0.8212805390358 0.20915560424328 0.082877188920975
0.89103025197983 0.24651914834976 0.13463146984577
0.9360893368721 0.28915357589722 0.19287064671516
0.94560796022415 0.3461846113205 0.25980961322784
0.94914346933365 0.40665566921234 0.33034139871597
0.95240694284439 0.46886083483696 0.40352362394333
0.95295089483261 0.53346168994904 0.47445610165596
0.95403873920441 0.59600061178207 0.54362034797668
0.95485460758209 0.6566241979599 0.61061614751816
0.95349478721619 0.71634203195572 0.67242872714996
0.9537667632103 0.7710086107254 0.73088926076889
0.011632652021945 0.22273410856724 0.00017951520567294
0.015452731400728 0.22308652102947 5.6689012126299e-05
0.020258011296391 0.22343894839287 9.4481683845515e-06
0.025142820551991 0.22390884160995 0
0.028632076457143 0.2241437882185 0
0.031742334365845 0.22437873482704 0
0.035612463951111 0.22449620068073 0
0.041521031409502 0.22473114728928 0
0.050331134349108 0.22496609389782 0
0.060731299221516 0.22543598711491 0
0.074147917330265 0.22637577354908 0
0.091284744441509 0.22743302583694 0
0.11651472002268 0.22825534641743 0
0.15181936323643 0.22978249192238 0
0.19525910913944 0.23048733174801 0
0.25892356038094 0.23213195800781 0
0.3287425339222 0.22896018624306 0
0.41819486021996 0.22202926874161 9.4481683845515e-06
0.5177109837532 0.21674297749996 0.0043110665865242
0.62049704790115 0.21662551164627 0.02059937082231
0.71975153684616 0.22355641424656 0.049286637455225
0.80931198596954 0.24352684617043 0.089805014431477
0.88894557952881 0.27246716618538 0.14341290295124
0.92542713880539 0.31493425369263 0.19949319958687
0.94751167297363 0.36246117949486 0.26512578129768
0.95023131370544 0.41967844963074 0.33571937680244
0.9537667632103 0.47904101014137 0.40682053565979
0.95322287082672 0.5414714217186 0.47719076275826
0.9537667632103 0.60114693641663 0.54557394981384
0.95458263158798 0.66030472517014 0.61164540052414
0.95349478721619 0.71861505508423 0.67329478263855
0.9537667632103 0.77291458845139 0.73157119750977
0.015032596886158 0.29757755994797 0.00026454872568138
0.01912890188396 0.29771342873573 0.00016061885980889
0.023721270263195 0.2978492975235 7.5585347076412e-05
0.028825923800468 0.29812103509903 2.8344506063149e-05
0.03499324247241 0.29839277267456 9.4481683845515e-06
0.041112318634987 0.29852864146233 0
0.045108649879694 0.29852864146233 0
0.050104070454836 0.29852864146233 0
0.058162651956081 0.29852864146233 0
0.068654701113701 0.29852864146233 0
