AgX Luts/AgX - Low Contrast.cube
LUT_3D_SIZE 5
DOMAIN_MIN 0.000000 0.000000 0.000000
DOMAIN_MAX 0.903226 0.903226 0.903226
0.00013227436284069 0.00014172252849676 0.00013227436284069
0.01975910179317 0.0010109540307894 0.00081254250835627
0.29173511266708 0.016713133081794 0.0069339289329946
0.8619236946106 0.18524944782257 0.13765630125999
0.9035382270813 0.58467876911163 0.54518324136734
0.0012943990295753 0.029652461409569 0.0080836666747928
0.038631167262793 0.035031944513321 0.0019746671896428
0.29282209277153 0.057952966541052 0.0086355404928327
0.85668742656708 0.20264162123203 0.14094579219818
0.9035382270813 0.5867372751236 0.54576933383942
0.026661291718483 0.26626497507095 0.010068188421428
0.078626088798046 0.26537892222404 0.012394299730659
0.28928944468498 0.26208797097206 0.012229618616402
0.81155610084534 0.29064816236496 0.16727377474308
0.90379881858826 0.59641236066818 0.54928576946259
0.30477869510651 0.67416077852249 0.23894539475441
0.31289935112 0.6737277507782 0.24023759365082
0.36494135856628 0.6685317158699 0.24892409145832
0.67719179391861 0.63995367288589 0.30912655591965
0.90405935049057 0.66809874773026 0.57418030500412
0.6913388967514 0.89207255840302 0.64320117235184
0.69202083349228 0.89207255840302 0.64320117235184
0.69656682014465 0.89155143499374 0.64385068416595
0.73908305168152 0.88894557952881 0.64861369132996
0.89572072029114 0.88060694932938 0.69747602939606
0.00083143881056458 0.0031243476551026 0.020520595833659
0.029084388166666 0.0018140483880416 0.033445190638304
0.30056670308113 0.011714993044734 0.046788927167654
0.85544073581696 0.19406487047672 0.16777309775352
0.9035382270813 0.58591389656067 0.54948115348816
0.002824995201081 0.037508830428123 0.038244154304266
0.037005711346865 0.037005711346865 0.037005711346865
0.32292851805687 0.043746266514063 0.034567527472973
0.85020446777344 0.21154406666756 0.17216715216637
0.9035382270813 0.58797240257263 0.55006724596024
0.020205494016409 0.27158114314079 0.043973330408335
0.058424759656191 0.27132800221443 0.038244154304266
0.287930727005 0.26398658752441 0.044881585985422
0.80507308244705 0.29812103509903 0.19091644883156
0.90379881858826 0.59785330295563 0.55338829755783
0.31173652410507 0.67329478263855 0.25829067826271
0.31944012641907 0.67199575901031 0.25942987203598
0.37021175026894 0.66766571998596 0.26778388023376
0.67632573843002 0.64038664102554 0.32220175862312
0.90379881858826 0.66918122768402 0.57706224918365
0.69224810600281 0.89233314990997 0.6447166800499
0.69315731525421 0.89207255840302 0.64493316411972
0.69724875688553 0.8918120265007 0.64514970779419
0.7395595908165 0.88920617103577 0.64991271495819
0.89546012878418 0.88060694932938 0.69861257076263
0.0061980970203876 0.040794428437948 0.27692520618439
0.040839839726686 0.032400254160166 0.31507959961891
0.30491456389427 0.031781032681465 0.31048527359962
0.82277655601501 0.23624351620674 0.30355584621429
0.9035382270813 0.59600061178207 0.57077527046204
0.0088041685521603 0.077611036598682 0.28996878862381
0.030503889545798 0.067460522055626 0.32757973670959
0.29594710469246 0.075580932199955 0.30341997742653
0.81030935049057 0.25715151429176 0.30803960561752
0.9035382270813 0.59785330295563 0.57116597890854
0.019969169050455 0.28412637114525 0.28752312064171
0.069132372736931 0.28371873497963 0.28630030155182
0.27828392386436 0.2785556614399 0.27828392386436
0.76791131496429 0.34037056565285 0.32031220197678
0.90327763557434 0.60814589262009 0.57335692644119
0.34255084395409 0.66744923591614 0.35238549113274
0.35052534937859 0.66701626777649 0.35316053032875
0.39561104774475 0.66311925649643 0.35765585303307
0.67091327905655 0.6423351764679 0.39017114043236
0.90327763557434 0.67524325847626 0.59476554393768
0.69679415225983 0.89129084348679 0.65402621030807
0.69747602939606 0.89155143499374 0.65402621030807
0.7017947435379 0.89103025197983 0.65467572212219
0.74289506673813 0.88868498802185 0.65987169742584
0.89519959688187 0.88034635782242 0.70611345767975
0.15474334359169 0.24702544510365 0.78292113542557
0.17825891077518 0.24462050199509 0.78053861856461
0.29227858781815 0.27284690737724 0.7614786028862
0.69747602939606 0.3485102057457 0.70656806230545
0.90327763557434 0.63584017753601 0.68338340520859
0.14834712445736 0.26348030567169 0.78196811676025
0.1793574243784 0.26613837480545 0.7774413228035
0.29200685024261 0.28670790791512 0.76004910469055
0.69452112913132 0.36060106754303 0.70384049415588
0.90327763557434 0.63800513744354 0.68383800983429
0.18335200846195 0.34531250596046 0.76052558422089
0.20513865351677 0.35006031394005 0.75671356916428
0.31667846441269 0.37083178758621 0.73793560266495
0.68201959133148 0.42363473773003 0.69020241498947
0.90249586105347 0.65056216716766 0.68633830547333
0.39841341972351 0.66485124826431 0.6685317158699
0.40583145618439 0.66441822052002 0.66809874773026
0.44682949781418 0.66203671693802 0.66528421640396
0.65554171800613 0.65532523393631 0.65554171800613
0.90145355463028 0.7117959856987 0.69838523864746
0.72384297847748 0.88946676254272 0.72634327411652
0.72475212812424 0.88946676254272 0.72634327411652
0.72929817438126 0.88920617103577 0.72657054662704
0.76124036312103 0.88842445611954 0.72929817438126
0.89389663934708 0.88243103027344 0.75504583120346
0.53854101896286 0.61596828699112 0.90666520595551
0.54127609729767 0.6169975399971 0.90666520595551
0.55924910306931 0.62049704790115 0.90692579746246
0.66550076007843 0.64558267593384 0.90692579746246
0.89546012878418 0.72202455997467 0.89989006519318
0.53912711143494 0.61761510372162 0.90666520595551
0.5422528386116 0.6186443567276 0.90666520595551
0.56042122840881 0.62234967947006 0.90692579746246
0.6661502122879 0.64753121137619 0.90692579746246
0.89546012878418 0.7231610417366 0.89989006519318
0.54205751419067 0.62934511899948 0.90640461444855
0.54498785734177 0.63042765855789 0.90640461444855
0.56510984897614 0.63648962974548 0.90640461444855
0.66766571998596 0.65857273340225 0.90640461444855
0.89441782236099 0.72998005151749 0.89962947368622
0.59270697832108 0.70793187618256 0.90458053350449
0.59476554393768 0.70861381292343 0.90458053350449
0.60773420333862 0.7127051949501 0.90405935049057
0.69565761089325 0.73157119750977 0.90223526954651
0.89441782236099 0.77529710531235 0.89676308631897
0.76409935951233 0.89155143499374 0.89233314990997
0.76457583904266 0.89155143499374 0.89233314990997
0.76838785409927 0.89155143499374 0.89233314990997
0.79673963785172 0.89076966047287 0.8918120265007
0.88998794555664 0.88998794555664 0.88998794555664
