AgX Luts/AgX - Punchy.cube
LUT_3D_SIZE 5
DOMAIN_MIN 0.000000 0.000000 0.000000
DOMAIN_MAX 0.903226 0.903226 0.903226
0.00010392985132057 9.4481685664505e-05 0.00010392985132057
0.00099205772858113 6.6137181420345e-05 7.5585347076412e-05
0.13321869075298 0.00087867968250066 0
0.85793417692184 0.094311460852623 0.056747276335955
0.95431071519852 0.58200269937515 0.53736889362335
0 0.0042896843515337 0.0009542650077492
0.0078383889049292 0.0069339289329946 0
0.14871262013912 0.022332029417157 0
0.85593938827515 0.11233803629875 0.059315919876099
0.95403873920441 0.58406120538712 0.53834569454193
0.0061521073803306 0.15940344333649 0.00020785970264114
0.03673480451107 0.16178120672703 0
0.1917849779129 0.17166782915592 0
0.8212805390358 0.20915560424328 0.082877188920975
0.95403873920441 0.59600061178207 0.54362034797668
0.2326018512249 0.67740827798843 0.16967052221298
0.24223463237286 0.67675876617432 0.17136822640896
0.30722436308861 0.67177927494049 0.18215364217758
0.68747478723526 0.64211869239807 0.25550600886345
0.95703029632568 0.68497449159622 0.58056169748306
0.72566133737564 0.94995933771133 0.67437726259232
0.72657054662704 0.94995933771133 0.67459374666214
0.73157119750977 0.94968736171722 0.67545974254608
0.7774413228035 0.94778364896774 0.68247419595718
0.95675832033157 0.9396248459816 0.74170380830765
6.6137181420345e-05 0.00015117069415282 0.0011904692510143
0.0023998348042369 0 0.0040330961346626
0.13712459802628 0 0.015925381332636
0.85519140958786 0.10062828660011 0.081666506826878
0.95431071519852 0.58426707983017 0.54264360666275
0 0.0074244835413992 0.0077157504856586
0.0076237712055445 0.0076391012407839 0.0076391012407839
0.17975687980652 0.0084362523630261 0.0036695967428386
0.85269790887833 0.1192571669817 0.086105689406395
0.95431071519852 0.58611971139908 0.54342502355576
0.00081254250835627 0.16597552597523 0.012867755256593
0.013423551805317 0.16867187619209 0.0045355809852481
0.19211068749428 0.17296606302261 0.0017006703419611
0.81504690647125 0.21709540486336 0.10715872049332
0.95431071519852 0.59785330295563 0.54850435256958
0.24258705973625 0.6761092543602 0.19189354777336
0.25170874595642 0.67524325847626 0.19352205097675
0.31289935112 0.6713462471962 0.20405298471451
0.68633830547333 0.64276814460754 0.27120143175125
0.95703029632568 0.68656557798386 0.58406120538712
0.72702515125275 0.94995933771133 0.67632573843002
0.72793436050415 0.94968736171722 0.67654228210449
0.73248040676117 0.94968736171722 0.67697525024414
0.77815610170364 0.94723975658417 0.68429261445999
0.956214427948 0.9396248459816 0.7431333065033
0 0.012600149959326 0.12465894967318
0.0091830305755138 0.0078537184745073 0.15748457610607
0.17706052958965 0.00087867968250066 0.18514958024025
0.82576870918274 0.14560589194298 0.22026717662811
0.9526789188385 0.59620648622513 0.56901705265045
0 0.031974539160728 0.14496627449989
0.00065192359033972 0.023559730499983 0.18514958024025
0.17945727705956 0.025336667895317 0.18852798640728
0.81604427099228 0.16867187619209 0.22602334618568
0.9526789188385 0.59847086668015 0.56960308551788
0.0009542650077492 0.18455038964748 0.18863655626774
0.015951639041305 0.18635666370392 0.1898307800293
0.18939651548862 0.18950508534908 0.18939651548862
0.77625012397766 0.26715099811554 0.24715203046799
0.95240694284439 0.61082196235657 0.57335692644119
0.28290352225304 0.67048025131226 0.30015909671783
0.2929579615593 0.67026376724243 0.30124604701996
0.34531250596046 0.66679972410202 0.30640915036201
0.68000626564026 0.64601570367813 0.35114538669586
0.95648640394211 0.69452112913132 0.60485225915909
0.73293501138687 0.94941538572311 0.68770211935043
0.73338961601257 0.94968736171722 0.68770211935043
0.73839020729065 0.94914346933365 0.68861132860184
0.78172987699509 0.94751167297363 0.69679415225983
0.95594245195389 0.94016873836517 0.75123381614685
0.070565387606621 0.16258013248444 0.7621933221817
0.092562690377235 0.16248026490211 0.75933432579041
0.20709285140038 0.19200211763382 0.74742180109024
0.68474721908569 0.28127306699753 0.70588618516922
0.95159107446671 0.64904671907425 0.70202207565308
0.057009384036064 0.17775958776474 0.76552885770798
0.092898994684219 0.18145458400249 0.76171684265137
0.20546434819698 0.2047043889761 0.74932783842087
0.68383800983429 0.29703405499458 0.70293128490448
0.95159107446671 0.65142822265625 0.70293128490448
0.095051325857639 0.26791045069695 0.75576055049896
0.11934027075768 0.27322661876678 0.75242507457733
0.24117738008499 0.30056670308113 0.73475337028503
0.67394423484802 0.37424203753471 0.6908842921257
0.95240694284439 0.66593372821808 0.70724999904633
0.3578108549118 0.67026376724243 0.67524325847626
0.36742153763771 0.66983073949814 0.67459374666214
0.41605186462402 0.66788226366043 0.67221224308014
0.66528421640396 0.66528421640396 0.66528421640396
0.95349478721619 0.74146556854248 0.72793436050415
0.76648181676865 0.94751167297363 0.76981735229492
0.76719659566879 0.94723975658417 0.77005559206009
0.77196156978607 0.94723975658417 0.77053207159042
0.80557179450989 0.94669580459595 0.77434408664703
0.95458263158798 0.94180053472519 0.80631983280182
0.5264288187027 0.61432147026062 0.95186305046082
0.53014063835144 0.6153507232666 0.95186305046082
0.55338829755783 0.62152630090714 0.95186305046082
0.67784124612808 0.65749019384384 0.95295089483261
0.94560796022415 0.75623708963394 0.9526789188385
0.52740556001663 0.61637997627258 0.95186305046082
0.53150814771652 0.61802679300308 0.95186305046082
0.55514657497406 0.62379068136215 0.95186305046082
0.67892378568649 0.65987169742584 0.95295089483261
0.94560796022415 0.75790482759476 0.9526789188385
0.53248488903046 0.63129365444183 0.95213502645493
0.53639209270477 0.63280916213989 0.95186305046082
0.56237483024597 0.64211869239807 0.95159107446671
0.68201959133148 0.67242872714996 0.95322287082672
0.94560796022415 0.76648181676865 0.95240694284439
0.60176450014114 0.72816169261932 0.95403873920441
0.60382300615311 0.72884356975555 0.95403873920441
0.61720341444016 0.7336168885231 0.95403873920441
0.72202455997467 0.76171684265137 0.9526789188385
0.94723975658417 0.81953507661819 0.9526789188385
0.81504690647125 0.95023131370544 0.95131915807724
0.81554555892944 0.95050323009491 0.95131915807724
0.81978446245193 0.95050323009491 0.95131915807724
0.85120189189911 0.95050323009491 0.95131915807724
0.95104718208313 0.95131915807724 0.95104718208313
