AgX Luts/AgX - Greyscale.cube
LUT_3D_SIZE 5
DOMAIN_MIN 0.000000 0.000000 0.000000
DOMAIN_MAX 0.903226 0.903226 0.903226
0 0 0
0.0020974932704121 0.0020880452357233 0.0020974932704121
0.066505178809166 0.06656488776207 0.066505178809166
0.46064278483391 0.46064278483391 0.46064278483391
0.78149157762527 0.78149157762527 0.78149157762527
0.011756163090467 0.011756163090467 0.011756163090467
0.02017923630774 0.020152978599072 0.02017923630774
0.095656670629978 0.095656670629978 0.095656670629978
0.47165846824646 0.47183331847191 0.47165846824646
0.78292113542557 0.78292113542557 0.78292113542557
0.18345187604427 0.18345187604427 0.18345187604427
0.1974304318428 0.1974304318428 0.1974304318428
0.25980961322784 0.25980961322784 0.25980961322784
0.51937621831894 0.51937621831894 0.51937621831894
0.78983038663864 0.78983038663864 0.78983038663864
0.65207767486572 0.65207767486572 0.65207767486572
0.65359318256378 0.65359318256378 0.65359318256378
0.66203671693802 0.66203671693802 0.66203671693802
0.72020614147186 0.72020614147186 0.72020614147186
0.84048002958298 0.84072941541672 0.84048002958298
0.93935286998749 0.9396248459816 0.93935286998749
0.9396248459816 0.93989682197571 0.9396248459816
0.94044071435928 0.94071269035339 0.94044071435928
0.94778364896774 0.94778364896774 0.94778364896774
0.97878712415695 0.97905904054642 0.97878712415695
0.0016817739233375 0.0016912221908569 0.0016817739233375
0.0060447985306382 0.0060447985306382 0.0060447985306382
0.070684805512428 0.070684805512428 0.070684805512428
0.46396496891975 0.46396496891975 0.46396496891975
0.78268283605576 0.78244459629059 0.78268283605576
0.018314892426133 0.018314892426133 0.018314892426133
0.024722816422582 0.024722816422582 0.024722816422582
0.098301343619823 0.09822628647089 0.098301343619823
0.47515550255775 0.47515550255775 0.47515550255775
0.7841123342514 0.7841123342514 0.7841123342514
0.19145928323269 0.19145928323269 0.19145928323269
0.20123025774956 0.20123025774956 0.20123025774956
0.26474604010582 0.26487264037132 0.26474604010582
0.52159649133682 0.52159649133682 0.52159649133682
0.79102158546448 0.79078334569931 0.79102158546448
0.65337669849396 0.65337669849396 0.65337669849396
0.65445917844772 0.65445917844772 0.65445917844772
0.66333574056625 0.66333574056625 0.66333574056625
0.72111535072327 0.7213426232338 0.72111535072327
0.84122806787491 0.84147745370865 0.84122806787491
0.9396248459816 0.93989682197571 0.9396248459816
0.93989682197571 0.93989682197571 0.93989682197571
0.94044071435928 0.94071269035339 0.94044071435928
0.94778364896774 0.94778364896774 0.94778364896774
0.97878712415695 0.97905904054642 0.97878712415695
0.048060487955809 0.048060487955809 0.048060487955809
0.055698849260807 0.055698849260807 0.055698849260807
0.12806622684002 0.12806622684002 0.12806622684002
0.48551684617996 0.48570185899734 0.48551684617996
0.78983038663864 0.78983038663864 0.78983038663864
0.074327044188976 0.074327044188976 0.074327044188976
0.079223178327084 0.079223178327084 0.079223178327084
0.15684495866299 0.15684495866299 0.15684495866299
0.49458301067352 0.49458301067352 0.49458301067352
0.79102158546448 0.79078334569931 0.79102158546448
0.23988518118858 0.23988518118858 0.23988518118858
0.25082272291183 0.25082272291183 0.25082272291183
0.30464282631874 0.30450695753098 0.30464282631874
0.53795498609543 0.53795498609543 0.53795498609543
0.7979308962822 0.79816913604736 0.7979308962822
0.66052120923996 0.66073769330978 0.66052120923996
0.66225320100784 0.66225320100784 0.66225320100784
0.67026376724243 0.67026376724243 0.67026376724243
0.72566133737564 0.72566133737564 0.72566133737564
0.8457162976265 0.84546691179276 0.8457162976265
0.94071269035339 0.9409846663475 0.94071269035339
0.94071269035339 0.9409846663475 0.94071269035339
0.94152855873108 0.94125658273697 0.94152855873108
0.94887149333954 0.94887149333954 0.94887149333954
0.97933101654053 0.97905904054642 0.97933101654053
0.40764474868774 0.40764474868774 0.40764474868774
0.40962290763855 0.40962290763855 0.40962290763855
0.44228333234787 0.44228333234787 0.44228333234787
0.5883840918541 0.5883840918541 0.5883840918541
0.82327526807785 0.82352459430695 0.82327526807785
0.41901907324791 0.41918390989304 0.41901907324791
0.42330506443977 0.42330506443977 0.42330506443977
0.45015168190002 0.45015168190002 0.45015168190002
0.59373623132706 0.59373623132706 0.59373623132706
0.82452201843262 0.82477134466171 0.82452201843262
0.47463095188141 0.47463095188141 0.47463095188141
0.47867095470428 0.4784859418869 0.47867095470428
0.50179892778397 0.50179892778397 0.50179892778397
0.62234967947006 0.62214386463165 0.62234967947006
0.83250099420547 0.83250099420547 0.83250099420547
0.70679539442062 0.70656806230545 0.70679539442062
0.70793187618256 0.70793187618256 0.70793187618256
0.71429634094238 0.71452361345291 0.71429634094238
0.75719010829926 0.75719010829926 0.75719010829926
0.87226831912994 0.8725289106369 0.87226831912994
0.94859951734543 0.94887149333954 0.94859951734543
0.94887149333954 0.94887149333954 0.94887149333954
0.94968736171722 0.94968736171722 0.94968736171722
0.95594245195389 0.956214427948 0.95594245195389
0.98286652565002 0.98259454965591 0.98286652565002
0.76719659566879 0.76743483543396 0.76719659566879
0.76814961433411 0.76814961433411 0.76814961433411
0.77315282821655 0.77315282821655 0.77315282821655
0.80831456184387 0.80856394767761 0.80831456184387
0.90718638896942 0.90718638896942 0.90718638896942
0.76862609386444 0.76862609386444 0.76862609386444
0.76957911252975 0.76957911252975 0.76957911252975
0.7745823264122 0.7745823264122 0.7745823264122
0.80931198596954 0.80956131219864 0.80931198596954
0.90770751237869 0.90796810388565 0.90770751237869
0.776726603508 0.77648836374283 0.776726603508
0.77791786193848 0.77791786193848 0.77791786193848
0.78435063362122 0.78458887338638 0.78435063362122
0.81554555892944 0.81579494476318 0.81554555892944
0.91109508275986 0.91135567426682 0.91109508275986
0.83449578285217 0.83474510908127 0.83449578285217
0.8352438211441 0.8352438211441 0.8352438211441
0.83898395299911 0.83873462677002 0.83898395299911
0.86292105913162 0.86292105913162 0.86292105913162
0.93472957611084 0.93472957611084 0.93472957611084
0.97443574666977 0.97416377067566 0.97443574666977
0.97470772266388 0.97497963905334 0.97470772266388
0.97525161504745 0.97525161504745 0.97525161504745
0.98014688491821 0.98014688491821 0.98014688491821
0.99864017963409 0.99864017963409 0.99864017963409
