AgX Luts/AgX - Punchy.cube
LUT_3D_SIZE 8
DOMAIN_MIN 0.000000 0.000000 0.000000
DOMAIN_MAX 0.903226 0.903226 0.903226
0.00010392985132057 9.4481685664505e-05 0.00010392985132057
0.00010392985132057 9.4481685664505e-05 0.00010392985132057
0.0029746715445071 0 5.6689012126299e-05
0.051243036985397 0 0.00068971631117165
0.28032198548317 0.0053089666180313 0
0.77529710531235 0.050421960651875 0.022590493783355
0.93772113323212 0.29078403115273 0.24035507440567
0.95431071519852 0.58200269937515 0.53736889362335
0.0001133780242526 0.00015117069415282 0.00012282618263271
0.00027399687678553 0.0002551005454734 0.00010392985132057
0.0073018446564674 0.0006046827766113 0
0.063352361321449 0.0067039811983705 0
0.28602853417397 0.017763467505574 0
0.7717233300209 0.062566041946411 0.022881265729666
0.9385370016098 0.29458838701248 0.24129484593868
0.95431071519852 0.58282607793808 0.53795498609543
0 0.0093271257355809 0.0017668075161055
0.0027073924429715 0.011097440496087 0
0.015846606343985 0.013979348354042 0
0.074745006859303 0.022493569180369 0
0.29458838701248 0.036463893949986 0
0.76624357700348 0.077611036598682 0.024432046338916
0.9396248459816 0.30002322793007 0.24317441880703
0.95403873920441 0.58467876911163 0.53854101896286
0.0016628776211292 0.076536275446415 0.00050075293984264
0.014123444445431 0.077790163457394 0
0.032322853803635 0.079984992742538 0
0.095656670629978 0.085971169173717 0
0.31478890776634 0.098751723766327 0
0.74861305952072 0.13105797767639 0.033406488597393
0.94261640310287 0.32118430733681 0.25094929337502
0.95403873920441 0.59023678302765 0.54088532924652
0.015032596886158 0.29757755994797 0.00026454872568138
0.03499324247241 0.29839277267456 9.4481683845515e-06
0.058162651956081 0.29852864146233 0
0.12357859313488 0.29961562156677 0
0.33281236886978 0.29852864146233 0.00077474978752434
0.70270395278931 0.27398607134819 0.063509628176689
0.94887149333954 0.38648790121078 0.27347978949547
0.9537667632103 0.60855758190155 0.54830896854401
0.16357877850533 0.61102783679962 0.10340559482574
0.17016986012459 0.6104102730751 0.10453153401613
0.18145458400249 0.60979270935059 0.10618291050196
0.22202926874161 0.60711663961411 0.11083678156137
0.32946929335594 0.60032349824905 0.12931278347969
0.6235848069191 0.57767981290817 0.18115498125553
0.93445760011673 0.53912711143494 0.34095197916031
0.95648640394211 0.66333574056625 0.56979846954346
0.45399841666222 0.84646433591843 0.39577588438988
0.4557469189167 0.84646433591843 0.39610558748245
0.4585445523262 0.84621495008469 0.39676496386528
0.46816143393517 0.84496825933456 0.39874312281609
0.5034641623497 0.84222543239594 0.40731507539749
0.59908843040466 0.83449578285217 0.42676681280136
0.85045385360718 0.8113067150116 0.4845917224884
0.95811814069748 0.78792434930801 0.62912863492966
0.72566133737564 0.94995933771133 0.67437726259232
0.72611594200134 0.94995933771133 0.67459374666214
0.72679787874222 0.94995933771133 0.67459374666214
0.72907090187073 0.94968736171722 0.67502677440643
0.73679912090302 0.94914346933365 0.6761092543602
0.76386106014252 0.94832754135132 0.68022274971008
0.83998137712479 0.94587993621826 0.69656682014465
0.95675832033157 0.9396248459816 0.74170380830765
0.0001133780242526 0.00013227436284069 0.00014172252849676
0.00012282618263271 0.00013227436284069 0.00016061885980889
0.0039261844940484 0 0.00048185657942668
0.049922417849302 0 0.0047707865014672
0.29608297348022 7.5585347076412e-05 0.0011810210999101
0.77553534507751 0.050980929285288 0.031664930284023
0.93826502561569 0.29390904307365 0.24778489768505
0.95431071519852 0.58303195238113 0.54010391235352
7.5585347076412e-05 0.00036847856245004 0.00037792674265802
0.00043461573659442 0.00043461573659442 0.00043461573659442
0.010129943490028 0 3.7792673538206e-05
0.07295373827219 0.00015117069415282 0
0.31217259168625 0.0083749331533909 0
0.77124685049057 0.063404783606529 0.033561293035746
0.93908095359802 0.29812103509903 0.24917723238468
0.95431071519852 0.58406120538712 0.54049462080002
0 0.010726910084486 0.0039582583121955
0 0.011570896953344 0.00068971631117165
0.014428654685616 0.012929511256516 0
0.080388553440571 0.01763217523694 0
0.3152249455452 0.030155578628182 0
0.76552885770798 0.079044051468372 0.037276621907949
0.93989682197571 0.30396348237991 0.2519619166851
0.95431071519852 0.58550214767456 0.54108071327209
0 0.078805215656757 0.0059374896809459
0.0029425979591906 0.080590337514877 0.00021730786829721
0.02559513039887 0.08207006752491 0
0.095791190862656 0.086172953248024 0
0.32859718799591 0.095387630164623 0
0.74623054265976 0.13396663963795 0.044291220605373
0.94288837909698 0.32525414228439 0.26018932461739
0.95431071519852 0.59106016159058 0.54322963953018
0.010726910084486 0.30138191580772 0.0011243320768699
0.024367429316044 0.30328410863876 9.4481683845515e-06
0.04270176962018 0.30328410863876 0
0.11556572467089 0.3027406334877 0.00051020109094679
0.33281236886978 0.29907211661339 0.0067193112336099
0.69952178001404 0.27706107497215 0.078566379845142
0.94941538572311 0.38967663049698 0.28168067336082
0.95431071519852 0.60938102006912 0.55045795440674
0.1697703897953 0.61020439863205 0.11668093502522
0.17636147141457 0.60999858379364 0.11809370666742
0.18679092824459 0.60917514562607 0.11934027075768
0.22614082694054 0.60629326105118 0.12449274212122
0.33150419592857 0.59991180896759 0.14167678356171
0.62276142835617 0.5785031914711 0.19200211763382
0.93336975574493 0.54088532924652 0.34560319781303
0.95648640394211 0.6642017364502 0.57155668735504
0.45644634962082 0.84646433591843 0.40022671222687
0.45784515142441 0.84621495008469 0.40039154887199
0.46064278483391 0.84596562385559 0.40154546499252
0.470434486866 0.84496825933456 0.40401816368103
0.50512939691544 0.84197610616684 0.41143620014191
0.59991180896759 0.83449578285217 0.4300636947155
0.85020446777344 0.8113067150116 0.48810717463493
0.95811814069748 0.78792434930801 0.63064414262772
0.72634327411652 0.94995933771133 0.67524325847626
0.72679787874222 0.94968736171722 0.67545974254608
0.72725248336792 0.94968736171722 0.67545974254608
0.72975277900696 0.94968736171722 0.6761092543602
0.73725372552872 0.94941538572311 0.67675876617432
0.7643375992775 0.94805562496185 0.68111038208008
0.83998137712479 0.94560796022415 0.69747602939606
0.956214427948 0.9396248459816 0.74241858720779
0 0.00021730786829721 0.0027929216157645
2.8344506063149e-05 0.00016061885980889 0.0049953009001911
0.0065813427790999 0 0.0085588907822967
0.058110229671001 0 0.016975715756416
0.3007025718689 0 0.024658201262355
0.77005559206009 0.059106238186359 0.055489163845778
0.93908095359802 0.29907211661339 0.26297399401665
0.95403873920441 0.58467876911163 0.54420644044876
0 0.0018518409924582 0.0069645885378122
0 0.0009542650077492 0.011879673227668
0.011694407090545 0.00013227436284069 0.013526477850974
0.077909581363201 0 0.015741573646665
0.33688217401505 0.00047240842832252 0.014507429674268
0.76600533723831 0.069490626454353 0.056904539465904
0.9396248459816 0.30355584621429 0.26411318778992
0.95403873920441 0.58570802211761 0.54459714889526
0 0.013876423239708 0.014246954582632
0 0.013835253193974 0.014205784536898
0.014267539605498 0.014267539605498 0.014267539605498
0.088930629193783 0.015058855526149 0.013402966782451
0.34037056565285 0.021588947623968 0.012950096279383
0.75981080532074 0.086778298020363 0.05852960050106
0.94016873836517 0.30967003107071 0.26626497507095
0.95403873920441 0.58756071329117 0.54518324136734
0 0.082137323915958 0.024690508842468
0 0.083818838000298 0.01902386918664
0.017080750316381 0.085702128708363 0.01309419143945
0.095656670629978 0.08745089918375 0.012126693502069
0.33877173066139 0.092697210609913 0.013999933376908
0.74122732877731 0.14030615985394 0.066744014620781
0.94288837909698 0.33135885000229 0.27322661876678
0.95431071519852 0.59291285276413 0.54733216762543
0.0096770720556378 0.30382761359215 0.027888994663954
0.021879719570279 0.30572977662086 0.016818165779114
0.040521949529648 0.30545803904533 0.017763467505574
0.11346397548914 0.30477869510651 0.022816648706794
0.33179488778114 0.30056670308113 0.028082842007279
0.69452112913132 0.2834469974041 0.10092853754759
0.94968736171722 0.39412742853165 0.29187098145485
0.95431071519852 0.61082196235657 0.55397439002991
0.17696066200733 0.60917514562607 0.13902692496777
0.18325215578079 0.6087634563446 0.13984929025173
0.1944991350174 0.60835176706314 0.1412199139595
0.23072227835655 0.60588151216507 0.14551451802254
0.33644610643387 0.59950011968613 0.15922069549561
0.62173211574554 0.57912075519562 0.20861278474331
0.93092209100723 0.54362034797668 0.35579571127892
0.956214427948 0.66550076007843 0.57438617944717
0.46046793460846 0.84546691179276 0.40912836790085
0.46204161643982 0.84521758556366 0.4094580411911
0.46466436982155 0.84546691179276 0.4099525809288
0.47340697050095 0.84422022104263 0.41143620014191
0.50734966993332 0.84172677993774 0.41786515712738
0.60176450014114 0.83399707078934 0.43616351485252
0.84970581531525 0.8113067150116 0.49254775047302
0.95811814069748 0.78863912820816 0.63302564620972
0.72725248336792 0.94968736171722 0.67675876617432
0.72770708799362 0.94968736171722 0.67675876617432
0.72816169261932 0.94968736171722 0.67675876617432
0.73020738363266 0.94995933771133 0.67719179391861
0.73816293478012 0.94941538572311 0.6784907579422
0.765052318573 0.94832754135132 0.68247419595718
0.84023070335388 0.94587993621826 0.69952178001404
0.956214427948 0.93989682197571 0.74337154626846
0 0.0037658172659576 0.043837089091539
0.0011148839257658 0.0028463774360716 0.057586017996073
0.014246954582632 0.0025042602792382 0.068117320537567
0.078446961939335 0 0.085029527544975
0.32278317213058 0 0.09659831225872
0.75409281253815 0.078984342515469 0.12673655152321
0.94016873836517 0.31798660755157 0.3023330271244
0.95349478721619 0.59003090858459 0.55592799186707
0 0.011200366541743 0.060259506106377
0 0.0075624519959092 0.076357148587704
0.012600149959326 0.0039475671947002 0.090544879436493
0.087787203490734 0.0010109540307894 0.093437075614929
0.33775427937508 0.004663874860853 0.095185846090317
0.7498043179512 0.089334189891815 0.12922967970371
0.94044071435928 0.32176572084427 0.30341997742653
0.95349478721619 0.59106016159058 0.55631870031357
0 0.026693601161242 0.073371700942516
9.4481683845515e-06 0.023979734629393 0.084558703005314
0.012023768387735 0.021072020754218 0.093907900154591
0.090410359203815 0.021782794967294 0.093907900154591
0.33819031715393 0.029310543090105 0.094647765159607
0.740274310112 0.1124881580472 0.13479767739773
0.9409846663475 0.32757973670959 0.3051863014698
0.95349478721619 0.59270697832108 0.55690479278564
0.0003495822311379 0.092629954218864 0.094513244926929
0.0012377100065351 0.093235291540623 0.094849541783333
0.012476639822125 0.093638859689236 0.095118589699268
0.095320366322994 0.095320366322994 0.095320366322994
0.33455654978752 0.1020544692874 0.096329271793365
0.7217972278595 0.16397823393345 0.14295603334904
0.94288837909698 0.34778344631195 0.30994176864624
0.95349478721619 0.59805917739868 0.5588583946228
0.01107685547322 0.31021353602409 0.10040310025215
0.021718179807067 0.31075701117516 0.098751723766327
0.042792595922947 0.30953416228294 0.10092853754759
0.11784439533949 0.30817547440529 0.10242978483438
0.32845184206963 0.30572977662086 0.11091184616089
0.67935675382614 0.30178955197334 0.17036958038807
0.94642382860184 0.40830412507057 0.32845184206963
0.95403873920441 0.61658585071564 0.56471914052963
0.19829896092415 0.60670495033264 0.1990589350462
0.20448724925518 0.60608738660812 0.19971032440662
0.21545077860355 0.60567569732666 0.20090456306934
0.25170874595642 0.60299962759018 0.20405298471451
0.35006031394005 0.59785330295563 0.21674297749996
0.61823266744614 0.58097344636917 0.25449341535568
0.92751181125641 0.55260688066483 0.38245761394501
0.95594245195389 0.66961425542831 0.58447289466858
0.4697350859642 0.84397089481354 0.43056824803352
0.47130876779556 0.8437215089798 0.43091794848442
0.47358182072639 0.84297347068787 0.43126764893532
0.48311153054237 0.84247481822968 0.43301618099213
0.51456558704376 0.84023070335388 0.43861144781113
0.60794007778168 0.83299970626831 0.45679605007172
0.84870839118958 0.81255346536636 0.50568443536758
0.95784616470337 0.79054510593414 0.64081966876984
0.73020738363266 0.94968736171722 0.68156498670578
0.73066198825836 0.94941538572311 0.68179225921631
0.73111659288406 0.94941538572311 0.68179225921631
0.7331622838974 0.94968736171722 0.68224686384201
0.74051254987717 0.94914346933365 0.68315607309341
0.76719659566879 0.94805562496185 0.68770211935043
0.84147745370865 0.94506406784058 0.70406776666641
0.956214427948 0.93989682197571 0.74694532155991
0 0.028664384037256 0.26930278539658
0.00035903041134588 0.025885902345181 0.28820246458054
0.014164614491165 0.020861953496933 0.32350993156433
0.086509257555008 0.021072020754218 0.32961463928223
0.31769591569901 0.024496661499143 0.33571937680244
0.72884356975555 0.1129385381937 0.29812103509903
0.94316035509109 0.35595074295998 0.40105095505714
0.95159107446671 0.60711663961411 0.59188359975815
0 0.037237919867039 0.27512526512146
9.4481683845515e-06 0.034606229513884 0.30355584621429
0.0060754581354558 0.028955155983567 0.33441120386124
0.085769392549992 0.02969116345048 0.3384810090065
0.31696915626526 0.037702336907387 0.33513796329498
0.7236156463623 0.12548999488354 0.30002322793007
0.94370424747467 0.35998103022575 0.40269938111305
0.95131915807724 0.60814589262009 0.59208941459656
0 0.057009384036064 0.28276765346527
4.7240842832252e-05 0.053706839680672 0.30871894955635
0.0063820546492934 0.047152232378721 0.34138804674149
0.086240209639072 0.049332048743963 0.34037056565285
0.31682381033897 0.059997398406267 0.33368444442749
0.71611469984055 0.14514902234077 0.30423521995544
0.94288837909698 0.36866164207458 0.40599629282951
0.95131915807724 0.60979270935059 0.59250116348267
2.8344506063149e-05 0.12141788005829 0.30871894955635
0.00059523462550715 0.12042062729597 0.32089361548424
0.015557764098048 0.11668093502522 0.33804497122765
0.093504339456558 0.12058683484793 0.33586472272873
0.31609705090523 0.13180592656136 0.32917860150337
0.69156622886658 0.20535577833652 0.31449818611145
0.94316035509109 0.39066568017006 0.41193073987961
0.95104718208313 0.61514484882355 0.59414798021317
0.014082274399698 0.32234713435173 0.32757973670959
0.027339758351445 0.32249248027802 0.32728904485703
0.057114224880934 0.32249248027802 0.32685297727585
0.12922967970371 0.32118430733681 0.32438203692436
0.32162037491798 0.32162037491798 0.32162037491798
0.64385068416595 0.34749275445938 0.33877173066139
0.93309777975082 0.44630491733551 0.42511835694313
0.95322287082672 0.63129365444183 0.59929424524307
0.2408249527216 0.60382300615311 0.34429505467415
0.24727860093117 0.60299962759018 0.34516713023186
0.25854384899139 0.60217618942261 0.34676599502563
0.29268619418144 0.59950011968613 0.35207545757294
0.38137254118919 0.59517723321915 0.3581208884716
0.61082196235657 0.58632558584213 0.37904736399651
0.9092710018158 0.57767981290817 0.45906913280487
0.95539855957031 0.68111038208008 0.61555659770966
0.49532309174538 0.83973199129105 0.49291780591011
0.49698832631111 0.83973199129105 0.49310281872749
0.49976366758347 0.83973199129105 0.49347287416458
0.50882983207703 0.83873462677002 0.49458301067352
0.54069000482559 0.83624118566513 0.49902358651161
0.62317311763763 0.83025693893433 0.5116052031517
0.84521758556366 0.81404954195023 0.54889506101608
0.95703029632568 0.79721611738205 0.66203671693802
0.73725372552872 0.94914346933365 0.7004309296608
0.73748099803925 0.94914346933365 0.7004309296608
0.73816293478012 0.94887149333954 0.70065826177597
0.740274310112 0.94887149333954 0.70111286640167
0.74813657999039 0.94887149333954 0.7022493481636
0.77267634868622 0.94751167297363 0.70588618516922
0.84496825933456 0.94533598423004 0.71997880935669
0.95594245195389 0.93989682197571 0.7586196064949
0.032787267118692 0.11601609736681 0.68474721908569
0.041884336620569 0.11709645390511 0.68383800983429
0.057952966541052 0.12091924995184 0.68270146846771
0.11842612177134 0.12881416082382 0.6784907579422
0.2731000483036 0.14971774816513 0.66874825954437
0.62070286273956 0.20785281062126 0.64211869239807
0.93826502561569 0.39890795946121 0.57194739580154
0.95240694284439 0.64017015695572 0.67416077852249
0.021588947623968 0.12548999488354 0.68270146846771
0.043428376317024 0.12573930621147 0.68611097335815
0.059001393616199 0.12906347215176 0.68497449159622
0.11489015817642 0.13637666404247 0.6808830499649
0.27474555373192 0.15657083690166 0.66961425542831
0.61946779489517 0.21897496283054 0.64017015695572
0.93880897760391 0.40302908420563 0.57294517755508
0.95240694284439 0.64125269651413 0.67437726259232
0.014770013280213 0.13802179694176 0.68111038208008
0.030774800106883 0.13902692496777 0.68451988697052
0.061517618596554 0.14213365316391 0.68792939186096
0.1124881580472 0.14725063741207 0.68383800983429
0.27706107497215 0.17096877098083 0.66983073949814
0.61885023117065 0.23471635580063 0.63735568523407
0.93908095359802 0.40978774428368 0.57479786872864
0.9526789188385 0.64276814460754 0.67502677440643
0.023075113072991 0.18315228819847 0.68201959133148
0.039250388741493 0.18594850599766 0.68451988697052
0.066684305667877 0.1887451261282 0.68633830547333
0.13105797767639 0.20057886838913 0.67719179391861
0.29363730549812 0.22637577354908 0.65965521335602
0.61123371124268 0.28032198548317 0.63042765855789
0.93228191137314 0.43389043211937 0.57953244447708
0.95322287082672 0.64904671907425 0.67719179391861
0.098451472818851 0.331213504076 0.65922224521637
0.11188765615225 0.33324840664864 0.65792322158813
0.13521319627762 0.33702751994133 0.65554171800613
0.18852798640728 0.34255084395409 0.64991271495819
0.33208560943604 0.36680150032043 0.63324213027954
0.60238206386566 0.39758917689323 0.61493903398514
0.91995489597321 0.49606320261955 0.59311872720718
0.9537667632103 0.66701626777649 0.68201959133148
0.27977851033211 0.60711663961411 0.61246877908707
0.28670790791512 0.60691076517105 0.6120570898056
0.29689818620682 0.60649907588959 0.61164540052414
0.32743439078331 0.60485225915909 0.61020439863205
0.41176587343216 0.60258787870407 0.60608738660812
0.60217618942261 0.60217618942261 0.60217618942261
0.87044423818588 0.62674713134766 0.6186443567276
0.95322287082672 0.71384173631668 0.69383925199509
0.5418621301651 0.83424645662308 0.62502574920654
0.54322963953018 0.83374774456024 0.6252316236496
0.54616004228592 0.83399707078934 0.62566465139389
0.55592799186707 0.83299970626831 0.62739664316177
0.58426707983017 0.83050626516342 0.63215965032578
0.65684068202972 0.82651674747467 0.63822168111801
0.83798658847809 0.81853771209717 0.65554171800613
0.95485460758209 0.81529623270035 0.72247916460037
0.75766658782959 0.94778364896774 0.74742180109024
0.75814306735992 0.94778364896774 0.74742180109024
0.75885784626007 0.94778364896774 0.74742180109024
0.76124036312103 0.94778364896774 0.74789834022522
0.76814961433411 0.94751167297363 0.74861305952072
0.79102158546448 0.94696778059006 0.751948595047
0.85643810033798 0.94506406784058 0.76243156194687
0.95485460758209 0.9409846663475 0.79173636436462
0.25158217549324 0.35316053032875 0.91813081502914
0.2593033015728 0.35300552845001 0.91760963201523
0.26980909705162 0.35378056764603 0.916827917099
0.30505043268204 0.35486564040184 0.91578561067581
0.3838526904583 0.38028743863106 0.91239804029465
0.54655075073242 0.4224808216095 0.9019747376442
0.84970581531525 0.50383418798447 0.86757785081863
0.95023131370544 0.67675876617432 0.81080806255341
0.2536073923111 0.35486564040184 0.9183914065361
0.2624676823616 0.35424560308456 0.91760963201523
0.27132800221443 0.35672578215599 0.916827917099
0.29716995358467 0.37083178758621 0.916827917099
0.37749725580215 0.39148992300034 0.91291916370392
0.54733216762543 0.42495349049568 0.9019747376442
0.84920710325241 0.50771969556808 0.86705666780472
0.95050323009491 0.67762476205826 0.8110573887825
0.25563260912895 0.35858592391014 0.91917318105698
0.26348030567169 0.35982599854469 0.91813081502914
0.27069512009621 0.36571642756462 0.91708850860596
0.29920798540115 0.37610214948654 0.91734910011292
0.37780728936195 0.39511650800705 0.91344034671783
0.54850435256958 0.42907464504242 0.9019747376442
0.84920710325241 0.5116052031517 0.86601436138153
0.95077520608902 0.67892378568649 0.81155610084534
0.24841777980328 0.37796229124069 0.92256075143814
0.25601232051849 0.37966740131378 0.92151838541031
0.27208745479584 0.38106250762939 0.92073667049408
0.30627328157425 0.39462196826935 0.92151838541031
0.37982243299484 0.40813928842545 0.91656732559204
0.55260688066483 0.44892770051956 0.90041124820709
0.84895777702332 0.52506130933762 0.86341977119446
0.95159107446671 0.68361067771912 0.81255346536636
0.28276765346527 0.44123423099518 0.92203956842422
0.28956118226051 0.44385701417923 0.92203956842422
0.30043083429337 0.44822829961777 0.92203956842422
0.33164954185486 0.45662119984627 0.91787022352219
0.4094580411911 0.47515550255775 0.90562283992767
0.57194739580154 0.510125041008 0.88660037517548
0.84097874164581 0.56764954328537 0.85668742656708
0.95186305046082 0.7022493481636 0.81529623270035
0.40154546499252 0.60217618942261 0.88660037517548
0.40550175309181 0.60279375314713 0.8858186006546
0.41193073987961 0.60444056987762 0.88503688573837
0.43249163031578 0.60794007778168 0.88217043876648
0.48292651772499 0.61555659770966 0.87565588951111
0.61349803209305 0.64211869239807 0.85818350315094
0.83324903249741 0.67026376724243 0.84172677993774
0.95240694284439 0.75028079748154 0.82427263259888
0.57912075519562 0.8354931473732 0.83973199129105
0.58076757192612 0.83499449491501 0.83973199129105
0.5834436416626 0.8352438211441 0.83948266506195
0.59147191047668 0.8352438211441 0.83898395299911
0.61596828699112 0.83299970626831 0.83798658847809
0.68474721908569 0.83150362968445 0.83449578285217
0.83100497722626 0.83100497722626 0.83100497722626
0.95186305046082 0.84895777702332 0.84297347068787
0.79149812459946 0.94805562496185 0.84895777702332
0.79173636436462 0.94778364896774 0.84895777702332
0.79245114326477 0.94778364896774 0.84895777702332
0.79411888122559 0.94778364896774 0.84920710325241
0.80008620023727 0.94751167297363 0.85045385360718
0.82202851772308 0.94696778059006 0.85319662094116
0.87643766403198 0.94560796022415 0.85743546485901
0.95240694284439 0.94479209184647 0.8709654211998
0.5264288187027 0.61432147026062 0.95186305046082
0.52818703651428 0.61473315954208 0.95186305046082
0.53111737966537 0.61576241254807 0.95159107446671
0.54088532924652 0.6186443567276 0.95186305046082
0.57294517755508 0.62739664316177 0.95213502645493
0.64514970779419 0.64969617128372 0.95322287082672
0.78697139024734 0.68429261445999 0.95322287082672
0.94560796022415 0.75623708963394 0.9526789188385
0.5268195271492 0.61514484882355 0.95186305046082
0.52896845340729 0.61596828699112 0.95186305046082
0.53189885616302 0.6169975399971 0.95186305046082
0.5414714217186 0.61987948417664 0.95186305046082
0.57335692644119 0.62891215085983 0.95186305046082
0.64536619186401 0.65077871084213 0.95322287082672
0.78720963001251 0.68497449159622 0.95322287082672
0.94560796022415 0.75671356916428 0.9526789188385
0.52760094404221 0.6169975399971 0.95186305046082
0.52974987030029 0.61761510372162 0.95186305046082
0.5328756570816 0.61885023117065 0.95186305046082
0.54264360666275 0.6219379901886 0.95186305046082
0.57397443056107 0.63129365444183 0.95186305046082
0.64579916000366 0.65251070261002 0.95322287082672
0.78768610954285 0.68633830547333 0.95322287082672
0.94560796022415 0.75814306735992 0.9526789188385
0.53014063835144 0.62296724319458 0.95186305046082
0.53209418058395 0.62379068136215 0.95186305046082
0.53541529178619 0.62502574920654 0.95186305046082
0.54655075073242 0.62912863492966 0.95186305046082
0.57603299617767 0.6395206451416 0.95186305046082
0.64731466770172 0.65813970565796 0.95322287082672
0.78911560773849 0.69065701961517 0.95322287082672
0.94560796022415 0.76195508241653 0.9526789188385
0.53873640298843 0.6447166800499 0.95213502645493
0.54108071327209 0.64558267593384 0.95213502645493
0.54479253292084 0.6466651558876 0.95213502645493
0.55670940876007 0.64991271495819 0.95186305046082
0.58611971139908 0.65878921747208 0.95186305046082
0.65445917844772 0.67502677440643 0.95349478721619
0.79435712099075 0.70815920829773 0.95295089483261
0.94479209184647 0.77434408664703 0.95240694284439
0.58426707983017 0.70406776666641 0.95322287082672
0.58632558584213 0.70429509878159 0.95322287082672
0.58920753002167 0.70520424842834 0.95322287082672
0.59764742851257 0.70770460367203 0.95349478721619
0.61740922927856 0.71543282270432 0.95349478721619
0.68542909622192 0.73520797491074 0.95240694284439
0.80781590938568 0.76052558422089 0.95240694284439
0.94587993621826 0.80482375621796 0.9526789188385
0.67914026975632 0.83250099420547 0.95295089483261
0.67978978157043 0.83275038003922 0.95295089483261
0.68133765459061 0.83324903249741 0.95295089483261
0.68611097335815 0.83424645662308 0.9526789188385
0.69974905252457 0.83698922395706 0.9526789188385
0.74218028783798 0.84197610616684 0.9526789188385
0.83973199129105 0.8599289059639 0.95240694284439
0.95023131370544 0.88086754083633 0.95131915807724
0.81504690647125 0.95023131370544 0.95131915807724
0.81529623270035 0.95023131370544 0.95131915807724
0.81579494476318 0.95050323009491 0.95131915807724
0.81754034757614 0.95023131370544 0.95131915807724
0.82352459430695 0.95050323009491 0.95131915807724
0.84272414445877 0.95050323009491 0.95131915807724
0.89129084348679 0.95050323009491 0.95104718208313
0.95104718208313 0.95131915807724 0.95104718208313
