AgX Luts/AgX - Base Contrast.cube
LUT_3D_SIZE 32
0 0 0
0 0 0
0 0 0
0 0 0
0 0 0
0 0 0
0.0028677599038929 1.8896336769103e-05 2.8344506063149e-05
0.0089421365410089 6.6137181420345e-05 3.7792673538206e-05
0.018419925123453 0.0001133780242526 3.7792673538206e-05
0.032361552119255 0.00015117069415282 2.8344506063149e-05
0.052763257175684 0.00017006702546496 1.8896336769103e-05
0.081935547292233 0.00020785970264114 1.8896336769103e-05
0.12416031956673 0.00027399687678553 1.8896336769103e-05
0.18235336244106 0.0018612891435623 3.7792673538206e-05
0.26588523387909 0.0039689494296908 7.5585347076412e-05
0.36928167939186 0.007823059335351 0.00050075293984264
0.48348158597946 0.014061689376831 0.0017384629463777
0.61843848228455 0.019785361364484 0.00064247543923557
0.74265682697296 0.042656354606152 0.010006433352828
0.83873462677002 0.082675412297249 0.045063238590956
0.91396152973175 0.13847868144512 0.092764474451542
0.96464520692825 0.20296733081341 0.15209348499775
0.99129730463028 0.27385950088501 0.22226421535015
0.9858580827713 0.34603923559189 0.29472425580025
0.99156922101974 0.41984331607819 0.37021175026894
0.98993748426437 0.49088254570961 0.44403186440468
0.98884963989258 0.55983513593674 0.5156757235527
0.99428886175156 0.62420237064362 0.58282607793808
0.98857766389847 0.68542909622192 0.64601570367813
0.99537670612335 0.74098908901215 0.70656806230545
0.98884963989258 0.79507184028625 0.76076382398605
0.99483275413513 0.84322285652161 0.81155610084534
0 0 0
0 0 0
0 0 0
0 0 0
0 0 0
0.00068026810185984 9.4481683845515e-06 1.8896336769103e-05
0.0047280215658247 1.8896336769103e-05 9.4481683845515e-06
0.01122095156461 8.503351273248e-05 5.6689012126299e-05
0.020546853542328 0.00013227436284069 3.7792673538206e-05
0.034915842115879 0.00015117069415282 2.8344506063149e-05
0.055436745285988 0.00016061885980889 1.8896336769103e-05
0.084962263703346 0.00020785970264114 1.8896336769103e-05
0.12665344774723 0.0016817739233375 5.6689012126299e-05
0.18425080180168 0.008666199631989 0.00021730786829721
0.26765730977058 0.0099035073071718 0.00017951520567294
0.37129682302475 0.012353129684925 0.00017951520567294
0.4845917224884 0.019338969141245 0.0015117069706321
0.61679166555405 0.026596676558256 0.00065192359033972
0.74194204807281 0.047651771456003 0.01107685547322
0.83649051189423 0.087787203490734 0.045426540076733
0.91239804029465 0.14249914884567 0.093100771307945
0.96355736255646 0.2056814879179 0.15282447636127
0.99129730463028 0.27601128816605 0.22261662781239
0.98558610677719 0.34749275445938 0.2949960231781
0.99156922101974 0.42066752910614 0.37052175402641
0.98993748426437 0.49143761396408 0.44403186440468
0.98884963989258 0.56081193685532 0.51586073637009
0.99428886175156 0.62461405992508 0.58282607793808
0.98884963989258 0.68565636873245 0.64623218774796
0.99537670612335 0.74098908901215 0.70656806230545
0.98884963989258 0.79531013965607 0.76076382398605
0.99483275413513 0.8434721827507 0.81155610084534
0 0 0
0 0 0
0 0 0
0 0 0
0 0 0
0.002220319584012 1.8896336769103e-05 2.8344506063149e-05
0.0067806304432452 2.8344506063149e-05 1.8896336769103e-05
0.013197116553783 0.0001133780242526 4.7240842832252e-05
0.023010496050119 0.00013227436284069 3.7792673538206e-05
0.03731532394886 0.00015117069415282 1.8896336769103e-05
0.058110229671001 0.00024565236526541 1.8896336769103e-05
0.087316378951073 0.003648214507848 0.00012282618263271
0.12931278347969 0.0080070169642568 0.00023620421416126
0.18787659704685 0.012991266325116 0.00034013405092992
0.27006223797798 0.015557764098048 0.00017951520567294
0.37331196665764 0.018131084740162 5.6689012126299e-05
0.48570185899734 0.023785887286067 0.0013794326223433
0.61679166555405 0.031819734722376 0.00080309429904446
0.74122732877731 0.053077783435583 0.011962013319135
0.83449578285217 0.093100771307945 0.0457898452878
0.9108344912529 0.14661100506783 0.093437075614929
0.96246951818466 0.20839564502239 0.15328136086464
0.99102532863617 0.27787631750107 0.22296905517578
0.98531413078308 0.34928527474403 0.2954036295414
0.99156922101974 0.42132690548897 0.37067678570747
0.99020946025848 0.49217769503593 0.44420671463013
0.98912161588669 0.56100732088089 0.51604580879211
0.99456077814102 0.62502574920654 0.58303195238113
0.98884963989258 0.68565636873245 0.64623218774796
0.99510473012924 0.74146556854248 0.70656806230545
0.98884963989258 0.79531013965607 0.76076382398605
0.99483275413513 0.8434721827507 0.81155610084534
0 0 0
0 0 0
0 0 0
0 0 0
0.00081254250835627 9.4481683845515e-06 2.8344506063149e-05
0.0040865521878004 1.8896336769103e-05 9.4481683845515e-06
0.0086508700624108 5.6689012126299e-05 3.7792673538206e-05
0.015478989109397 0.00045351209701039 7.5585347076412e-05
0.02559513039887 0.0014550179475918 7.5585347076412e-05
0.03961369022727 0.0030495095998049 0.00012282618263271
0.060469191521406 0.0051709981635213 0.00022675604850519
0.090208575129509 0.0084669124335051 0.00036847856245004
0.13222144544125 0.01315594650805 0.00055744196288288
0.19124214351177 0.017369590699673 0.00058578641619533
0.27196088433266 0.019995428621769 0.00032123771961778
0.37424203753471 0.022913573309779 0.00012282618263271
0.48718205094337 0.028470536693931 0.0013038471806794
0.61740922927856 0.03615428134799 0.00098260946106166
0.74003607034683 0.058215074241161 0.013300041668117
0.83275038003922 0.097775906324387 0.046243973076344
0.9092710018158 0.15063148736954 0.093773379921913
0.96110969781876 0.2113269418478 0.15373823046684
0.99102532863617 0.27991437911987 0.22320400178432
0.98558610677719 0.35083538293839 0.29581123590469
0.99156922101974 0.4224808216095 0.37098678946495
0.99020946025848 0.49291780591011 0.44438156485558
0.98912161588669 0.56159341335297 0.5162308216095
0.99456077814102 0.6252316236496 0.58323782682419
0.98884963989258 0.68588370084763 0.64644867181778
0.99510473012924 0.74146556854248 0.70656806230545
0.98884963989258 0.79554837942123 0.76076382398605
0.99483275413513 0.8434721827507 0.81155610084534
0 0.00068971631117165 0.00016061885980889
2.8344506063149e-05 0.0010015058796853 0.00023620421416126
4.7240842832252e-05 0.0013321917504072 0.00033068589982577
4.7240842832252e-05 0.0016912221908569 0.00041571940528229
0.0023620421998203 0.002116389805451 1.8896336769103e-05
0.0060294684953988 0.0027715393807739 9.4481683845515e-06
0.010912175290287 0.0035733764525503 4.7240842832252e-05
0.017947275191545 0.0044179782271385 1.8896336769103e-05
0.027953609824181 0.0055389138869941 2.8344506063149e-05
0.042747180908918 0.0074091535061598 0.0001133780242526
0.063666895031929 0.0097594121471047 0.00019841153698508
0.093571595847607 0.013238286599517 0.00031178956851363
0.13554561138153 0.018262375146151 0.00047240842832252
0.19417344033718 0.022105874493718 0.00073695712490007
0.27385950088501 0.024787433445454 0.00052909745136276
0.37424203753471 0.027888994663954 0.00031178956851363
0.48736706376076 0.033290386199951 0.0014833624009043
0.61617416143417 0.041157729923725 0.0013227435993031
0.73861753940582 0.062146674841642 0.015216405503452
0.83100497722626 0.10145397484303 0.046879753470421
0.90796810388565 0.15355548262596 0.094244204461575
0.96029382944107 0.21404109895229 0.15419510006905
0.99102532863617 0.28195244073868 0.22332146763802
0.9858580827713 0.35223045945168 0.29621884226799
0.99184119701385 0.42330506443977 0.37129682302475
0.99048137664795 0.49365788698196 0.44473126530647
0.98912161588669 0.56198412179947 0.51641583442688
0.99456077814102 0.62544810771942 0.5834436416626
0.98884963989258 0.68633830547333 0.64644867181778
0.99510473012924 0.74146556854248 0.70679539442062
0.98884963989258 0.79554837942123 0.76100206375122
0.99483275413513 0.8434721827507 0.81155610084534
6.6137181420345e-05 0.0045783454552293 0.0010770912049338
7.5585347076412e-05 0.004931153729558 0.0011621246812865
6.6137181420345e-05 0.0053089666180313 0.0012471582740545
0.00016061885980889 0.0057688616216183 5.6689012126299e-05
0.0040010227821767 0.0063513950444758 1.8896336769103e-05
0.0077464100904763 0.0069799181073904 9.4481685664505e-05
0.012682490050793 0.0077157504856586 6.6137181420345e-05
0.019864136353135 0.0087275188416243 8.503351273248e-05
0.030116876587272 0.010335793718696 8.503351273248e-05
0.045290302485228 0.012023768387735 0.0001133780242526
0.066744014620781 0.014507429674268 0.00015117069415282
0.096950218081474 0.018341150134802 0.00035903041134588
0.13920967280865 0.023462807759643 0.00048185657942668
0.19732186198235 0.026596676558256 0.00065192359033972
0.27525183558464 0.030194278806448 0.00079364614794031
0.37424203753471 0.033290386199951 0.00058578641619533
0.48718205094337 0.038205452263355 0.0014455697964877
0.61514484882355 0.046516451984644 0.0017101184930652
0.73748099803925 0.066266342997551 0.016004156321287
0.82925951480865 0.10513203591108 0.04774259775877
0.90640461444855 0.15638808906078 0.094715021550655
0.96056580543518 0.21650803089142 0.15483471751213
0.99102532863617 0.28331112861633 0.22355641424656
0.98613005876541 0.35378056764603 0.29662644863129
0.99184119701385 0.4239644408226 0.37145182490349
0.99048137664795 0.49476802349091 0.44490611553192
0.98912161588669 0.56257021427155 0.51660084724426
0.99456077814102 0.62609761953354 0.5834436416626
0.98884963989258 0.68679291009903 0.64644867181778
0.99510473012924 0.74194204807281 0.70679539442062
0.98912161588669 0.79554837942123 0.76100206375122
0.99483275413513 0.8437215089798 0.81155610084534
6.6137181420345e-05 0.0099446773529053 0.0022581121884286
6.6137181420345e-05 0.010418133810163 0.0023431456647813
4.7240842832252e-05 0.01082983519882 0.0017384629463777
0.0017290147952735 0.011447386816144 8.503351273248e-05
0.0056002330966294 0.012044353410602 1.8896336769103e-05
0.0096153169870377 0.012641320005059 1.8896336769103e-05
0.014796271920204 0.013361796736717 0.00012282618263271
0.02226741425693 0.014402396045625 0.00013227436284069
0.032942075282335 0.016187965869904 0.00023620421416126
0.04801507666707 0.018236117437482 0.00014172252849676
0.069550335407257 0.021168945357203 0.00013227436284069
0.10017790645361 0.024722816422582 0.00022675604850519
0.1428646594286 0.028955155983567 0.00049130473053083
0.20123025774956 0.032284151762724 0.00066137179965153
0.27801218628883 0.036463893949986 0.00077474978752434
0.37501707673073 0.039840757846832 0.00073695712490007
0.48847723007202 0.04410956799984 0.00078419799683616
0.61329221725464 0.053654417395592 0.0022581121884286
0.73543530702591 0.07247606664896 0.015400214120746
0.8272647857666 0.10971084982157 0.04887792095542
0.90484112501144 0.15949481725693 0.095454886555672
0.96110969781876 0.21932739019394 0.1557484716177
0.99129730463028 0.28521332144737 0.2241437882185
0.98667395114899 0.35517567396164 0.29716995358467
0.99184119701385 0.42495349049568 0.37176185846329
0.99075335264206 0.49569314718246 0.44525581598282
0.98939353227615 0.56276553869247 0.51678586006165
0.99456077814102 0.62631410360336 0.58364951610565
0.98912161588669 0.68702018260956 0.6466651558876
0.99510473012924 0.74218028783798 0.70679539442062
0.98912161588669 0.7957866191864 0.76100206375122
0.99483275413513 0.8437215089798 0.81155610084534
5.6689012126299e-05 0.018026050180197 0.0040758610703051
5.6689012126299e-05 0.018446184694767 0.0037123614456505
0.00020785970264114 0.018997609615326 0.00026454872568138
0.0042255371809006 0.019575294107199 0.00020785970264114
0.0081143258139491 0.02007420361042 5.6689012126299e-05
0.012435469776392 0.02070440351963 0
0.01773720793426 0.021524332463741 2.8344506063149e-05
0.025433590635657 0.022719725966454 0.00014172252849676
0.03611558303237 0.024561276659369 0.00019841153698508
0.051138196140528 0.026887448504567 0.00049130473053083
0.073073156177998 0.030078176409006 0.0002551005454734
0.10385597497225 0.03441272303462 0.00018896337132901
0.14661100506783 0.036889608949423 0.00032123771961778
0.20513865351677 0.040612775832415 0.0009542650077492
0.28208830952644 0.044291220605373 0.00075585348531604
0.37687721848488 0.048514619469643 0.00036847856245004
0.48940235376358 0.052605990320444 0.0003495822311379
0.61267465353012 0.062199093401432 0.0026646277401596
0.73248040676117 0.081801027059555 0.014020518399775
0.82427263259888 0.11659783124924 0.049059573560953
0.90301704406738 0.16387836635113 0.096531055867672
0.96192556619644 0.22332146763802 0.15702770650387
0.99129730463028 0.28765898942947 0.22531852126122
0.98721784353256 0.35750085115433 0.29798516631126
0.99211317300797 0.42627227306366 0.37238189578056
0.99075335264206 0.49698832631111 0.44578036665916
0.98939353227615 0.56374233961105 0.51697087287903
0.99456077814102 0.62739664316177 0.58385533094406
0.98912161588669 0.68747478723526 0.64688169956207
0.99483275413513 0.74265682697296 0.70702266693115
0.98912161588669 0.7957866191864 0.76100206375122
0.99483275413513 0.8437215089798 0.81155610084534
7.5585347076412e-05 0.029116695746779 0.0050487564876676
9.4481683845515e-06 0.029845967888832 0.0013416399015114
0.0022108713164926 0.03058129362762 0.00029289320809767
0.0075317923910916 0.031355317682028 0.00034013405092992
0.011673822067678 0.032129347324371 0.00013227436284069
0.015899123623967 0.032864671200514 1.8896336769103e-05
0.021782794967294 0.033754799515009 0
0.029278235509992 0.03499324247241 3.7792673538206e-05
0.040794428437948 0.036657400429249 0.00019841153698508
0.056485168635845 0.038708571344614 0.00032123771961778
0.077849872410297 0.042610943317413 0.00066137179965153
0.10760910063982 0.045471955090761 0.00041571940528229
0.15035736560822 0.048560030758381 0.00020785970264114
0.20948131382465 0.051400300115347 0.00050075293984264
0.28507745265961 0.056170642375946 0.0015683959936723
0.37951239943504 0.059630449861288 0.00049130473053083
0.49032744765282 0.064191102981567 0.00032123771961778
0.61226296424866 0.07343140989542 0.0035092295147479
0.72884356975555 0.092898994684219 0.014288124628365
0.82028311491013 0.12756760418415 0.048605445772409
0.89962947368622 0.17196741700172 0.096800096333027
0.96328538656235 0.22825534641743 0.15922069549561
0.99156922101974 0.29146337509155 0.22708061337471
0.98803377151489 0.36029103398323 0.29893624782562
0.99211317300797 0.42825040221214 0.37315693497658
0.99102532863617 0.49846851825714 0.44630491733551
0.98966550827026 0.56471914052963 0.51734095811844
0.99428886175156 0.62804615497589 0.58426707983017
0.98912161588669 0.68792939186096 0.6470981836319
0.99483275413513 0.7431333065033 0.70702266693115
0.98912161588669 0.79626309871674 0.76124036312103
0.99483275413513 0.8437215089798 0.81180542707443
3.7792673538206e-05 0.046516451984644 0.0016345331678167
0.0018801855621859 0.047288469970226 0.00041571940528229
0.0075777815654874 0.048060487955809 0.00039682307397015
0.012394299730659 0.048787094652653 0.00052909745136276
0.016660615801811 0.049513701349497 0.00027399687678553
0.020625628530979 0.050194896757603 0.0001133780242526
0.027307450771332 0.051085773855448 9.4481683845515e-06
0.035225450992584 0.052396308630705 0
0.046607278287411 0.054073788225651 5.6689012126299e-05
0.061936989426613 0.055541586130857 0.00033068589982577
0.083549797534943 0.057586017996073 0.00048185657942668
0.11308865994215 0.060888562351465 0.0010109540307894
0.15456059575081 0.064033843576908 0.00052909745136276
0.2133896946907 0.068057611584663 0.00018896337132901
0.28915357589722 0.071640148758888 0.00090702419402078
0.38106250762939 0.075461514294147 0.00094481685664505
0.48829218745232 0.080388553440571 0.0010109540307894
0.60979270935059 0.088594324886799 0.0044179782271385
0.72497946023941 0.10528215765953 0.016896940767765
0.81579494476318 0.13930104672909 0.049831591546535
0.89519959688187 0.18285268545151 0.096329271793365
0.96110969781876 0.23612603545189 0.16031719744205
0.98912161588669 0.2974416911602 0.22943006455898
0.98912161588669 0.36416631937027 0.30056670308113
0.99238508939743 0.43091794848442 0.37439703941345
0.99156922101974 0.50050377845764 0.44717919826508
0.98966550827026 0.56589126586914 0.51808106899261
0.99401688575745 0.62912863492966 0.58467876911163
0.98939353227615 0.68861132860184 0.64753121137619
0.99456077814102 0.74360984563828 0.70724999904633
0.98939353227615 0.79673963785172 0.76124036312103
0.99456077814102 0.84446954727173 0.81180542707443
0.0027073924429715 0.071520730853081 0.00057633826509118
0.0069952481426299 0.071938693523407 0.00058578641619533
0.012888341210783 0.07247606664896 0.00064247543923557
0.017842242494226 0.073013447225094 0.00079364614794031
0.022138182073832 0.073550827801228 0.00059523462550715
0.025982826948166 0.074088208377361 0.00035903041134588
0.031858436763287 0.074565880000591 0.00017006702546496
0.040204059332609 0.075282387435436 6.6137181420345e-05
0.050980929285288 0.076476566493511 6.6137181420345e-05
0.066027507185936 0.077790163457394 0.00017951520567294
0.088796108961105 0.079342596232891 0.00043461573659442
0.11958958208561 0.081868283450603 0.00068026810185984
0.16118201613426 0.086105689406395 0.0015117069706321
0.21768276393414 0.090074054896832 0.00058578641619533
0.29445251822472 0.093100771307945 6.6137181420345e-05
0.38152754306793 0.097175411880016 0.00066137179965153
0.48810717463493 0.10092853754759 0.0015778441447765
0.60773420333862 0.10723378509283 0.0014833624009043
0.71497821807861 0.12781691551208 0.0097182421013713
0.81030935049057 0.15300722420216 0.05428347364068
0.88920617103577 0.19667047262192 0.10107865929604
0.95539855957031 0.24841777980328 0.16258013248444
0.98395437002182 0.30600154399872 0.23166206479073
0.99048137664795 0.3694366812706 0.3023330271244
0.99238508939743 0.43476468324661 0.37579214572906
0.99211317300797 0.5034641623497 0.44822829961777
0.98993748426437 0.56804025173187 0.51900613307953
0.99374490976334 0.63107711076736 0.58550214767456
0.98966550827026 0.68952053785324 0.64796417951584
0.99428886175156 0.74408632516861 0.70770460367203
0.98939353227615 0.79697787761688 0.7614786028862
0.99456077814102 0.84471893310547 0.81205475330353
0.0042362282983959 0.10288015753031 0.00081254250835627
0.0088348276913166 0.10355572402477 0.00080309429904446
0.014428654685616 0.1040060967207 0.00084088696166873
0.020336786285043 0.10453153401613 0.00097316136816517
0.026208981871605 0.10505697131157 0.0011432283790782
0.030426487326622 0.10550734400749 0.0010676430538297
0.035883374512196 0.10603278130293 0.00080309429904446
0.044518284499645 0.10685846954584 0.00053854560246691
0.055960956960917 0.10768415778875 0.00035903041134588
0.072296939790249 0.10918541252613 0.00029289320809767
0.093840636312962 0.11061159521341 0.00036847856245004
0.12582240998745 0.11271334439516 0.00048185657942668
0.16887161135674 0.11541559547186 0.00093536864733323
0.22484862804413 0.12008821219206 0.0018896337132901
0.29934388399124 0.12382790446281 0.00028344505699351
0.38509279489517 0.1271520704031 0.0013605362037197
0.49014243483543 0.12839864194393 0.0010676430538297
0.60588151216507 0.13371731340885 0.00091647234512493
0.70929569005966 0.14935225248337 0.01975910179317
0.80008620023727 0.17745998501778 0.061098247766495
0.88243103027344 0.2113269418478 0.10835972428322
0.94887149333954 0.26234111189842 0.16797283291817
0.97769927978516 0.31725984811783 0.23436394333839
0.99292904138565 0.37703222036362 0.30396348237991
0.99102532863617 0.44035995006561 0.37765225768089
0.99265706539154 0.50697958469391 0.44997683167458
0.99020946025848 0.57018917798996 0.5203013420105
0.99320101737976 0.63259261846542 0.58632558584213
0.98966550827026 0.6908842921257 0.64839720726013
0.99401688575745 0.74527758359909 0.70793187618256
0.98966550827026 0.79769259691238 0.76171684265137
0.99428886175156 0.84521758556366 0.81205475330353
0.0073018446564674 0.14679375290871 0.0010109540307894
0.010665155015886 0.14725063741207 0.0010109540307894
0.015925381332636 0.14743338525295 0.0010204021818936
0.023365883156657 0.14779888093472 0.0010959875071421
0.029884669929743 0.14825575053692 0.0013132954481989
0.035225450992584 0.14880399405956 0.0014739142498001
0.041975162923336 0.14953500032425 0.0016439813189209
0.050194896757603 0.15035736560822 0.0013794326223433
0.062199093401432 0.15154524147511 0.0011337802279741
0.07868579775095 0.15245898067951 0.00099205772858113
0.10242978483438 0.15392097830772 0.00097316136816517
0.13222144544125 0.15602259337902 0.00061413092771545
0.17716039717197 0.1587638258934 0.00032123771961778
0.23189701139927 0.16068269312382 0.00097316136816517
0.30328410863876 0.16337904334068 0.0019463227363303
0.38918209075928 0.16537633538246 0.0016439813189209
0.48773711919785 0.16547620296478 0.0012943990295753
0.59497135877609 0.16907134652138 0.0044821249321103
0.70020365715027 0.18005646765232 0.02817976474762
0.79125988483429 0.20133882761002 0.068415865302086
0.87044423818588 0.23730076849461 0.11917406320572
0.9409846663475 0.27787631750107 0.17586214840412
0.97389185428619 0.33092281222343 0.23753571510315
0.9964644908905 0.38772797584534 0.30885481834412
0.98857766389847 0.44910255074501 0.3807524740696
0.99374490976334 0.51197522878647 0.45207503437996
0.99048137664795 0.57335692644119 0.52178150415421
0.99265706539154 0.63519066572189 0.58735483884811
0.98993748426437 0.69224810600281 0.64926320314407
0.99374490976334 0.74623054265976 0.70838648080826
0.98966550827026 0.79840737581253 0.7621933221817
0.99428886175156 0.8457162976265 0.81230407953262
0.012744245119393 0.20579005777836 0.0010581949027255
0.017684692516923 0.20611575245857 0.0010581949027255
0.022945880889893 0.20655001699924 0.0010676430538297
0.029420252889395 0.20698428153992 0.001086539356038
0.0355737619102 0.20709285140038 0.0012188137043267
0.040521949529648 0.20752711594105 0.0013699844712391
0.047379296272993 0.20785281062126 0.0015683959936723
0.057900544255972 0.20850421488285 0.0018896337132901
0.071043059229851 0.20893847942352 0.0018990818643942
0.087585419416428 0.21002414822578 0.0018046001205221
0.11106197535992 0.21100123226643 0.0019368744688109
0.14323015511036 0.2124125957489 0.0023148013278842
0.18355174362659 0.21393252909184 0.00078419799683616
0.24129484593868 0.21650803089142 9.4481683845515e-06
0.30722436308861 0.21592067182064 0.00013227436284069
0.39050084352493 0.21415856480598 0.00079364614794031
0.48422166705132 0.21252116560936 0.0020219080615789
0.58797240257263 0.2113269418478 0.0077923992648721
0.68929320573807 0.21709540486336 0.033987008035183
0.77863258123398 0.23636098206043 0.073849372565746
0.8599289059639 0.26310056447983 0.12673655152321
0.92881470918655 0.30369174480438 0.1871166229248
0.97552359104156 0.34632995724678 0.24677228927612
0.99782431125641 0.40105095505714 0.31478890776634
0.9858580827713 0.46046793460846 0.38509279489517
0.99347293376923 0.51882112026215 0.45487266778946
0.99102532863617 0.57809150218964 0.52388912439346
0.99211317300797 0.63843816518784 0.58900165557861
0.99048137664795 0.69474846124649 0.65056216716766
0.99320101737976 0.74813657999039 0.70906841754913
0.99020946025848 0.79936039447784 0.76266986131668
0.99401688575745 0.84646433591843 0.81255346536636
0.015137630514801 0.27706107497215 0.0013321917504072
0.020310528576374 0.27787631750107 0.00051020109094679
0.026790523901582 0.27801218628883 0.00046296024811454
0.035070646554232 0.2781480550766 0.00046296024811454
0.043882504105568 0.2785556614399 0.00057633826509118
0.049104984849691 0.27882739901543 0.00064247543923557
0.055331900715828 0.27882739901543 0.00070861261337996
0.064138680696487 0.27896326780319 0.00081254250835627
0.07820812612772 0.27909913659096 0.00098260946106166
0.097475655376911 0.27909913659096 0.0011148839257658
0.12025441974401 0.27977851033211 0.0011526765301824
0.15145386755466 0.2801861166954 0.0017762556672096
0.19254495203495 0.28127306699753 0.0024721869267523
0.24317441880703 0.28127306699753 0.0017762556672096
0.31348073482513 0.28249591588974 0.0034343912266195
0.38951176404953 0.27613785862923 0.0046211099252105
0.4803361594677 0.26930278539658 0.0064587038941681
0.57973831892014 0.26386001706123 0.016371773555875
0.67524325847626 0.26575866341591 0.045335717499256
0.76600533723831 0.2748721241951 0.084895007312298
