AgX Luts/AgX - High Contrast.cube
LUT_3D_SIZE 5
DOMAIN_MIN 0.000000 0.000000 0.000000
DOMAIN_MAX 0.903226 0.903226 0.903226
0 0 0
0.001464466098696 0 2.8344506063149e-05
0.21639056503773 1.8896336769103e-05 5.6689012126299e-05
1 0.31202724575996 0.2781480550766
1 0.84721237421036 0.81180542707443
0 0.0066273319534957 0.0013605362037197
0.01107685547322 0.009738827124238 0
0.26158165931702 0.028567461296916 0
1 0.33688217401505 0.28901770710945
1 0.84920710325241 0.81280279159546
0.00017006702546496 0.30178955197334 0.0054316050373018
0.048560030758381 0.31007763743401 0
0.36556142568588 0.32627159357071 0
1 0.44525581598282 0.32598087191582
1 0.8596795797348 0.81878703832626
0.46029308438301 0.94261640310287 0.39544621109962
0.47095906734467 0.94180053472519 0.39824858307838
0.54049462080002 0.93554544448853 0.41638153791428
0.94370424747467 0.90041124820709 0.53443849086761
1 0.93744915723801 0.85743546485901
0.97633945941925 1 0.94506406784058
0.97661143541336 1 0.94533598423004
0.97960299253464 1 0.94587993621826
1 1 0.95240694284439
1 1 0.99428886175156
0 0.00013227436284069 0.0016912221908569
0.0043324488215148 0 0.0056155631318688
0.21815265715122 0 0.023010496050119
1 0.30151781439781 0.28290352225304
1 0.84945642948151 0.81679230928421
0 0.010397548787296 0.010788665153086
0.01095334533602 0.01095334533602 0.01095334533602
0.32772508263588 0.0022486641537398 0.00070861261337996
1 0.32670763134956 0.29390904307365
1 0.8514512181282 0.81778967380524
0 0.31304469704628 0.035418957471848
0.0082216346636415 0.32350993156433 0.0017479110974818
0.3666464984417 0.32845184206963 0.00033068589982577
1 0.43843659758568 0.32728904485703
1 0.8616743683815 0.82377398014069
0.47358182072639 0.94044071435928 0.4244589805603
0.48329654335976 0.9396248459816 0.42643710970879
0.55006724596024 0.93445760011673 0.44123423099518
0.94316035509109 0.90067178010941 0.54479253292084
1 0.93880897760391 0.86042761802673
0.97715532779694 1 0.94669580459595
0.97769927978516 1 0.94696778059006
0.98014688491821 1 0.94723975658417
1 1 0.9537667632103
1 1 0.99483275413513
4.7240842832252e-05 0.018341150134802 0.20481295883656
0.011056270450354 0.014288124628365 0.26310056447983
0.3023330271244 0.0057995212264359 0.33397516608238
1 0.33455654978752 0.42165660858154
1 0.86217302083969 0.84172677993774
0 0.046198561787605 0.2519619166851
0.00054799375357106 0.033599995076656 0.32830649614334
0.32714369893074 0.03205194324255 0.35393559932709
1 0.36881664395332 0.43458983302116
1 0.86419028043747 0.84247481822968
8.503351273248e-05 0.34944027662277 0.35672578215599
0.015452731400728 0.3550206720829 0.36137610673904
0.35936096310616 0.35951599478722 0.35936096310616
1 0.49421295523643 0.47270756959915
1 0.87487411499023 0.84621495008469
0.53717350959778 0.93037819862366 0.55612331628799
0.54694145917892 0.92985701560974 0.55768620967865
0.60238206386566 0.92594832181931 0.56647735834122
0.93690526485443 0.90405935049057 0.62337893247604
1 0.94696778059006 0.87800115346909
0.98177868127823 1 0.95539855957031
0.98205065727234 1 0.95539855957031
0.98477023839951 1 0.956214427948
1 1 0.96301341056824
1 1 0.99945610761642
0.30939829349518 0.39725950360298 0.98966550827026
0.34051594138145 0.40484237670898 0.98422628641129
0.44630491733551 0.43511441349983 0.98014688491821
0.92464536428452 0.54537862539291 0.95322287082672
1 0.91317975521088 0.9551265835762
0.28956118226051 0.40055641531944 0.9964644908905
0.32031220197678 0.40978774428368 0.99129730463028
0.44438156485558 0.44333243370056 0.98504221439362
0.92620885372162 0.55827230215073 0.95186305046082
1 0.91552501916885 0.956214427948
0.27006223797798 0.4697350859642 1
0.2982569038868 0.47867095470428 0.99809628725052
0.45941883325577 0.52525663375854 0.98640197515488
0.92282128334045 0.63345867395401 0.94343227148056
1 0.92907530069351 0.96110969781876
0.63562363386154 0.92490595579147 0.93037819862366
0.6442836523056 0.9243848323822 0.9301176071167
0.69429385662079 0.92334246635437 0.92751181125641
0.92256075143814 0.92282128334045 0.92256075143814
1 0.99020946025848 0.98041886091232
0.99864017963409 1 1
0.99864017963409 1 1
0.99945610761642 1 1
1 1 1
1 1 1
0.80158227682114 0.87305009365082 1
0.80507308244705 0.87461358308792 1
0.82626742124557 0.88112813234329 1
0.93336975574493 0.91760963201523 1
1 0.99537670612335 1
0.8028290271759 0.87513470649719 1
0.80681854486465 0.8766981959343 1
0.82776349782944 0.88321280479431 1
0.93418562412262 0.91943371295929 1
1 0.99564862251282 1
0.80931198596954 0.88894557952881 1
0.81305211782455 0.89076966047287 1
0.83624118566513 0.8991082906723 1
0.93772113323212 0.93037819862366 1
1 0.99728041887283 1
0.8766981959343 0.97416377067566 1
0.87878286838531 0.97497963905334 1
0.89129084348679 0.97851514816284 1
0.97361987829208 0.99320101737976 1
1 1 1
1 1 1
1 1 1
1 1 1
1 1 1
1 1 1
