AgX Luts/AgX - Greyscale.cube
LUT_3D_SIZE 32
0 0 0
0 0 0
0 0 0
0 0 0
0 0 0
0 0 0
0.00067081995075569 0.00067081995075569 0.00067081995075569
0.0020974932704121 0.0020880452357233 0.0020974932704121
0.0043965955264866 0.0043965955264866 0.0043965955264866
0.0077464100904763 0.0077617396600544 0.0077464100904763
0.012435469776392 0.012456054799259 0.012435469776392
0.019181419163942 0.019155159592628 0.019181419163942
0.028987463563681 0.029019771143794 0.028987463563681
0.044609110802412 0.044609110802412 0.044609110802412
0.066505178809166 0.06656488776207 0.066505178809166
0.095589406788349 0.095589406788349 0.095589406788349
0.13429905474186 0.13429905474186 0.13429905474186
0.18657378852367 0.18657378852367 0.18657378852367
0.25284793972969 0.25272136926651 0.25284793972969
0.3226378262043 0.32249248027802 0.3226378262043
0.39379775524139 0.39396259188652 0.39379775524139
0.46064278483391 0.46064278483391 0.46064278483391
0.51919120550156 0.51919120550156 0.51919120550156
0.56667274236679 0.56686806678772 0.56667274236679
0.61288052797318 0.61288052797318 0.61288052797318
0.65727370977402 0.65749019384384 0.65727370977402
0.70111286640167 0.7008855342865 0.70111286640167
0.74289506673813 0.74289506673813 0.74289506673813
0.78149157762527 0.78149157762527 0.78149157762527
0.81803905963898 0.81803905963898 0.81803905963898
0.85319662094116 0.85319662094116 0.85319662094116
0.88660037517548 0.88660037517548 0.88660037517548
0 0 0
0 0 0
0 0 0
0 0 0
0 0 0
0.00016061885980889 0.00016061885980889 0.00016061885980889
0.0011054356582463 0.0010959875071421 0.0011054356582463
0.0026539366226643 0.0026539366226643 0.0026539366226643
0.0049204626120627 0.0049204626120627 0.0049204626120627
0.0082676243036985 0.0082676243036985 0.0082676243036985
0.012970681302249 0.012950096279383 0.012970681302249
0.019864136353135 0.019864136353135 0.019864136353135
0.031007006764412 0.031007006764412 0.031007006764412
0.048514619469643 0.048560030758381 0.048514619469643
0.070207133889198 0.070266842842102 0.070207133889198
0.099127031862736 0.099051974713802 0.099127031862736
0.13820454478264 0.1381131708622 0.13820454478264
0.19037361443043 0.19048218429089 0.19037361443043
0.25588575005531 0.25575917959213 0.25588575005531
0.32510876655579 0.3249634206295 0.32510876655579
0.39561104774475 0.39577588438988 0.39561104774475
0.46186676621437 0.4616918861866 0.46186676621437
0.52048635482788 0.52067136764526 0.52048635482788
0.56764954328537 0.5678448677063 0.56764954328537
0.61349803209305 0.61329221725464 0.61349803209305
0.65770673751831 0.65770673751831 0.65770673751831
0.7013401389122 0.7013401389122 0.7013401389122
0.74289506673813 0.74289506673813 0.74289506673813
0.78172987699509 0.78149157762527 0.78172987699509
0.81828838586807 0.81803905963898 0.81828838586807
0.85344594717026 0.853695333004 0.85344594717026
0.88660037517548 0.88660037517548 0.88660037517548
0 0 0
0 0 0
0 0 0
0 0 0
0 0 0
0.00051964924205095 0.00051964924205095 0.00051964924205095
0.0015589477261528 0.0015589477261528 0.0015589477261528
0.0031991857104003 0.0031991857104003 0.0031991857104003
0.0054775946773589 0.005492924246937 0.0054775946773589
0.008742849342525 0.008742849342525 0.008742849342525
0.013711743056774 0.013732328079641 0.013711743056774
0.022461261600256 0.022461261600256 0.022461261600256
0.035031944513321 0.03499324247241 0.035031944513321
0.051924515515566 0.051872093230486 0.051924515515566
0.073789663612843 0.073729954659939 0.073789663612843
0.10288015753031 0.10280510038137 0.10288015753031
0.14158540964127 0.14158540964127 0.14158540964127
0.1944991350174 0.19460770487785 0.1944991350174
0.25917673110962 0.2593033015728 0.25917673110962
0.32757973670959 0.32757973670959 0.32757973670959
0.39742434024811 0.39758917689323 0.39742434024811
0.46309071779251 0.46326556801796 0.46309071779251
0.52159649133682 0.52159649133682 0.52159649133682
0.56843096017838 0.5682355761528 0.56843096017838
0.61411559581757 0.61411559581757 0.61411559581757
0.65813970565796 0.65813970565796 0.65813970565796
0.7017947435379 0.70156747102737 0.7017947435379
0.7431333065033 0.7431333065033 0.7431333065033
0.78196811676025 0.78196811676025 0.78196811676025
0.81828838586807 0.81803905963898 0.81828838586807
0.85344594717026 0.853695333004 0.85344594717026
0.88660037517548 0.88660037517548 0.88660037517548
0 0 0
0 0 0
0 0 0
0 0 0
0.00019841153698508 0.00020785970264114 0.00019841153698508
0.00093536864733323 0.00094481685664505 0.00093536864733323
0.0020219080615789 0.0020219080615789 0.0020219080615789
0.0039796405471861 0.0039796405471861 0.0039796405471861
0.0069492585025728 0.0069339289329946 0.0069492585025728
0.011179781518877 0.01115919649601 0.011179781518877
0.017343332991004 0.017343332991004 0.017343332991004
0.026176674291492 0.026144364848733 0.026176674291492
0.038631167262793 0.038631167262793 0.038631167262793
0.055436745285988 0.055384323000908 0.055436745285988
0.077133364975452 0.077193073928356 0.077133364975452
0.10640809684992 0.10640809684992 0.10640809684992
0.14524039626122 0.14514902234077 0.14524039626122
0.19808183610439 0.19819040596485 0.19808183610439
0.2624676823616 0.2624676823616 0.2624676823616
0.33019605278969 0.33019605278969 0.33019605278969
0.39923763275146 0.39940249919891 0.39923763275146
0.46431466937065 0.46431466937065 0.46431466937065
0.52271699905396 0.52271699905396 0.52271699905396
0.56940776109695 0.56940776109695 0.56940776109695
0.61473315954208 0.61473315954208 0.61473315954208
0.65878921747208 0.65878921747208 0.65878921747208
0.70202207565308 0.7022493481636 0.70202207565308
0.74337154626846 0.7431333065033 0.74337154626846
0.78196811676025 0.78196811676025 0.78196811676025
0.81853771209717 0.81853771209717 0.81853771209717
0.85344594717026 0.853695333004 0.85344594717026
0.88686090707779 0.88686090707779 0.88686090707779
0.00044406391680241 0.00044406391680241 0.00044406391680241
0.00066137179965153 0.00066137179965153 0.00066137179965153
0.0008597833220847 0.0008597833220847 0.0008597833220847
0.001086539356038 0.0010770912049338 0.001086539356038
0.0018896337132901 0.0018801855621859 0.0018896337132901
0.0031991857104003 0.0031991857104003 0.0031991857104003
0.0047280215658247 0.00473871268332 0.0047280215658247
0.0070105781778693 0.0070105781778693 0.0070105781778693
0.010068188421428 0.010068188421428 0.010068188421428
0.014428654685616 0.014428654685616 0.014428654685616
0.020835695788264 0.020861953496933 0.020835695788264
0.029884669929743 0.029923370108008 0.029884669929743
0.04297424480319 0.04297424480319 0.04297424480319
0.059315919876099 0.059368342161179 0.059315919876099
0.080657601356506 0.080657601356506 0.080657601356506
0.1097859069705 0.1097859069705 0.1097859069705
0.14889536798 0.14889536798 0.14889536798
0.20155596733093 0.20166452229023 0.20155596733093
0.26525235176086 0.26525235176086 0.26525235176086
0.33223095536232 0.33223095536232 0.33223095536232
0.40072125196457 0.4008860886097 0.40072125196457
0.46571350097656 0.46571350097656 0.46571350097656
0.52388912439346 0.52388912439346 0.52388912439346
0.57018917798996 0.56999379396439 0.57018917798996
0.6153507232666 0.6153507232666 0.6153507232666
0.65922224521637 0.6590057015419 0.65922224521637
0.7022493481636 0.70202207565308 0.7022493481636
0.74360984563828 0.74337154626846 0.74360984563828
0.78220635652542 0.78244459629059 0.78220635652542
0.81853771209717 0.81853771209717 0.81853771209717
0.85344594717026 0.853695333004 0.85344594717026
0.88686090707779 0.88686090707779 0.88686090707779
0.0029853626620024 0.0029853626620024 0.0029853626620024
0.003284715116024 0.0032740239985287 0.003284715116024
0.0035733764525503 0.003562685335055 0.0035733764525503
0.003744435030967 0.003744435030967 0.003744435030967
0.0048563154414296 0.0048563154414296 0.0048563154414296
0.0061827669851482 0.0061980970203876 0.0061827669851482
0.0078537184745073 0.0078537184745073 0.0078537184745073
0.010212283581495 0.010212283581495 0.010212283581495
0.013423551805317 0.013402966782451 0.013423551805317
0.018078567460179 0.018078567460179 0.018078567460179
0.024722816422582 0.024722816422582 0.024722816422582
0.034025710076094 0.034025710076094 0.034025710076094
0.047197643667459 0.047243058681488 0.047197643667459
0.06293299049139 0.06298541277647 0.06293299049139
0.084693223237991 0.08476048707962 0.084693223237991
0.11331384629011 0.11331384629011 0.11331384629011
0.15236760675907 0.15236760675907 0.15236760675907
0.20503008365631 0.20503008365631 0.20503008365631
0.26791045069695 0.26803702116013 0.26791045069695
0.33426585793495 0.33412051200867 0.33426585793495
0.40220487117767 0.40220487117767 0.40220487117767
0.4672871530056 0.46711230278015 0.4672871530056
0.52506130933762 0.52525663375854 0.52506130933762
0.57116597890854 0.57116597890854 0.57116597890854
0.61617416143417 0.61637997627258 0.61617416143417
0.65987169742584 0.65987169742584 0.65987169742584
0.70270395278931 0.70293128490448 0.70270395278931
0.74384808540344 0.74408632516861 0.74384808540344
0.78244459629059 0.78244459629059 0.78244459629059
0.81853771209717 0.81853771209717 0.81853771209717
0.853695333004 0.85394465923309 0.853695333004
0.88686090707779 0.88686090707779 0.88686090707779
0.0065813427790999 0.0065660127438605 0.0065813427790999
0.0068572796881199 0.0068572796881199 0.0068572796881199
0.0070565673522651 0.0070565673522651 0.0070565673522651
0.0076237712055445 0.0076391012407839 0.0076237712055445
0.0087581789121032 0.008742849342525 0.0087581789121032
0.010232868604362 0.010253453627229 0.010232868604362
0.011982598342001 0.012003183364868 0.011982598342001
0.014288124628365 0.014288124628365 0.014288124628365
0.017842242494226 0.017842242494226 0.017842242494226
0.022687416523695 0.022687416523695 0.022687416523695
0.029310543090105 0.029310543090105 0.029310543090105
0.038592465221882 0.038592465221882 0.038592465221882
0.051347881555557 0.051295459270477 0.051347881555557
0.067579939961433 0.067579939961433 0.067579939961433
0.08960323035717 0.08960323035717 0.08960323035717
0.1181768104434 0.11809370666742 0.1181768104434
0.15675358474255 0.15675358474255 0.15675358474255
0.2093727439642 0.2093727439642 0.2093727439642
0.27120143175125 0.27120143175125 0.27120143175125
0.33673682808876 0.33673682808876 0.33659148216248
0.40401816368103 0.40401816368103 0.40401816368103
0.46921053528786 0.46903568506241 0.46921053528786
0.52662414312363 0.5268195271492 0.52662414312363
0.57214277982712 0.57214277982712 0.57214277982712
0.61679166555405 0.6169975399971 0.61679166555405
0.66052120923996 0.66073769330978 0.66052120923996
0.70315855741501 0.70338588953018 0.70315855741501
0.74432456493378 0.74432456493378 0.74432456493378
0.78268283605576 0.78244459629059 0.78268283605576
0.81878703832626 0.81903642416 0.81878703832626
0.853695333004 0.85394465923309 0.853695333004
0.88686090707779 0.88686090707779 0.88686090707779
0.011756163090467 0.011756163090467 0.011756163090467
0.011982598342001 0.012003183364868 0.011982598342001
0.011962013319135 0.011941428296268 0.011962013319135
0.013135361485183 0.01315594650805 0.013135361485183
0.014454913325608 0.014454913325608 0.014454913325608
0.016030415892601 0.016030415892601 0.016030415892601
0.017789725214243 0.017789725214243 0.017789725214243
0.02017923630774 0.020152978599072 0.02017923630774
0.023979734629393 0.023947427049279 0.023979734629393
0.028825923800468 0.028825923800468 0.028825923800468
0.035999476909637 0.036038178950548 0.035999476909637
0.045835256576538 0.045835256576538 0.045835256576538
0.057481177151203 0.057481177151203 0.057481177151203
0.073849372565746 0.073849372565746 0.073849372565746
0.095656670629978 0.095656670629978 0.095656670629978
0.12465894967318 0.12465894967318 0.12465894967318
0.16307945549488 0.16307945549488 0.16307945549488
0.2153332978487 0.21521583199501 0.2153332978487
0.27613785862923 0.27613785862923 0.27613785862923
0.34007987380028 0.34007987380028 0.34007987380028
0.40632599592209 0.40632599592209 0.40632599592209
0.47165846824646 0.47183331847191 0.47165846824646
0.52857774496078 0.52838236093521 0.52857774496078
0.5735627412796 0.5735627412796 0.5735627412796
0.61782097816467 0.61782097816467 0.61782097816467
0.6613872051239 0.6613872051239 0.6613872051239
0.70361316204071 0.70361316204071 0.70361316204071
0.74456280469894 0.74456280469894 0.74456280469894
0.78292113542557 0.78292113542557 0.78292113542557
0.81903642416 0.81903642416 0.81903642416
0.85394465923309 0.85394465923309 0.85394465923309
0.88712149858475 0.88686090707779 0.88712149858475
0.018892576918006 0.018892576918006 0.018892576918006
0.018892576918006 0.018892576918006 0.018892576918006
0.01975910179317 0.01975910179317 0.01975910179317
0.021168945357203 0.021168945357203 0.021168945357203
0.022816648706794 0.022816648706794 0.022816648706794
0.024367429316044 0.02433512173593 0.024367429316044
0.026176674291492 0.026144364848733 0.026176674291492
0.028825923800468 0.028825923800468 0.028825923800468
0.032709866762161 0.032671164721251 0.032709866762161
0.037624932825565 0.037624932825565 0.037624932825565
0.045154064893723 0.045154064893723 0.045154064893723
0.053601998835802 0.053549576550722 0.053601998835802
0.065728962421417 0.065728962421417 0.065728962421417
0.081935547292233 0.081935547292233 0.081935547292233
0.10415621846914 0.10423128306866 0.10415621846914
0.13321869075298 0.13313558697701 0.13321869075298
0.17166782915592 0.17166782915592 0.17166782915592
0.22285157442093 0.22285157442093 0.22285157442093
0.28290352225304 0.28290352225304 0.28290352225304
0.34531250596046 0.34531250596046 0.34531250596046
0.41011741757393 0.41011741757393 0.41011741757393
0.47515550255775 0.47515550255775 0.47515550255775
0.53111737966537 0.53092205524445 0.53111737966537
0.57541543245316 0.57562124729156 0.57541543245316
0.61926192045212 0.61926192045212 0.61926192045212
0.66246974468231 0.66268622875214 0.66246974468231
0.70452237129211 0.70452237129211 0.70452237129211
0.74527758359909 0.74551582336426 0.74527758359909
0.78315937519073 0.78315937519073 0.78315937519073
0.8192857503891 0.81903642416 0.8192857503891
0.85394465923309 0.85394465923309 0.85394465923309
0.88712149858475 0.88686090707779 0.88712149858475
0.029052078723907 0.029084388166666 0.029052078723907
0.029923370108008 0.029962072148919 0.029923370108008
0.031703632324934 0.031742334365845 0.031703632324934
0.03325168415904 0.03325168415904 0.03325168415904
0.034838438034058 0.034838438034058 0.034838438034058
0.036347791552544 0.036347791552544 0.036347791552544
0.038205452263355 0.038166750222445 0.038205452263355
0.041112318634987 0.041066903620958 0.041112318634987
0.045154064893723 0.045154064893723 0.045154064893723
0.049559116363525 0.049559116363525 0.049559116363525
0.055856116116047 0.055803693830967 0.055856116116047
0.064773619174957 0.064713910222054 0.064773619174957
0.076655693352222 0.076595984399319 0.076655693352222
0.093706116080284 0.093706116080284 0.093706116080284
0.1151904091239 0.11526547372341 0.1151904091239
0.14460076391697 0.14460076391697 0.14460076391697
0.18255309760571 0.18245323002338 0.18255309760571
0.23236690461636 0.23236690461636 0.23236690461636
0.29024052619934 0.29024052619934 0.29024052619934
0.35176542401314 0.3519204556942 0.35176542401314
0.41522762179375 0.41522762179375 0.41522762179375
0.47904101014137 0.47922602295876 0.47904101014137
0.53463387489319 0.53463387489319 0.53463387489319
0.57788562774658 0.57767981290817 0.57788562774658
0.62132042646408 0.62152630090714 0.62132042646408
0.6637687087059 0.66398525238037 0.6637687087059
0.70543158054352 0.70565885305405 0.70543158054352
0.74599230289459 0.74575406312943 0.74599230289459
0.78363585472107 0.78363585472107 0.78363585472107
0.81953507661819 0.81953507661819 0.81953507661819
0.85419398546219 0.85394465923309 0.85419398546219
0.88738209009171 0.88738209009171 0.88738209009171
0.045381128787994 0.045381128787994 0.045381128787994
0.046743515878916 0.046743515878916 0.046743515878916
0.048105902969837 0.048060487955809 0.048105902969837
0.04942287504673 0.04942287504673 0.04942287504673
0.050739850848913 0.050739850848913 0.050739850848913
0.052134200930595 0.052134200930595 0.052134200930595
0.054021369665861 0.054021369665861 0.054021369665861
0.056537590920925 0.056485168635845 0.056537590920925
0.060102242976427 0.060102242976427 0.060102242976427
0.064534783363342 0.064534783363342 0.064534783363342
0.071222186088562 0.071281895041466 0.071222186088562
0.079715952277184 0.079715952277184 0.079715952277184
0.092562690377235 0.092495433986187 0.092562690377235
0.10888516157866 0.10896021872759 0.10888516157866
0.13122418522835 0.13122418522835 0.13122418522835
0.15912932157516 0.15912932157516 0.15912932157516
0.19677904248238 0.19688759744167 0.19677904248238
0.24436736106873 0.24436736106873 0.24436736106873
0.3007025718689 0.30083844065666 0.3007025718689
0.35905095934868 0.35905095934868 0.35905095934868
0.42165660858154 0.42165660858154 0.42165660858154
0.48422166705132 0.48440670967102 0.48422166705132
0.53795498609543 0.53795498609543 0.53795498609543
0.58138513565063 0.58138513565063 0.58138513565063
0.62399649620056 0.62399649620056 0.62379068136215
0.66571724414825 0.66593372821808 0.66571724414825
0.70656806230545 0.70656806230545 0.70656806230545
0.74694532155991 0.74718356132507 0.74694532155991
0.78435063362122 0.78458887338638 0.78435063362122
0.82003378868103 0.81978446245193 0.82003378868103
0.85444337129593 0.85419398546219 0.85444337129593
0.88764268159866 0.88764268159866 0.88764268159866
0.065430417656898 0.065370708703995 0.065430417656898
0.0670425593853 0.0670425593853 0.0670425593853
0.06847557425499 0.06847557425499 0.06847557425499
0.070028007030487 0.070028007030487 0.070028007030487
0.071580439805984 0.071580439805984 0.071580439805984
0.072894029319286 0.072894029319286 0.072894029319286
0.074685297906399 0.074685297906399 0.074685297906399
0.077193073928356 0.07725278288126 0.077193073928356
0.080388553440571 0.0804558172822 0.080388553440571
0.085702128708363 0.085702128708363 0.085702128708363
0.092226386070251 0.092226386070251 0.092226386070251
0.10107865929604 0.10115372389555 0.10107865929604
0.1132387816906 0.11316372454166 0.1132387816906
0.13039314746857 0.13039314746857 0.13039314746857
0.15264172852039 0.15264172852039 0.15264172852039
0.18045593798161 0.18045593798161 0.18045593798161
0.21615561842918 0.21615561842918 0.21615561842918
0.26183480024338 0.2617082297802 0.26183480024338
0.31319004297256 0.31333538889885 0.31319004297256
0.37021175026894 0.37005671858788 0.37021175026894
0.42841526865959 0.42825040221214 0.42841526865959
0.49032744765282 0.49032744765282 0.49032744765282
0.5422528386116 0.5422528386116 0.5422528386116
0.58694314956665 0.58694314956665 0.58694314956665
0.62739664316177 0.6271800994873 0.62739664316177
0.66809874773026 0.66809874773026 0.66809874773026
0.70838648080826 0.70838648080826 0.70838648080826
0.74789834022522 0.74813657999039 0.74789834022522
0.78530359268188 0.78506535291672 0.78530359268188
0.82078182697296 0.82053250074387 0.82078182697296
0.85494202375412 0.85494202375412 0.85494202375412
0.88790327310562 0.88764268159866 0.88790327310562
0.093773379921913 0.093706116080284 0.093773379921913
0.09498406201601 0.094916805624962 0.09498406201601
0.096396535634995 0.096396535634995 0.096396535634995
0.098151221871376 0.098151221871376 0.098151221871376
0.10002778470516 0.10002778470516 0.10002778470516
0.10152903199196 0.10160409659147 0.10152903199196
0.10348065942526 0.10348065942526 0.10348065942526
0.1063330322504 0.1063330322504 0.1063330322504
0.11001110076904 0.11001110076904 0.11001110076904
0.11436472088099 0.11436472088099 0.11436472088099
0.12158408761024 0.12166719138622 0.12158408761024
0.13055935502052 0.1306424587965 0.13055935502052
0.14313878118992 0.14313878118992 0.14313878118992
0.15858107805252 0.15858107805252 0.15858107805252
0.18015633523464 0.18005646765232 0.18015633523464
0.20763568580151 0.2077442407608 0.20763568580151
0.24035507440567 0.24035507440567 0.24035507440567
0.28236004710197 0.28236004710197 0.28236004710197
0.33048674464226 0.33048674464226 0.33048674464226
0.38245761394501 0.38230258226395 0.38245761394501
0.43948569893837 0.43931084871292 0.43948569893837
0.4973583817482 0.4973583817482 0.4973583817482
0.55006724596024 0.55026257038116 0.55006724596024
0.59414798021317 0.59414798021317 0.59414798021317
0.63259261846542 0.63280916213989 0.63259261846542
0.67156273126602 0.67156273126602 0.67156273126602
0.71043217182159 0.71043217182159 0.71043217182159
0.74956607818604 0.7498043179512 0.74956607818604
0.78649485111237 0.7862566113472 0.78649485111237
0.82152986526489 0.8212805390358 0.82152986526489
0.85544073581696 0.85519140958786 0.85544073581696
0.88816386461258 0.88842445611954 0.88816386461258
0.13346800208092 0.13346800208092 0.13346800208092
0.13513009250164 0.13521319627762 0.13513009250164
0.13662597537041 0.13670907914639 0.13662597537041
0.13838730752468 0.13847868144512 0.13838730752468
0.14021478593349 0.14021478593349 0.14021478593349
0.14167678356171 0.14167678356171 0.14167678356171
0.14350427687168 0.14350427687168 0.14350427687168
0.14606276154518 0.14606276154518 0.14606276154518
0.14980912208557 0.14971774816513 0.14980912208557
0.15456059575081 0.15446922183037 0.15456059575081
0.16059131920338 0.16059131920338 0.16059131920338
0.16987025737762 0.16987025737762 0.16987025737762
0.18125484883785 0.18125484883785 0.18125484883785
0.19710473716259 0.19710473716259 0.19710473716259
0.21615561842918 0.21615561842918 0.21615561842918
0.24012012779713 0.24000264704227 0.24012012779713
0.27069512009621 0.27069512009621 0.27069512009621
0.30722436308861 0.30736023187637 0.30722436308861
0.3516104221344 0.35145542025566 0.3516104221344
0.39973217248917 0.39973217248917 0.39973217248917
0.45190018415451 0.45190018415451 0.45190018415451
0.50771969556808 0.50771969556808 0.50771969556808
0.56022590398788 0.56003051996231 0.56022590398788
0.60279375314713 0.60258787870407 0.60279375314713
0.63930416107178 0.63908767700195 0.63930416107178
0.67632573843002 0.67654228210449 0.67632573843002
0.71384173631668 0.71384173631668 0.71384173631668
0.75171029567719 0.75171029567719 0.75171029567719
0.78792434930801 0.78792434930801 0.78792434930801
0.82277655601501 0.82277655601501 0.82277655601501
0.85618877410889 0.85643810033798 0.85618877410889
0.88868498802185 0.88868498802185 0.88868498802185
0.18345187604427 0.18345187604427 0.18345187604427
0.18484999239445 0.18475012481213 0.18484999239445
0.18679092824459 0.18679092824459 0.18679092824459
0.18917939066887 0.18928796052933 0.18917939066887
0.19189354777336 0.1917849779129 0.19189354777336
0.19341348111629 0.19341348111629 0.19341348111629
0.19504196941853 0.19493341445923 0.19504196941853
0.1974304318428 0.1974304318428 0.1974304318428
0.20057886838913 0.20057886838913 0.20057886838913
0.20513865351677 0.20513865351677 0.20513865351677
0.21110980212688 0.21100123226643 0.21110980212688
0.21897496283054 0.21897496283054 0.21897496283054
0.22919511795044 0.22919511795044 0.22919511795044
0.24176473915577 0.24188221991062 0.24176473915577
0.25980961322784 0.25980961322784 0.25980961322784
0.28072959184647 0.2805937230587 0.28072959184647
0.30627328157425 0.30613741278648 0.30627328157425
0.33906242251396 0.33920776844025 0.33906242251396
0.37718722224236 0.37718722224236 0.37718722224236
0.42116206884384 0.42099723219872 0.42116206884384
0.46868598461151 0.46851113438606 0.46868598461151
0.51937621831894 0.51937621831894 0.51937621831894
0.56960308551788 0.56960308551788 0.56960308551788
0.61267465353012 0.61246877908707 0.61267465353012
0.64753121137619 0.64753121137619 0.64753121137619
0.68338340520859 0.68361067771912 0.68338340520859
0.71838772296906 0.71861505508423 0.71838772296906
0.75456935167313 0.75456935167313 0.75456935167313
0.78983038663864 0.78983038663864 0.78983038663864
0.82402330636978 0.82427263259888 0.82402330636978
0.85718613862991 0.85743546485901 0.85718613862991
