AgX Luts/AgX - Medium Low Contrast.cube
LUT_3D_SIZE 5
DOMAIN_MIN 0.000000 0.000000 0.000000
DOMAIN_MAX 0.903226 0.903226 0.903226
1.8896336769103e-05 1.8896336769103e-05 1.8896336769103e-05
0.013526477850974 0.00034013405092992 0.00026454872568138
0.27991437911987 0.010274038650095 0.0018612891435623
0.92021548748016 0.19211068749428 0.14414389431477
0.95703029632568 0.63540714979172 0.59661817550659
0.00033068589982577 0.023236652836204 0.0056462227366865
0.031123111024499 0.028018224984407 0.00066137179965153
0.28983291983604 0.050058655440807 0.0039261844940484
0.91474324464798 0.21176120638847 0.14834712445736
0.95730227231979 0.6371391415596 0.59723573923111
0.019995428621769 0.27259373664856 0.0028677599038929
0.07038626074791 0.27246716618538 0.0038406553212553
0.30178955197334 0.27221402525902 0.0051863277330995
0.87018364667892 0.30899068713188 0.17975687980652
0.95811814069748 0.6470981836319 0.60197031497955
0.33397516608238 0.72452485561371 0.26791045069695
0.34269618988037 0.72384297847748 0.26968249678612
0.39989703893661 0.71861505508423 0.28005024790764
0.72998005151749 0.69020241498947 0.34749275445938
0.95567047595978 0.72338837385178 0.62977814674377
0.75218683481216 0.94887149333954 0.70588618516922
0.75290155410767 0.94914346933365 0.70588618516922
0.75742834806442 0.94859951734543 0.70656806230545
0.79816913604736 0.94669580459595 0.7117959856987
0.95349478721619 0.93880897760391 0.7621933221817
0.00021730786829721 0.0017951519694179 0.013855838216841
0.021265868097544 0.00074640527600423 0.025045895949006
0.29119163751602 0.0034343912266195 0.039018180221319
0.91317975521088 0.20275019109249 0.17626160383224
0.95703029632568 0.63692265748978 0.60135281085968
0.0013699844712391 0.030116876587272 0.030852202326059
0.030194278806448 0.030194278806448 0.030194278806448
0.32234713435173 0.035728570073843 0.027468990534544
0.90770751237869 0.22308652102947 0.18145458400249
0.95730227231979 0.63908767700195 0.60217618942261
0.01276483014226 0.27896326780319 0.036850906908512
0.049014158546925 0.27964261174202 0.031239215284586
0.30056670308113 0.27423924207687 0.035728570073843
0.86242234706879 0.31755056977272 0.20557291805744
0.95811814069748 0.64861369132996 0.60649907588959
0.34167873859406 0.7231610417366 0.28888183832169
0.34959527850151 0.7222518324852 0.29010465741158
0.40434783697128 0.71793311834335 0.29880037903786
0.72907090187073 0.69065701961517 0.36168614029884
0.95567047595978 0.72429758310318 0.63302564620972
0.75313985347748 0.94887149333954 0.70724999904633
0.75385457277298 0.94887149333954 0.70770460367203
0.75814306735992 0.94832754135132 0.70793187618256
0.7986456155777 0.94669580459595 0.71315979957581
0.95349478721619 0.9385370016098 0.76314634084702
0.0013038471806794 0.03383220359683 0.26588523387909
0.032942075282335 0.026241289451718 0.30613741278648
0.30477869510651 0.023462807759643 0.31377145648003
0.87643766403198 0.25284793972969 0.32321920990944
0.95675832033157 0.64753121137619 0.62379068136215
0.0038406553212553 0.070028007030487 0.28263178467751
0.024108966812491 0.059892557561398 0.32641693949699
0.30002322793007 0.06799790263176 0.30953416228294
0.86366909742355 0.27601128816605 0.32975998520851
0.95703029632568 0.64926320314407 0.62420237064362
0.011241536587477 0.29513189196587 0.29880037903786
0.063614472746849 0.29526776075363 0.29839277267456
0.29146337509155 0.29187098145485 0.29146337509155
0.82053250074387 0.3666464984417 0.3458938896656
0.95757418870926 0.65965521335602 0.62696361541748
0.37842732667923 0.71725124120712 0.38918209075928
0.38772797584534 0.71679663658142 0.39000630378723
0.43336588144302 0.71315979957581 0.39495167136192
0.72338837385178 0.69361191987991 0.43389043211937
0.9551265835762 0.73043465614319 0.65099519491196
0.75790482759476 0.94887149333954 0.71679663658142
0.75838130712509 0.94859951734543 0.71656930446625
0.76290810108185 0.94859951734543 0.71747851371765
0.80158227682114 0.94615191221237 0.7231610417366
0.95349478721619 0.93880897760391 0.76981735229492
0.15958619117737 0.25803753733635 0.8272647857666
0.19059075415134 0.25879698991776 0.82352459430695
0.30939829349518 0.28996878862381 0.80656915903091
0.74075078964233 0.37951239943504 0.75409281253815
0.95594245195389 0.69065701961517 0.73770833015442
0.14670237898827 0.27461895346642 0.82851147651672
0.1906993240118 0.27950674295425 0.82327526807785
0.30980589985847 0.30505043268204 0.80532246828079
0.73932129144669 0.39363291859627 0.75099557638168
0.95594245195389 0.69293004274368 0.73839020729065
0.1974304318428 0.36742153763771 0.80806523561478
0.21756529808044 0.37238189578056 0.80407571792603
0.34109732508659 0.39725950360298 0.78482711315155
0.72679787874222 0.46151703596115 0.73816293478012
0.95539855957031 0.70565885305405 0.74146556854248
0.44210848212242 0.71566009521484 0.71952420473099
0.45050138235092 0.71497821807861 0.71906965970993
0.49273276329041 0.71361440420151 0.71634203195572
0.70793187618256 0.70793187618256 0.70793187618256
0.95567047595978 0.76886433362961 0.75623708963394
0.78601837158203 0.94696778059006 0.78792434930801
0.78673309087753 0.94669580459595 0.78816258907318
0.79078334569931 0.94669580459595 0.78840088844299
0.82078182697296 0.94560796022415 0.79149812459946
0.95159107446671 0.94044071435928 0.81903642416
0.5883840918541 0.66636675596237 0.95757418870926
0.59167772531509 0.66723275184631 0.95757418870926
0.61102783679962 0.6713462471962 0.95784616470337
0.71884232759476 0.69929444789886 0.95784616470337
0.94751167297363 0.78101509809494 0.95431071519852
0.58941334486008 0.66831523180008 0.95757418870926
0.59291285276413 0.66939777135849 0.95757418870926
0.61226296424866 0.67351126670837 0.95811814069748
0.71952420473099 0.7013401389122 0.95784616470337
0.94751167297363 0.78220635652542 0.95431071519852
0.59394210577011 0.68000626564026 0.95757418870926
0.59744161367416 0.68156498670578 0.95757418870926
0.61740922927856 0.68770211935043 0.95784616470337
0.72156995534897 0.71293252706528 0.95757418870926
0.94723975658417 0.78887736797333 0.95403873920441
0.64861369132996 0.7614786028862 0.95675832033157
0.65056216716766 0.7621933221817 0.95675832033157
0.66355222463608 0.76648181676865 0.956214427948
0.75337809324265 0.78768610954285 0.95485460758209
0.94968736171722 0.83474510908127 0.95240694284439
0.8272647857666 0.94859951734543 0.94941538572311
0.82776349782944 0.94832754135132 0.94941538572311
0.83150362968445 0.94859951734543 0.94941538572311
0.85868221521378 0.94832754135132 0.94914346933365
0.94805562496185 0.94778364896774 0.94805562496185
