AgX Luts/AgX - High Contrast.cube
LUT_3D_SIZE 8
DOMAIN_MIN 0.000000 0.000000 0.000000
DOMAIN_MAX 0.903226 0.903226 0.903226
0 0 0
0 0 0
0.0046318015083671 0 6.6137181420345e-05
0.070326551795006 0 0.00090702419402078
0.51253032684326 0.00082199065946043 0.00056689011398703
1 0.2153332978487 0.18445052206516
1 0.5358060002327 0.48810717463493
1 0.84721237421036 0.81180542707443
0 9.4481683845515e-06 0
0.00026454872568138 0.00023620421416126 0
0.010232868604362 0.0015494995750487 0
0.091486521065235 0.0081756450235844 0
0.53228956460953 0.018104825168848 0
1 0.23142711818218 0.18852798640728
1 0.54166680574417 0.49143761396408
1 0.84820973873138 0.81230407953262
0 0.013073606416583 0.0020974932704121
0.0043859044089913 0.015111371874809 0
0.021395100280643 0.019102644175291 0
0.11481510102749 0.03058129362762 0
0.5531929731369 0.04942287504673 0
1 0.25335422158241 0.19417344033718
1 0.55006724596024 0.49624821543694
1 0.84970581531525 0.81305211782455
0.0001133780242526 0.12382790446281 0.0030922743026167
0.015505247749388 0.128149330616 0
0.045971497893333 0.13463146984577 0
0.17036958038807 0.15127111971378 0
0.5850904583931 0.17216715216637 0
0.99836826324463 0.3214750289917 0.21427604556084
1 0.57767981290817 0.51308542490005
1 0.85444337129593 0.81579494476318
0.032864671200514 0.53482919931412 0
0.060311928391457 0.53502458333969 0
0.098526537418365 0.53463387489319 0
0.21803517639637 0.53443849086761 0
0.57809150218964 0.52104145288467 0.035922076553106
0.97661143541336 0.49717333912849 0.2748721241951
1 0.65532523393631 0.56354695558548
1 0.87122601270676 0.82427263259888
0.35626074671745 0.8842551112175 0.28602853417397
0.36494135856628 0.88373392820358 0.28806659579277
0.37889236211777 0.8826916217804 0.29105576872826
0.42149174213409 0.87878286838531 0.3002949655056
0.5528022646904 0.86809897422791 0.33513796329498
0.88816386461258 0.83923333883286 0.43406528234482
1 0.81180542707443 0.66030472517014
1 0.9183914065361 0.84721237421036
0.72816169261932 1 0.68429261445999
0.72975277900696 1 0.68474721908569
0.732253074646 1 0.68542909622192
0.74075078964233 1 0.68792939186096
0.77124685049057 1 0.69633954763412
0.85544073581696 1 0.71816045045853
1 1 0.78530359268188
1 1 0.90536230802536
0.97633945941925 1 0.94506406784058
0.97661143541336 1 0.94506406784058
0.97688341140747 1 0.94533598423004
0.97797125577927 1 0.94560796022415
0.98368239402771 1 0.94669580459595
0.9989121556282 1 0.95050323009491
1 1 0.96410125494003
1 1 0.99428886175156
0 0 0
0 0 9.4481683845515e-06
0.0059374896809459 0 0.00092592049622908
0.069132372736931 0 0.0065200231038034
0.51586073637009 0 0.012311959639192
1 0.20882990956306 0.18594850599766
1 0.53795498609543 0.49347287416458
1 0.84845906496048 0.81429886817932
0 0.00052909745136276 0.00055744196288288
0.00068971631117165 0.00068971631117165 0.00068971631117165
0.014376138336957 0.0003495822311379 0.00028344505699351
0.10453153401613 0 1.8896336769103e-05
0.57459199428558 0.0030922743026167 6.6137181420345e-05
1 0.22449620068073 0.19004791975021
1 0.54381573200226 0.49643325805664
1 0.84945642948151 0.81479758024216
0 0.014533688314259 0.0054316050373018
5.6689012126299e-05 0.015794089064002 0.00045351209701039
0.019837876781821 0.017684692516923 0
0.12507447600365 0.023204343393445 0
0.58735483884811 0.038863375782967 0
1 0.24487365782261 0.19580194354057
1 0.55221617221832 0.50105881690979
1 0.85095250606537 0.81554555892944
0 0.128149330616 0.014454913325608
0.00035903041134588 0.13296937942505 0.0025577160995454
0.03263246268034 0.13829591870308 0
0.17056931555271 0.15163661539555 0
0.60299962759018 0.1652764827013 0
0.99836826324463 0.31667846441269 0.2153332978487
1 0.57809150218964 0.5162308216095
1 0.85569006204605 0.81803905963898
0.0072251954115927 0.54069000482559 0.0024187311064452
0.037199217826128 0.54108071327209 0.00083143881056458
0.083751574158669 0.53971320390701 0.00078419799683616
0.20709285140038 0.53717350959778 0.0052629769779742
0.57603299617767 0.5203013420105 0.043564613908529
0.97661143541336 0.49476802349091 0.2748721241951
1 0.65575820207596 0.56589126586914
1 0.87226831912994 0.82651674747467
0.36587142944336 0.8826916217804 0.30532217025757
0.37455204129219 0.88243103027344 0.3076319694519
0.3872629404068 0.88138872385025 0.30994176864624
0.42923948168755 0.87721937894821 0.31900405883789
0.55710011720657 0.86731725931168 0.35099038481712
0.88738209009171 0.83973199129105 0.44035995006561
1 0.8113067150116 0.66030472517014
1 0.91917318105698 0.84870839118958
0.73043465614319 1 0.68883860111237
0.73157119750977 1 0.68906593322754
0.73429876565933 1 0.69020241498947
0.7431333065033 1 0.69270271062851
0.77315282821655 1 0.70020365715027
0.85643810033798 1 0.7213426232338
1 1 0.78673309087753
1 1 0.90640461444855
0.97661143541336 1 0.94587993621826
0.97688341140747 1 0.94587993621826
0.97715532779694 1 0.94587993621826
0.97851514816284 1 0.94642382860184
0.98368239402771 1 0.94723975658417
0.99918413162231 1 0.95104718208313
1 1 0.96464520692825
1 1 0.99456077814102
0 0.00029289320809767 0.0038941111415625
0.00021730786829721 0.00014172252849676 0.0065966723486781
0.0094918068498373 0 0.011509141884744
0.080254033207893 0 0.022170489653945
0.52584272623062 0 0.040521949529648
1 0.19515053927898 0.18993934988976
1 0.54498785734177 0.510125041008
1 0.85020446777344 0.81828838586807
0 0.003380935639143 0.0096153169870377
7.5585347076412e-05 0.0017573593650013 0.01553150638938
0.015584022738039 0.0012566064251587 0.017842242494226
0.11278840899467 0 0.020993245765567
0.58056169748306 0 0.026079749688506
1 0.20980700850487 0.19330491125584
1 0.55084866285324 0.51253032684326
1 0.85120189189911 0.81878703832626
0 0.018918834626675 0.019470261409879
0.00015117069415282 0.018918834626675 0.019417744129896
0.019969169050455 0.019969169050455 0.019969169050455
0.14003203809261 0.019417744129896 0.018026050180197
0.62934511899948 0.020520595833659 0.011323876678944
1 0.23330667614937 0.19895036518574
1 0.55866301059723 0.51641583442688
1 0.85269790887833 0.81953507661819
0 0.13587802648544 0.040294885635376
0 0.13911829888821 0.033019475638866
0.013464721851051 0.14743338525295 0.014848788268864
0.17196741700172 0.15446922183037 0.0085588907822967
0.61905604600906 0.16031719744205 0.019444001838565
1 0.30736023187637 0.2173303514719
1 0.5850904583931 0.53053134679794
1 0.85718613862991 0.82202851772308
0.011612066999078 0.54362034797668 0.04774259775877
0.043110486119986 0.54479253292084 0.041066903620958
0.084491439163685 0.54362034797668 0.042247638106346
0.21165263652802 0.53912711143494 0.051400300115347
0.57253348827362 0.522336602211 0.091486521065235
0.97742730379105 0.49310281872749 0.27896326780319
1 0.65727370977402 0.56960308551788
1 0.87383180856705 0.83000755310059
0.37982243299484 0.88086754083633 0.33717286586761
0.3875729739666 0.87982523441315 0.33877173066139
0.40055641531944 0.87904345989227 0.34182408452034
0.44193363189697 0.87539529800415 0.34959527850151
0.56647735834122 0.86575376987457 0.37455204129219
0.88607919216156 0.84023070335388 0.45662119984627
1 0.81030935049057 0.66030472517014
1 0.92047607898712 0.85120189189911
0.73429876565933 1 0.69679415225983
0.73566257953644 1 0.69724875688553
0.73793560266495 1 0.69770336151123
0.74599230289459 1 0.69952178001404
0.77577358484268 1 0.70634078979492
0.85868221521378 1 0.72725248336792
1 1 0.78983038663864
1 1 0.90848928689957
0.97742730379105 1 0.94696778059006
0.97769927978516 1 0.94696778059006
0.97769927978516 1 0.94696778059006
0.97905904054642 1 0.94751167297363
0.98422628641129 1 0.94859951734543
0.99918413162231 1 0.95213502645493
1 1 0.96627694368362
1 1 0.99510473012924
9.4481683845515e-06 0.0052936365827918 0.060207083821297
0.0011999174021184 0.0041293166577816 0.081195682287216
0.018393667414784 0.0040330961346626 0.099051974713802
0.11474003642797 0 0.13272006809711
0.57767981290817 0 0.16049994528294
1 0.21451099216938 0.27760457992554
1 0.5682355761528 0.55397439002991
1 0.85618877410889 0.82975822687149
0 0.014691238291562 0.088258028030396
9.4481683845515e-06 0.010500473901629 0.11331384629011
0.015899123623967 0.0062287566252053 0.13596113026142
0.13280317187309 0.00088812783360481 0.15154524147511
0.61720341444016 0.0018234965391457 0.15775871276855
1 0.22896018624306 0.28072959184647
1 0.57294517755508 0.55573260784149
1 0.85693681240082 0.83000755310059
1.8896336769103e-05 0.03673480451107 0.1132387816906
0 0.033135581761599 0.13263696432114
0.015268922783434 0.029381552711129 0.15191073715687
0.14670237898827 0.029342850670218 0.16022582352161
0.61843848228455 0.0457898452878 0.1647771447897
1 0.26588523387909 0.29377317428589
1 0.57994419336319 0.55866301059723
1 0.85843288898468 0.83075559139252
0 0.16004307568073 0.1647771447897
9.4481683845515e-06 0.16178120672703 0.16677445173264
0.01107685547322 0.16507674753666 0.16907134652138
0.17316579818726 0.17346540093422 0.17316579818726
0.59250116348267 0.20242449641228 0.19243638217449
0.99809628725052 0.33993452787399 0.3126086294651
1 0.60299962759018 0.56725877523422
1 0.86292105913162 0.83299970626831
0.057114224880934 0.54655075073242 0.20579005777836
0.089737750589848 0.54537862539291 0.20785281062126
0.12922967970371 0.54264360666275 0.21382395923138
0.24841777980328 0.53873640298843 0.22261662781239
0.56393772363663 0.53092205524445 0.24892409145832
0.96328538656235 0.5203013420105 0.36773157119751
1 0.6689647436142 0.59888255596161
1 0.87956464290619 0.83923333883286
0.42000815272331 0.87435299158096 0.42165660858154
0.42660194635391 0.87357121706009 0.42264565825462
0.43808689713478 0.87278950214386 0.42478865385056
0.47867095470428 0.86966246366501 0.42956918478012
0.59044259786606 0.86242234706879 0.44875285029411
0.88190984725952 0.84197610616684 0.50605446100235
1 0.81280279159546 0.66983073949814
1 0.92464536428452 0.85943025350571
0.74480104446411 1 0.71725124120712
0.74623054265976 1 0.71747851371765
0.74813657999039 1 0.71793311834335
0.75623708963394 1 0.71975153684616
0.78506535291672 1 0.72634327411652
0.8665354847908 1 0.74623054265976
1 1 0.79959863424301
1 1 0.91422206163406
0.97960299253464 1 0.95077520608902
0.97987496852875 1 0.95104718208313
0.98014688491821 1 0.95104718208313
0.98123472929001 1 0.95131915807724
0.98531413078308 1 0.95213502645493
1 1 0.956214427948
1 1 0.97008436918259
1 1 0.99700844287872
0.0011904692510143 0.047152232378721 0.46011823415756
0.0062900758348405 0.047379296272993 0.48810717463493
0.03321298211813 0.048696268349886 0.52701485157013
0.13662597537041 0.052972942590714 0.54889506101608
0.53463387489319 0.073371700942516 0.56686806678772
0.99945610761642 0.2748721241951 0.50216901302338
1 0.61926192045212 0.66203671693802
1 0.87278950214386 0.86142498254776
0 0.055122215300798 0.47552555799484
0.00058578641619533 0.055646430701017 0.51919120550156
0.01954903639853 0.056537590920925 0.54889506101608
0.1352963000536 0.059630449861288 0.57116597890854
0.5418621301651 0.083617053925991 0.57253348827362
0.99673646688461 0.29282209277153 0.50660955905914
1 0.62296724319458 0.66398525238037
1 0.87383180856705 0.8616743683815
0 0.082204587757587 0.49125257134438
0 0.077670745551586 0.53248488903046
0.0050701387226582 0.072416357696056 0.58426707983017
0.14103716611862 0.084356918931007 0.58611971139908
0.54537862539291 0.12224892526865 0.57376861572266
0.99836826324463 0.3238006234169 0.51456558704376
1 0.63259261846542 0.66831523180008
1 0.87513470649719 0.86217302083969
0 0.20144739747047 0.53600138425827
8.503351273248e-05 0.20188166201115 0.55670940876007
0.020363045856357 0.20242449641228 0.58776652812958
0.18315228819847 0.22790291905403 0.57665055990219
0.54264360666275 0.26892304420471 0.56120264530182
0.97389185428619 0.41176587343216 0.53815031051636
1 0.65835618972778 0.67697525024414
1 0.87982523441315 0.86366909742355
0.10197941213846 0.55514657497406 0.56335163116455
0.12906347215176 0.55436509847641 0.5621794462204
0.1772602647543 0.55416977405548 0.56061661243439
0.28969705104828 0.55202078819275 0.55651408433914
0.55436509847641 0.55456048250198 0.55436509847641
0.91187685728073 0.59250116348267 0.58323782682419
1 0.71361440420151 0.69520306587219
1 0.89441782236099 0.86914134025574
0.49125257134438 0.86523258686066 0.59908843040466
0.49902358651161 0.86471140384674 0.60032349824905
0.51197522878647 0.86366909742355 0.60238206386566
0.54850435256958 0.86092633008957 0.60855758190155
0.63973718881607 0.85718613862991 0.6169975399971
0.87305009365082 0.84895777702332 0.6447166800499
1 0.8374879360199 0.73702639341354
1 0.93690526485443 0.88660037517548
0.77434408664703 1 0.77625012397766
0.77577358484268 1 0.77648836374283
0.77815610170364 1 0.77696484327316
0.78601837158203 1 0.77815610170364
0.81305211782455 1 0.78268283605576
0.8842551112175 1 0.79602485895157
1 1 0.83299970626831
1 1 0.93092209100723
0.9858580827713 1 0.96518909931183
0.9858580827713 1 0.96518909931183
0.98640197515488 1 0.96546107530594
0.98748981952667 1 0.9657329916954
0.99156922101974 1 0.9668208360672
1 1 0.9703563451767
1 1 0.98014688491821
1 1 1
0.20730997622013 0.29852864146233 0.92985701560974
0.22108948230743 0.3027406334877 0.92803293466568
0.23953275382519 0.30939829349518 0.92725121974945
0.31900405883789 0.32903325557709 0.92203956842422
0.4845917224884 0.35998103022575 0.92047607898712
0.86575376987457 0.44787859916687 0.89624190330505
1 0.67004722356796 0.82452201843262
1 0.90718638896942 0.93282586336136
0.18863655626774 0.30015909671783 0.94044071435928
0.21208690106869 0.30681675672531 0.93636131286621
0.23025238513947 0.31333538889885 0.93527346849442
0.31566101312637 0.33557400107384 0.92777240276337
0.48607191443443 0.36432132124901 0.92360305786133
0.86705666780472 0.45417326688766 0.89650249481201
1 0.67437726259232 0.82551938295364
1 0.90796810388565 0.93309777975082
0.16817255318165 0.30437108874321 0.95322287082672
0.19515053927898 0.31034940481186 0.95023131370544
0.22003223001957 0.31900405883789 0.94751167297363
0.2998873591423 0.33920776844025 0.93799310922623
0.48699703812599 0.37176185846329 0.92907530069351
0.86809897422791 0.46938538551331 0.89467841386795
1 0.68156498670578 0.8275141119957
1 0.9092710018158 0.93364173173904
0.13272006809711 0.33833566308022 0.97389185428619
0.15940344333649 0.3458938896656 0.97090023756027
0.20068742334843 0.35533067584038 0.96627694368362
0.29553949832916 0.38137254118919 0.95050323009491
0.50790470838547 0.43284133076668 0.92412424087524
0.86523258686066 0.51641583442688 0.89024847745895
1 0.70634078979492 0.83349841833115
1 0.91448265314102 0.93581742048264
0.281001329422 0.54498785734177 0.93037819862366
0.29920798540115 0.54967647790909 0.92803293466568
0.32772508263588 0.55729550123215 0.92386364936829
0.39791887998581 0.57018917798996 0.91474324464798
0.5752095580101 0.61143952608109 0.89207255840302
0.8596795797348 0.65575820207596 0.87305009365082
1 0.76957911252975 0.85120189189911
1 0.92881470918655 0.94044071435928
0.5422528386116 0.86731725931168 0.87383180856705
0.54948115348816 0.86731725931168 0.87331062555313
0.56061661243439 0.8665354847908 0.87278950214386
0.59353041648865 0.86523258686066 0.8709654211998
0.68000626564026 0.86341977119446 0.86679607629776
0.86392968893051 0.86392968893051 0.86392968893051
1 0.88972735404968 0.88373392820358
1 0.96736478805542 0.95322287082672
0.8272647857666 1 0.89467841386795
0.82851147651672 1 0.89467841386795
0.83125430345535 1 0.89519959688187
0.83898395299911 1 0.89650249481201
0.86142498254776 1 0.90093237161636
0.92047607898712 1 0.90692579746246
1 1 0.92256075143814
1 1 0.98014688491821
0.99510473012924 1 0.99456077814102
0.99537670612335 1 0.99456077814102
0.99564862251282 1 0.99483275413513
0.9964644908905 1 0.99510473012924
0.99836826324463 1 0.99537670612335
1 1 0.9975523352623
1 1 1
1 1 1
0.57214277982712 0.65099519491196 1
0.58056169748306 0.65294373035431 1
0.59085434675217 0.65597468614578 1
0.62739664316177 0.66723275184631 1
0.68929320573807 0.69020241498947 1
0.81080806255341 0.72429758310318 1
1 0.79340410232544 1
1 0.9371771812439 1
0.57376861572266 0.65229421854019 1
0.58282607793808 0.6542426943779 1
0.59023678302765 0.65705722570419 1
0.60773420333862 0.66809874773026 1
0.68361067771912 0.69497573375702 1
0.8110573887825 0.72520673274994 1
1 0.79602485895157 1
1 0.93799310922623 1
0.57459199428558 0.65445917844772 1
0.58056169748306 0.65619122982025 1
0.58262026309967 0.65878921747208 1
0.60670495033264 0.67026376724243 1
0.68201959133148 0.69633954763412 1
0.81180542707443 0.72679787874222 1
1 0.7986456155777 1
1 0.93935286998749 1
0.56159341335297 0.66030472517014 1
0.56686806678772 0.66203671693802 1
0.5801500082016 0.66636675596237 1
0.60444056987762 0.67935675382614 1
0.67697525024414 0.7017947435379 1
0.81330150365829 0.7331622838974 1
1 0.80781590938568 1
1 0.94370424747467 1
0.56139802932739 0.70065826177597 1
0.56725877523422 0.70338588953018 1
0.5768563747406 0.70793187618256 1
0.60402888059616 0.71702390909195 1
0.68270146846771 0.74122732877731 1
0.83150362968445 0.78077685832977 1
1 0.83998137712479 1
1 0.96002185344696 1
0.68292880058289 0.85394465923309 1
0.68724751472473 0.85519140958786 1
0.69361191987991 0.85693681240082 1
0.71406900882721 0.8616743683815 1
0.76100206375122 0.87122601270676 1
0.87878286838531 0.9019747376442 1
1 0.9301176071167 1
1 0.99700844287872 1
0.8599289059639 1 1
0.86092633008957 1 1
0.86317038536072 1 1
0.87018364667892 1 1
0.89233314990997 1 1
0.94723975658417 1 1
1 1 1
1 1 1
1 1 1
1 1 1
1 1 1
1 1 1
1 1 1
1 1 1
1 1 1
1 1 1
0.80158227682114 0.87305009365082 1
0.80332767963409 0.87383180856705 1
0.80631983280182 0.87487411499023 1
0.81579494476318 0.8782616853714 1
0.8434721827507 0.88712149858475 1
0.90640461444855 0.91005277633667 1
0.9989121556282 0.94316035509109 1
1 0.99537670612335 1
0.80208098888397 0.87409240007401 1
0.80407571792603 0.87487411499023 1
0.80706787109375 0.87617707252502 1
0.81654298305511 0.87956464290619 1
0.84397089481354 0.88868498802185 1
0.90666520595551 0.9108344912529 1
0.99918413162231 0.94397622346878 1
1 0.99564862251282 1
0.803078353405 0.87591648101807 1
0.80507308244705 0.8766981959343 1
0.80831456184387 0.87800115346909 1
0.81754034757614 0.88138872385025 1
0.84496825933456 0.89103025197983 1
0.90744692087173 0.91213744878769 1
0.99945610761642 0.94506406784058 1
1 0.99592059850693 1
0.80607050657272 0.88138872385025 1
0.80806523561478 0.88243103027344 1
0.8113067150116 0.88347333669662 1
0.82152986526489 0.88764268159866 1
0.84771102666855 0.89806598424911 1
0.9092710018158 0.916827917099 1
1 0.94887149333954 1
1 0.9964644908905 1
0.81704163551331 0.90015065670013 1
0.8192857503891 0.90093237161636 1
0.82252722978592 0.9019747376442 1
0.83225166797638 0.9051017165184 1
0.85693681240082 0.91396152973175 1
0.916827917099 0.93200993537903 1
1 0.96328538656235 1
1 0.9989121556282 1
0.85818350315094 0.95186305046082 1
0.8596795797348 0.95213502645493 1
0.86217302083969 0.95295089483261 1
0.86992305517197 0.95567047595978 1
0.88920617103577 0.96301341056824 1
0.94452011585236 0.98313844203949 1
1 0.99401688575745 1
1 1 1
0.94778364896774 1 1
0.94832754135132 1 1
0.94941538572311 1 1
0.95322287082672 1 1
0.96355736255646 1 1
0.98966550827026 1 1
1 1 1
1 1 1
1 1 1
1 1 1
1 1 1
1 1 1
1 1 1
1 1 1
1 1 1
1 1 1
