AgX Luts/AgX - Very High Contrast.cube
LUT_3D_SIZE 8
DOMAIN_MIN 0.000000 0.000000 0.000000
DOMAIN_MAX 0.903226 0.903226 0.903226
0 0 0
0 0 0
0.0023053530603647 0 4.7240842832252e-05
0.052658412605524 0 0.00089757598470896
0.50697958469391 4.7240842832252e-05 0.0013510880526155
1 0.2575312256813 0.23142711818218
1 0.61102783679962 0.57136136293411
1 0.90796810388565 0.87643766403198
0 0 0
6.6137181420345e-05 5.6689012126299e-05 0
0.0063973846845329 0.00087867968250066 0
0.074147917330265 0.0060294684953988 0
0.53639209270477 0.014638721942902 0
1 0.27423924207687 0.23683087527752
1 0.61658585071564 0.57500374317169
1 0.90901041030884 0.87695878744125
0 0.0090034566819668 0.0015683959936723
0.0028998332563788 0.010932760313153 0
0.016266740858555 0.014246954582632 0
0.10040310025215 0.025401283055544 0
0.56686806678772 0.046516451984644 0
1 0.29649057984352 0.24387925863266
1 0.62461405992508 0.58056169748306
1 0.91057395935059 0.87774056196213
7.5585347076412e-05 0.11376421898603 0.0023714902345091
0.011653237044811 0.11859232932329 0
0.040794428437948 0.12615482509136 0
0.16617526113987 0.14725063741207 0
0.61926192045212 0.17706052958965 0
1 0.36912667751312 0.27044194936752
1 0.65272718667984 0.59826499223709
1 0.91552501916885 0.88060694932938
0.03116181306541 0.57253348827362 0
0.05852960050106 0.57315105199814 0
0.10273003578186 0.57335692644119 3.7792673538206e-05
0.23283679783344 0.5735627412796 0.0013699844712391
0.62132042646408 0.56237483024597 0.072237230837345
0.99809628725052 0.55143475532532 0.3461846113205
1 0.73111659288406 0.65294373035431
1 0.93173801898956 0.88894557952881
0.41868937015533 0.9360893368721 0.35998103022575
0.42676681280136 0.93500149250031 0.36137610673904
0.44070965051651 0.93418562412262 0.36339125037193
0.48348158597946 0.93092209100723 0.37393200397491
0.61143952608109 0.92203956842422 0.40533691644669
0.94071269035339 0.89650249481201 0.52877312898636
1 0.87982523441315 0.75147205591202
1 0.97797125577927 0.91344034671783
0.80482375621796 1 0.7710086107254
0.80631983280182 1 0.77124685049057
0.80881327390671 1 0.7717233300209
0.81754034757614 1 0.77315282821655
0.84297347068787 1 0.77863258123398
0.92099720239639 1 0.79816913604736
1 1 0.8782616853714
1 1 0.97198808193207
1 1 1
1 1 1
1 1 1
1 1 1
1 1 1
1 1 1
1 1 1
1 1 1
0 0 0
0 0 0
0.0032205681782216 0 0.00047240842832252
0.051714830100536 0 0.0047494042664766
0.50734966993332 0 0.013670573011041
1 0.25094929337502 0.23318921029568
1 0.61164540052414 0.57479786872864
1 0.90901041030884 0.87904345989227
0 0.00018896337132901 0.00019841153698508
0.00028344505699351 0.00027399687678553 0.00028344505699351
0.0092653706669807 5.6689012126299e-05 3.7792673538206e-05
0.082339107990265 0 0.00012282618263271
0.57973831892014 0.00019841153698508 0.00024565236526541
1 0.26791045069695 0.23835802078247
1 0.61782097816467 0.57870906591415
1 0.91005277633667 0.87956464290619
0 0.010418133810163 0.0039154933765531
6.6137181420345e-05 0.01134446170181 0.0003495822311379
0.014770013280213 0.01315594650805 0
0.10843478143215 0.018840059638023 0
0.60402888059616 0.035457659512758 0
1 0.28956118226051 0.24575969576836
1 0.62609761953354 0.58426707983017
1 0.91161626577377 0.88034635782242
0 0.11784439533949 0.014082274399698
7.5585347076412e-05 0.12291375547647 0.0021541824098676
0.028308996930718 0.12981142103672 0
0.16647484898567 0.14770750701427 0
0.63670617341995 0.17116850614548 0.00012282618263271
1 0.36509639024734 0.27158114314079
1 0.65272718667984 0.60135281085968
1 0.91656732559204 0.88295221328735
0.0040330961346626 0.57706224918365 0.003466464811936
0.032593760639429 0.57767981290817 0.00080309429904446
0.083617053925991 0.57706224918365 0.00041571940528229
0.21662551164627 0.57582712173462 0.0045997276902199
0.61967360973358 0.56139802932739 0.070923641324043
0.99836826324463 0.54909044504166 0.3461846113205
1 0.73134386539459 0.65554171800613
1 0.93255388736725 0.89103025197983
0.42083236575127 0.93554544448853 0.36695650219917
0.42907464504242 0.93527346849442 0.36866164207458
0.44263303279877 0.93445760011673 0.37005671858788
0.4825564622879 0.93065017461777 0.37672218680382
0.61082196235657 0.92203956842422 0.41127133369446
0.94016873836517 0.89702367782593 0.52838236093521
1 0.87956464290619 0.75171029567719
1 0.97878712415695 0.91500383615494
0.80557179450989 1 0.77243810892105
0.80656915903091 1 0.77243810892105
0.80931198596954 1 0.77315282821655
0.81778967380524 1 0.77482062578201
0.84297347068787 1 0.77958559989929
0.92125779390335 1 0.79959863424301
1 1 0.87800115346909
1 1 0.97307592630386
1 1 1
1 1 1
1 1 1
1 1 1
1 1 1
1 1 1
1 1 1
1 1 1
0 0.00014172252849676 0.0017762556672096
5.6689012126299e-05 2.8344506063149e-05 0.0035092295147479
0.0057228719815612 0 0.0070872269570827
0.062723308801651 0 0.016896940767765
0.52178150415421 0 0.039522867649794
1 0.23859296739101 0.23730076849461
1 0.61143952608109 0.58076757192612
1 0.9108344912529 0.8826916217804
0 0.0019652189221233 0.0060447985306382
9.4481683845515e-06 0.00097316136816517 0.0098623372614384
0.010685740038753 0.00054799375357106 0.012373714707792
0.090881183743477 0 0.016660615801811
0.56979846954346 0 0.025950517505407
1 0.25411370396614 0.24164727330208
1 0.61802679300308 0.58467876911163
1 0.91187685728073 0.88321280479431
0 0.013855838216841 0.014267539605498
2.8344506063149e-05 0.013897008262575 0.014308709651232
0.015216405503452 0.015242664143443 0.015216405503452
0.1234954893589 0.014770013280213 0.013835253193974
0.65294373035431 0.011385631747544 0.003744435030967
1 0.28005024790764 0.24917723238468
1 0.62631410360336 0.58982509374619
1 0.91344034671783 0.88399451971054
0 0.12623792886734 0.038244154304266
0 0.12956210970879 0.031548824161291
0.0078077293001115 0.13994066417217 0.010850420221686
0.16867187619209 0.15090560913086 0.0033916267566383
0.65467572212219 0.16108214855194 0.011241536587477
1 0.35719081759453 0.27373293042183
1 0.65316021442413 0.60649907588959
1 0.91813081502914 0.88633978366852
0.0090341158211231 0.58035588264465 0.048514619469643
0.043382961302996 0.58241438865662 0.040794428437948
0.086441993713379 0.58117926120758 0.043337550014257
0.22625829279423 0.57706224918365 0.055960956960917
0.61658585071564 0.56257021427155 0.10835972428322
0.99809628725052 0.546746134758 0.34720206260681
1 0.73293501138687 0.6590057015419
1 0.93418562412262 0.89415723085403
0.42890977859497 0.93418562412262 0.38819301128387
0.43756231665611 0.93364173173904 0.39017114043236
0.45224988460541 0.93309777975082 0.39363291859627
0.49254775047302 0.92959642410278 0.40368846058846
0.61905604600906 0.92073667049408 0.43389043211937
0.93989682197571 0.89650249481201 0.52779632806778
1 0.87878286838531 0.751948595047
1 0.98014688491821 0.91734910011292
0.80656915903091 1 0.77529710531235
0.80781590938568 1 0.77553534507751
0.81006002426147 1 0.77577358484268
0.81803905963898 1 0.776726603508
0.8434721827507 1 0.78149157762527
0.92203956842422 1 0.80357706546783
1 1 0.87800115346909
1 1 0.97497963905334
1 1 1
1 1 1
1 1 1
1 1 1
1 1 1
1 1 1
1 1 1
1 1 1
0 0.0037551261484623 0.043382961302996
0.00079364614794031 0.0029960537794977 0.059682872146368
0.013176531530917 0.0031457298900932 0.07677511125803
0.095454886555672 0 0.11286347359419
0.58241438865662 0 0.15739320218563
1 0.26145508885384 0.32220175862312
1 0.62544810771942 0.61246877908707
1 0.91656732559204 0.89311492443085
0 0.01115919649601 0.069848880171776
0 0.0078537184745073 0.088661588728428
0.011982598342001 0.0049418448470533 0.1097859069705
0.11481510102749 0 0.13346800208092
0.62049704790115 2.8344506063149e-05 0.15382960438728
1 0.26461946964264 0.3152249455452
1 0.63021111488342 0.61432147026062
1 0.91760963201523 0.89363604784012
0 0.029845967888832 0.096060231328011
0 0.026855140924454 0.1136891618371
0.011138611473143 0.023592039942741 0.13446526229382
0.13521319627762 0.023495115339756 0.14880399405956
0.6466651558876 0.037508830428123 0.16198094189167
1 0.29119163751602 0.31914940476418
1 0.63778865337372 0.61782097816467
1 0.91891258955002 0.89415723085403
0 0.15401235222816 0.1587638258934
0 0.15629671514034 0.16059131920338
0.006903269328177 0.1604085713625 0.16467729210854
0.17236688733101 0.17266647517681 0.17236688733101
0.62588113546371 0.21002414822578 0.19981889426708
1 0.37191686034203 0.34574854373932
1 0.66225320100784 0.62956166267395
1 0.92360305786133 0.89650249481201
0.07295373827219 0.58262026309967 0.22355641424656
0.098526537418365 0.5817968249321 0.22590588033199
0.14368702471256 0.57973831892014 0.2322494238615
0.26892304420471 0.57706224918365 0.24176473915577
0.60752832889557 0.57253348827362 0.27588471770287
0.99238508939743 0.56530523300171 0.41324949264526
1 0.7336168885231 0.66809874773026
1 0.9396248459816 0.9035382270813
0.47375670075417 0.92777240276337 0.4762656390667
0.48181635141373 0.92673003673553 0.47737577557564
0.49384289979935 0.92594832181931 0.47996613383293
0.53248488903046 0.92360305786133 0.4866269826889
0.6447166800499 0.91734910011292 0.50827479362488
0.93636131286621 0.89806598424911 0.57233810424805
1 0.88034635782242 0.75719010829926
1 0.9834104180336 0.92490595579147
0.81454819440842 1 0.79149812459946
0.81604427099228 1 0.79173636436462
0.81803905963898 1 0.79221284389496
0.82651674747467 1 0.79411888122559
0.8519498705864 1 0.80058491230011
0.92907530069351 1 0.8212805390358
1 1 0.87800115346909
1 1 0.98069083690643
1 1 1
1 1 1
1 1 1
1 1 1
1 1 1
1 1 1
1 1 1
1 1 1
0.0011243320768699 0.042656354606152 0.45067623257637
0.0061521073803306 0.043700851500034 0.47996613383293
0.029884669929743 0.047424707561731 0.5203013420105
0.13172282278538 0.053497154265642 0.55084866285324
0.54772293567657 0.084693223237991 0.58653146028519
1 0.32467272877693 0.54479253292084
1 0.67914026975632 0.71997880935669
1 0.93364173173904 0.92386364936829
0 0.052081778645515 0.4697350859642
0.0013794326223433 0.053549576550722 0.51234531402588
0.020835695788264 0.055279478430748 0.546746134758
0.13188903033733 0.061098247766495 0.57706224918365
0.55866301059723 0.091486521065235 0.59620648622513
1 0.331213504076 0.54459714889526
1 0.68270146846771 0.72156995534897
1 0.93445760011673 0.92412424087524
0 0.076954238116741 0.49032744765282
0 0.072774611413479 0.53111737966537
0.0014550179475918 0.066684305667877 0.59250116348267
0.13554561138153 0.079783216118813 0.60588151216507
0.56843096017838 0.12790001928806 0.60135281085968
1 0.35610574483871 0.55202078819275
1 0.69224810600281 0.72566133737564
1 0.9360893368721 0.92464536428452
0 0.2020987868309 0.55163007974625
1.8896336769103e-05 0.20307588577271 0.57397443056107
0.015951639041305 0.20383585989475 0.61637997627258
0.18765945732594 0.23495130240917 0.60649907588959
0.57500374317169 0.2858926653862 0.59579479694366
1 0.45242473483086 0.57953244447708
1 0.71975153684616 0.73770833015442
1 0.94044071435928 0.92620885372162
0.11136221885681 0.59579479694366 0.60423469543457
0.14259052276611 0.59476554393768 0.60320544242859
0.19938462972641 0.59476554393768 0.60155862569809
0.31944012641907 0.59270697832108 0.59785330295563
0.59764742851257 0.59764742851257 0.59764742851257
0.96002185344696 0.64450019598007 0.63519066572189
1 0.7745823264122 0.75742834806442
1 0.95539855957031 0.93119406700134
0.55456048250198 0.91891258955002 0.65878921747208
0.56081193685532 0.9183914065361 0.65965521335602
0.57116597890854 0.91760963201523 0.66117072105408
0.60835176706314 0.9152644276619 0.66744923591614
0.69838523864746 0.91213744878769 0.67740827798843
0.92803293466568 0.90484112501144 0.70838648080826
1 0.8975448012352 0.80407571792603
1 0.99211317300797 0.95023131370544
0.84471893310547 1 0.84771102666855
0.84621495008469 1 0.84796041250229
0.84820973873138 1 0.84820973873138
0.85544073581696 1 0.84970581531525
0.87982523441315 1 0.85394465923309
0.94615191221237 1 0.86679607629776
1 1 0.90562283992767
1 1 0.98993748426437
1 1 1
1 1 1
1 1 1
1 1 1
1 1 1
1 1 1
1 1 1
1 1 1
0.2536073923111 0.33949849009514 0.95485460758209
0.26854333281517 0.34385898709297 0.95322287082672
0.29119163751602 0.3519204556942 0.9526789188385
0.35998103022575 0.37238189578056 0.94968736171722
0.52506130933762 0.41061195731163 0.95159107446671
0.90249586105347 0.51345545053482 0.9360893368721
1 0.73020738363266 0.87747997045517
1 0.96763676404953 0.99156922101974
0.24176473915577 0.34211477637291 0.96355736255646
0.26727756857872 0.34944027662277 0.96029382944107
0.28874596953392 0.35703581571579 0.95947796106339
0.3584309220314 0.3793573975563 0.9551265835762
0.52701485157013 0.41572216153145 0.9551265835762
0.90536230802536 0.51660084724426 0.93772113323212
1 0.73429876565933 0.87904345989227
1 0.96845263242722 0.99184119701385
0.22919511795044 0.34821951389313 0.97688341140747
0.24968354403973 0.35517567396164 0.97443574666977
0.2756315767765 0.36447632312775 0.97226005792618
0.3488202393055 0.38648790121078 0.96464520692825
0.52974987030029 0.4244589805603 0.96110969781876
0.91031336784363 0.52122646570206 0.9396248459816
1 0.74218028783798 0.88138872385025
1 0.96981239318848 0.99265706539154
0.16417796909809 0.36587142944336 0.99129730463028
0.18755088746548 0.37424203753471 0.99211317300797
0.22367389500141 0.3841627240181 0.99265706539154
0.32670763134956 0.41407370567322 0.98613005876541
0.54811364412308 0.4728824198246 0.9668208360672
0.91109508275986 0.56901705265045 0.93690526485443
1 0.76791131496429 0.88868498802185
1 0.97579556703568 0.99510473012924
0.31566101312637 0.58364951610565 0.97389185428619
0.33470192551613 0.58879578113556 0.97090023756027
0.3666464984417 0.59723573923111 0.96627694368362
0.44228333234787 0.61390978097916 0.96219754219055
0.62461405992508 0.66117072105408 0.93935286998749
0.90901041030884 0.71065950393677 0.92386364936829
1 0.83075559139252 0.90874987840652
1 0.98884963989258 0.99537670612335
0.60670495033264 0.92073667049408 0.92725121974945
0.61390978097916 0.92073667049408 0.92699062824249
0.62440824508667 0.92047607898712 0.92646944522858
0.65727370977402 0.91969430446625 0.92490595579147
0.74218028783798 0.91813081502914 0.92203956842422
0.92125779390335 0.92125779390335 0.92125779390335
1 0.94941538572311 0.94370424747467
1 1 0.9964644908905
0.89728420972824 1 0.95839011669159
0.89806598424911 1 0.95839011669159
0.90015065670013 1 0.95893400907516
0.90640461444855 1 0.95974987745285
0.92725121974945 1 0.96382927894592
0.98177868127823 1 0.9703563451767
1 1 0.98395437002182
1 1 1
1 1 1
1 1 1
1 1 1
1 1 1
1 1 1
1 1 1
1 1 1
1 1 1
0.66008824110031 0.7236156463623 1
0.66744923591614 0.72543406486511 1
0.67675876617432 0.72838896512985 1
0.70838648080826 0.73839020729065 1
0.75838130712509 0.76052558422089 1
0.87070482969284 0.79769259691238 1
1 0.86835956573486 1
1 0.99619257450104 1
0.6613872051239 0.72497946023941 1
0.66961425542831 0.72679787874222 1
0.67654228210449 0.72952544689178 1
0.69361191987991 0.74051254987717 1
0.75433105230331 0.76552885770798 1
0.87122601270676 0.7986456155777 1
1 0.86914134025574 1
1 0.99700844287872 1
0.66246974468231 0.72725248336792 1
0.66788226366043 0.72884356975555 1
0.66983073949814 0.73157119750977 1
0.69270271062851 0.74289506673813 1
0.75504583120346 0.76791131496429 1
0.87200772762299 0.80058491230011 1
1 0.86992305517197 1
1 0.99809628725052 1
0.65142822265625 0.7336168885231 1
0.65575820207596 0.73520797491074 1
0.66831523180008 0.73932129144669 1
0.69065701961517 0.75290155410767 1
0.75409281253815 0.77529710531235 1
0.87461358308792 0.80756658315659 1
1 0.87357121706009 1
1 0.99836826324463 1
0.62891215085983 0.75885784626007 1
0.6347576379776 0.76195508241653 1
0.6442836523056 0.76648181676865 1
0.67091327905655 0.77601182460785 1
0.74360984563828 0.79888385534286 1
0.88764268159866 0.84197610616684 1
1 0.9035382270813 1
1 0.99918413162231 1
0.75099557638168 0.90953159332275 1
0.75504583120346 0.9108344912529 1
0.76076382398605 0.91239804029465 1
0.77791786193848 0.91708850860596 1
0.82651674747467 0.92829352617264 1
0.93744915723801 0.95920598506927 1
1 0.98966550827026 1
1 1 1
0.92881470918655 1 1
0.92985701560974 1 1
0.93173801898956 1 1
0.93799310922623 1 1
0.95784616470337 1 1
0.99510473012924 1 1
1 1 1
1 1 1
1 1 1
1 1 1
1 1 1
1 1 1
1 1 1
1 1 1
1 1 1
1 1 1
0.86392968893051 0.93065017461777 1
0.86575376987457 0.93146604299545 1
0.86862015724182 0.93255388736725 1
0.87774056196213 0.93581742048264 1
0.90614402294159 0.94587993621826 1
0.96437323093414 0.96845263242722 1
1 0.99320101737976 1
1 1 1
0.86445087194443 0.93146604299545 1
0.8665354847908 0.93228191137314 1
0.8694019317627 0.93364173173904 1
0.8782616853714 0.93690526485443 1
0.90640461444855 0.94696778059006 1
0.96464520692825 0.9692685008049 1
1 0.99347293376923 1
1 1 1
0.86549317836761 0.93309777975082 1
0.86731725931168 0.93391370773315 1
0.87070482969284 0.93500149250031 1
0.87930405139923 0.93826502561569 1
0.90718638896942 0.94887149333954 1
0.96518909931183 0.97062832117081 1
1 0.99401688575745 1
1 1 1
0.86862015724182 0.93826502561569 1
0.87070482969284 0.93908095359802 1
0.87357121706009 0.94016873836517 1
0.88321280479431 0.94424813985825 1
0.91005277633667 0.95567047595978 1
0.9668208360672 0.97497963905334 1
1 0.99564862251282 1
1 1 1
0.87904345989227 0.95675832033157 1
0.88086754083633 0.95730227231979 1
0.88399451971054 0.95839011669159 1
0.89415723085403 0.96219754219055 1
0.91995489597321 0.97198808193207 1
0.97443574666977 0.9844982624054 1
1 1 1
1 1 1
0.9243848323822 1 1
0.92542713880539 1 1
0.92751181125641 1 1
0.93445760011673 1 1
0.95159107446671 1 1
0.99211317300797 1 1
1 1 1
1 1 1
0.99836826324463 1 1
0.99864017963409 1 1
0.99864017963409 1 1
0.99945610761642 1 1
1 1 1
1 1 1
1 1 1
1 1 1
1 1 1
1 1 1
1 1 1
1 1 1
1 1 1
1 1 1
1 1 1
1 1 1
