AgX Luts/AgX - Medium Low Contrast.cube
LUT_3D_SIZE 32
1.8896336769103e-05 1.8896336769103e-05 1.8896336769103e-05
1.8896336769103e-05 1.8896336769103e-05 1.8896336769103e-05
1.8896336769103e-05 1.8896336769103e-05 1.8896336769103e-05
1.8896336769103e-05 1.8896336769103e-05 1.8896336769103e-05
1.8896336769103e-05 1.8896336769103e-05 1.8896336769103e-05
1.8896336769103e-05 1.8896336769103e-05 1.8896336769103e-05
0.0048883892595768 0.00019841153698508 0.00017951520567294
0.013526477850974 0.00034013405092992 0.00026454872568138
0.025788977742195 0.00052909745136276 0.00031178956851363
0.042747180908918 0.00072750897379592 0.00035903041134588
0.06608721613884 0.00097316136816517 0.00041571940528229
0.098301343619823 0.0013038471806794 0.00052909745136276
0.1428646594286 0.0018707372946665 0.0006991644622758
0.20133882761002 0.0056922123767436 0.0012471582740545
0.27991437911987 0.010274038650095 0.0018612891435623
0.37579214572906 0.014185199514031 0.002116389805451
0.48348158597946 0.019260194152594 0.0055695734918118
0.59929424524307 0.029019771143794 0.0042362282983959
0.71406900882721 0.048287555575371 0.014288124628365
0.7986456155777 0.085500344634056 0.046289388090372
0.86888074874878 0.13504698872566 0.089805014431477
0.92021548748016 0.19211068749428 0.14414389431477
0.94941538572311 0.25575917959213 0.20622432231903
0.95567047595978 0.32060292363167 0.27069512009621
0.95594245195389 0.38695293664932 0.33935311436653
0.95839011669159 0.45277446508408 0.40665566921234
0.95703029632568 0.51660084724426 0.47358182072639
0.95811814069748 0.57809150218964 0.53600138425827
0.95703029632568 0.63540714979172 0.59661817550659
0.95784616470337 0.69020241498947 0.65402621030807
0.95539855957031 0.74218028783798 0.70702266693115
0.95485460758209 0.79054510593414 0.75647532939911
1.8896336769103e-05 1.8896336769103e-05 1.8896336769103e-05
1.8896336769103e-05 1.8896336769103e-05 1.8896336769103e-05
1.8896336769103e-05 1.8896336769103e-05 1.8896336769103e-05
1.8896336769103e-05 1.8896336769103e-05 1.8896336769103e-05
1.8896336769103e-05 1.8896336769103e-05 1.8896336769103e-05
0.0014266733778641 0.0001133780242526 0.00014172252849676
0.0076850904151797 0.00023620421416126 0.00017951520567294
0.016529323533177 0.00040627125417814 0.00032123771961778
0.028535151854157 0.00057633826509118 0.00033068589982577
0.045608192682266 0.00075585348531604 0.00035903041134588
0.069251790642738 0.0009542650077492 0.00040627125417814
0.10175421833992 0.0013132954481989 0.00051964924205095
0.14533177018166 0.0048563154414296 0.00092592049622908
0.20318445563316 0.012167863547802 0.0014833624009043
0.28168067336082 0.015400214120746 0.0016250850167125
0.37610214948654 0.019680326804519 0.0019746671896428
0.48311153054237 0.024981280788779 0.0056615527719259
0.59805917739868 0.034064412117004 0.0047707865014672
0.71247792243958 0.052972942590714 0.014743755571544
0.79673963785172 0.090074054896832 0.046925168484449
0.86731725931168 0.13829591870308 0.090275838971138
0.91917318105698 0.1944991350174 0.14505764842033
0.94914346933365 0.25765782594681 0.20633287727833
0.95567047595978 0.32205641269684 0.27094826102257
0.95594245195389 0.38788297772408 0.33964383602142
0.95811814069748 0.45347386598587 0.40665566921234
0.95703029632568 0.51715594530106 0.47375670075417
0.95811814069748 0.5785031914711 0.53600138425827
0.95703029632568 0.63540714979172 0.59661817550659
0.95784616470337 0.6904296875 0.65402621030807
0.95539855957031 0.74218028783798 0.70702266693115
0.95485460758209 0.79054510593414 0.75647532939911
1.8896336769103e-05 1.8896336769103e-05 1.8896336769103e-05
1.8896336769103e-05 1.8896336769103e-05 1.8896336769103e-05
1.8896336769103e-05 1.8896336769103e-05 1.8896336769103e-05
1.8896336769103e-05 1.8896336769103e-05 1.8896336769103e-05
1.8896336769103e-05 1.8896336769103e-05 1.8896336769103e-05
0.0040651699528098 0.00018896337132901 0.00017951520567294
0.010294623672962 0.00028344505699351 0.00022675604850519
0.019181419163942 0.00049130473053083 0.00033068589982577
0.031432721763849 0.00062357913702726 0.00034013405092992
0.048560030758381 0.00074640527600423 0.0003495822311379
0.072356648743153 0.0012282618554309 0.00042516758549027
0.10430634766817 0.0055542439222336 0.00079364614794031
0.14789025485516 0.010850420221686 0.0012849508784711
0.20589861273766 0.016896940767765 0.0018140483880416
0.28358286619186 0.020152978599072 0.0018329446902499
0.3762571811676 0.024755124002695 0.0023903865367174
0.48292651772499 0.02969116345048 0.0057688616216183
0.59744161367416 0.039018180221319 0.0052783070132136
0.71065950393677 0.057586017996073 0.015347697772086
0.79459536075592 0.094244204461575 0.047560948878527
0.86575376987457 0.14195090532303 0.090746656060219
0.91787022352219 0.19710473716259 0.14569726586342
0.94887149333954 0.25955644249916 0.20655001699924
0.95539855957031 0.32350993156433 0.27120143175125
0.956214427948 0.3888523876667 0.33978918194771
0.95811814069748 0.45417326688766 0.40682053565979
0.95703029632568 0.5177109837532 0.47393155097961
0.95784616470337 0.57891488075256 0.5361967086792
0.95703029632568 0.63584017753601 0.59661817550659
0.95784616470337 0.69065701961517 0.65402621030807
0.95539855957031 0.74218028783798 0.70702266693115
0.95485460758209 0.79054510593414 0.75671356916428
1.8896336769103e-05 1.8896336769103e-05 1.8896336769103e-05
1.8896336769103e-05 1.8896336769103e-05 1.8896336769103e-05
1.8896336769103e-05 1.8896336769103e-05 1.8896336769103e-05
1.8896336769103e-05 1.8896336769103e-05 1.8896336769103e-05
0.0016912221908569 0.00013227436284069 0.00015117069415282
0.0066733215935528 0.00021730786829721 0.00017006702546496
0.013114776462317 0.00033068589982577 0.00026454872568138
0.021976642310619 0.00093536864733323 0.00033068589982577
0.03437402099371 0.0023809385020286 0.00043461573659442
0.050928510725498 0.004567654337734 0.00062357913702726
0.074625588953495 0.0074398131109774 0.00090702419402078
0.10670834779739 0.01134446170181 0.0012377100065351
0.14990049600601 0.016713133081794 0.0017195666441694
0.2077442407608 0.021879719570279 0.0023998348042369
0.28466984629631 0.025207435712218 0.0022486641537398
0.37656718492508 0.029310543090105 0.0029532890766859
0.4823714196682 0.034683633595705 0.005952819250524
0.59764742851257 0.043564613908529 0.0057382020168006
0.70838648080826 0.062723308801651 0.016424290835857
0.79221284389496 0.098676659166813 0.048242140561342
0.86392968893051 0.14560589194298 0.09121748059988
0.91656732559204 0.20014460384846 0.14597138762474
0.94859951734543 0.26145508885384 0.2066585868597
0.9551265835762 0.32467272877693 0.27145457267761
0.956214427948 0.38967663049698 0.33993452787399
0.95811814069748 0.45504751801491 0.40698537230492
0.95703029632568 0.51826608181 0.47410640120506
0.95784616470337 0.57912075519562 0.53639209270477
0.95730227231979 0.63605666160583 0.59682404994965
0.95784616470337 0.69065701961517 0.65402621030807
0.95539855957031 0.74218028783798 0.70702266693115
0.95485460758209 0.79102158546448 0.75671356916428
0.00012282618263271 0.0013416399015114 0.00039682307397015
0.00017006702546496 0.0018518409924582 0.00052909745136276
0.00018896337132901 0.0023431456647813 0.00067081995075569
0.00020785970264114 0.0028998332563788 0.00080309429904446
0.0039261844940484 0.0035519939847291 0.00019841153698508
0.0088041685521603 0.0043217577040195 8.503351273248e-05
0.015216405503452 0.0051342858932912 0.00027399687678553
0.024141274392605 0.0063667250797153 0.00028344505699351
0.036309089511633 0.0078843785449862 0.00035903041134588
0.053444731980562 0.0099858483299613 0.00048185657942668
0.077073656022549 0.012847170233727 0.0006991644622758
0.10926046967506 0.01668687351048 0.0010770912049338
0.15255035459995 0.021944334730506 0.001653429470025
0.21024127304554 0.026467444375157 0.0024294222239405
0.28494158387184 0.030697396025062 0.0029746715445071
0.3759471476078 0.034644931554794 0.0038192730862647
0.48089125752449 0.039568278938532 0.0048135509714484
0.59641236066818 0.048469204455614 0.0065506831742823
0.70611345767975 0.067400813102722 0.018892576918006
0.79006862640381 0.10265497118235 0.049059573560953
0.86217302083969 0.14871262013912 0.091755568981171
0.91552501916885 0.20296733081341 0.14624550938606
0.94859951734543 0.26335373520851 0.206767141819
0.95485460758209 0.32627159357071 0.27170771360397
0.956214427948 0.39050084352493 0.34007987380028
0.95784616470337 0.4557469189167 0.40698537230492
0.95703029632568 0.51863610744476 0.47410640120506
0.95784616470337 0.57973831892014 0.53639209270477
0.95730227231979 0.63627314567566 0.59682404994965
0.95784616470337 0.69065701961517 0.6542426943779
0.95539855957031 0.74289506673813 0.70724999904633
0.95485460758209 0.79102158546448 0.75671356916428
0.0002551005454734 0.0068726092576981 0.0017668075161055
0.00024565236526541 0.0073938239365816 0.0018707372946665
0.00024565236526541 0.0079456977546215 0.0019746671896428
0.00041571940528229 0.0083902627229691 0.00018896337132901
0.0057382020168006 0.0088961478322744 0.00015117069415282
0.010747495107353 0.0096359020099044 0.00035903041134588
0.016949458047748 0.010582814924419 0.00037792674265802
0.025885902345181 0.011941428296268 0.00044406391680241
0.037857141345739 0.013567647896707 0.00049130473053083
0.054964952170849 0.015794089064002 0.00056689011398703
0.078506670892239 0.018761284649372 0.00073695712490007
0.11113703250885 0.022428954020143 0.0011054356582463
0.15456059575081 0.028212072327733 0.0015778441447765
0.2124125957489 0.031084410846233 0.0025042602792382
0.28630030155182 0.03553506359458 0.0031564212404191
0.3759471476078 0.039749931544065 0.0034771559294313
0.47978109121323 0.044836174696684 0.0039261844940484
0.59517723321915 0.053339891135693 0.0073018446564674
0.70452237129211 0.071819275617599 0.019155159592628
0.78792434930801 0.10663328319788 0.050058655440807
0.86042761802673 0.15172798931599 0.092226386070251
0.9152644276619 0.20546434819698 0.14670237898827
0.94887149333954 0.2649992108345 0.20687571167946
0.95485460758209 0.32757973670959 0.27208745479584
0.956214427948 0.39165475964546 0.34022521972656
0.95784616470337 0.45644634962082 0.40731507539749
0.95703029632568 0.51900613307953 0.47428125143051
0.95784616470337 0.57994419336319 0.53658747673035
0.95730227231979 0.63648962974548 0.59702986478806
0.95784616470337 0.6913388967514 0.6542426943779
0.95539855957031 0.74289506673813 0.70724999904633
0.95485460758209 0.79102158546448 0.75671356916428
0.00028344505699351 0.013649987988174 0.003466464811936
0.00029289320809767 0.014061689376831 0.0036161411553621
0.00026454872568138 0.014586204662919 0.0027929216157645
0.0025577160995454 0.015347697772086 0.00035903041134588
0.0079150376841426 0.016030415892601 0.00017006702546496
0.012950096279383 0.016739390790462 0.00016061885980889
0.019470261409879 0.017605917528272 0.00045351209701039
0.028308996930718 0.018761284649372 0.00057633826509118
0.04074901342392 0.020415561273694 0.00072750897379592
0.057481177151203 0.022913573309779 0.00071806082269177
0.080388553440571 0.026176674291492 0.00085033517098054
0.1124881580472 0.030116876587272 0.0010581949027255
0.15638808906078 0.034335322678089 0.0015872922958806
0.21462845802307 0.037547532469034 0.0025684074498713
0.287930727005 0.041611857712269 0.0034343912266195
0.37641218304634 0.046289388090372 0.0025790985673666
0.47959607839584 0.050649024546146 0.0030174360144883
0.59414798021317 0.059315919876099 0.0071792062371969
0.70202207565308 0.077491618692875 0.018866317346692
0.78530359268188 0.11128716170788 0.050876088440418
0.85843288898468 0.15510883927345 0.093100771307945
0.91500383615494 0.20817850530148 0.14734201133251
0.94887149333954 0.26677125692368 0.20720142126083
0.95458263158798 0.32903325557709 0.27246716618538
0.956214427948 0.39264383912086 0.34051594138145
0.95784616470337 0.45749545097351 0.40747991204262
0.95703029632568 0.5197462439537 0.47445610165596
0.95757418870926 0.58056169748306 0.53678280115128
0.95730227231979 0.63692265748978 0.59702986478806
0.95784616470337 0.69156622886658 0.6542426943779
0.95539855957031 0.74289506673813 0.70724999904633
0.95485460758209 0.79102158546448 0.75671356916428
0.00033068589982577 0.023236652836204 0.0056462227366865
0.00032123771961778 0.023785887286067 0.0051022125408053
0.00031178956851363 0.024593584239483 0.0006991644622758
0.0057535315863788 0.025207435712218 0.00058578641619533
0.010706325061619 0.025756670162082 0.00026454872568138
0.01616170629859 0.026338214054704 9.4481685664505e-05
0.022428954020143 0.027016680687666 0.00024565236526541
0.031123111024499 0.028018224984407 0.00066137179965153
0.043655440211296 0.029962072148919 0.00075585348531604
0.060940984636545 0.032593760639429 0.0011243320768699
0.084020622074604 0.035767268389463 0.001086539356038
0.11504028737545 0.040113233029842 0.0012471582740545
0.15812420845032 0.043246723711491 0.001464466098696
0.21662551164627 0.046153146773577 0.0025790985673666
0.28983291983604 0.050058655440807 0.0039261844940484
0.37718722224236 0.054126210510731 0.0026646277401596
0.47922602295876 0.059263501316309 0.0023714902345091
0.59250116348267 0.067639648914337 0.0078843785449862
0.69883984327316 0.086038433015347 0.017842242494226
0.78244459629059 0.11776129156351 0.051609985530376
0.85618877410889 0.15967757999897 0.094378724694252
0.91474324464798 0.21176120638847 0.14834712445736
0.94887149333954 0.26955592632294 0.20806995034218
0.95431071519852 0.33106815814972 0.27297347784042
0.95675832033157 0.39412742853165 0.34095197916031
0.95757418870926 0.45871940255165 0.40780958533287
0.95730227231979 0.52048635482788 0.47463095188141
0.95757418870926 0.58097344636917 0.53697818517685
0.95730227231979 0.6371391415596 0.59723573923111
0.95784616470337 0.69156622886658 0.65445917844772
0.95539855957031 0.74289506673813 0.70724999904633
0.95485460758209 0.79102158546448 0.75671356916428
0.00041571940528229 0.036192983388901 0.0072251954115927
0.00018896337132901 0.037121817469597 0.0023053530603647
0.0026646277401596 0.037779737263918 0.00084088696166873
0.0099240923300385 0.038282856345177 0.00081254250835627
0.01455994695425 0.038863375782967 0.00041571940528229
0.020205494016409 0.03934121504426 0.00017951520567294
0.026822831481695 0.040204059332609 0.00017006702546496
0.035922076553106 0.041384793817997 0.00041571940528229
0.048060487955809 0.043382961302996 0.00090702419402078
0.064475074410439 0.045880671590567 0.0011243320768699
0.088392548263073 0.049104984849691 0.0016250850167125
0.11892475187778 0.051557566970587 0.0015683959936723
0.1604085713625 0.054807689040899 0.0016345331678167
0.21803517639637 0.058215074241161 0.0018801855621859
0.29159924387932 0.061517618596554 0.0039582583121955
0.37780728936195 0.065251290798187 0.003380935639143
0.47811588644981 0.07038626074791 0.0031671123579144
0.59064847230911 0.07820812612772 0.009018786251545
0.69429385662079 0.096060231328011 0.019522776827216
0.77839434146881 0.12756760418415 0.051505144685507
0.85294729471207 0.16687431931496 0.094647765159607
0.91474324464798 0.21650803089142 0.15008324384689
0.94914346933365 0.2731000483036 0.2093727439642
0.9537667632103 0.33368444442749 0.27373293042183
0.95648640394211 0.39627042412758 0.34153339266777
0.95730227231979 0.46011823415756 0.40813928842545
0.95730227231979 0.52159649133682 0.47480580210686
0.95730227231979 0.58200269937515 0.53736889362335
0.95730227231979 0.63800513744354 0.59744161367416
0.95784616470337 0.69179350137711 0.65445917844772
0.95539855957031 0.7431333065033 0.70747727155685
0.95485460758209 0.79125988483429 0.75671356916428
0.00022675604850519 0.054964952170849 0.003006744896993
0.0021541824098676 0.055751271545887 0.0012188137043267
0.0088348276913166 0.056327905505896 0.0012282618554309
0.015216405503452 0.056956961750984 0.0011337802279741
0.02017923630774 0.057481177151203 0.00067081995075569
0.025562822818756 0.058110229671001 0.00039682307397015
0.032709866762161 0.05889655277133 0.00022675604850519
0.041566446423531 0.059892557561398 0.00028344505699351
0.053706839680672 0.061570037156343 0.00068971631117165
0.070207133889198 0.06303783506155 0.0012943990295753
0.091957345604897 0.065012454986572 0.0015872922958806
0.12332928180695 0.067699357867241 0.0023431456647813
0.16427782177925 0.070625096559525 0.0021352861076593
0.2203846424818 0.074207626283169 0.0017951519694179
0.29214271903038 0.077372200787067 0.0024187311064452
0.37672218680382 0.081262938678265 0.0050059920176864
0.47445610165596 0.085903912782669 0.0048028598539531
0.58591389656067 0.093033514916897 0.0095741469413042
0.68815672397614 0.10926046967506 0.022848956286907
0.77362936735153 0.13793042302132 0.053077783435583
0.84895777702332 0.17646133899689 0.094244204461575
0.91109508275986 0.2237913608551 0.15081423521042
0.94805562496185 0.2781480550766 0.21110980212688
0.95349478721619 0.3373182117939 0.2748721241951
0.95648640394211 0.39907279610634 0.34226012229919
0.95730227231979 0.46221646666527 0.40879866480827
0.95730227231979 0.52291232347488 0.47534051537514
0.95703029632568 0.58323782682419 0.53775960206985
0.95757418870926 0.63822168111801 0.59785330295563
0.95757418870926 0.69270271062851 0.65467572212219
0.95539855957031 0.74360984563828 0.70747727155685
0.95485460758209 0.79125988483429 0.75695180892944
0.003370244288817 0.080388553440571 0.0017290147952735
0.0082522947341204 0.080792121589184 0.0017479110974818
0.015426472760737 0.081195682287216 0.0017951519694179
0.021362792700529 0.081599242985249 0.0017479110974818
0.025853594765067 0.081935547292233 0.0012849508784711
0.030426487326622 0.082271851599216 0.001086539356038
0.037354022264481 0.082675412297249 0.00086923147318885
0.04633479937911 0.083213493227959 0.00068971631117165
0.058215074241161 0.084020622074604 0.00081254250835627
0.073789663612843 0.085231304168701 0.0012188137043267
0.096396535634995 0.087047338485718 0.0017951519694179
0.12723518908024 0.089468710124493 0.0021541824098676
0.16917119920254 0.092360906302929 0.0035306117497385
0.22273410856724 0.095589406788349 0.0027715393807739
0.29404491186142 0.098451472818851 0.0011432283790782
0.37579214572906 0.10152903199196 0.0028998332563788
0.4728824198246 0.10475672036409 0.0050059920176864
0.58035588264465 0.11158741265535 0.0068266200833023
0.67870730161667 0.12914657592773 0.017290815711021
0.76695835590363 0.15200211107731 0.056642435491085
0.84322285652161 0.18841941654682 0.097926035523415
0.90614402294159 0.23412899672985 0.15255035459995
0.94370424747467 0.2854850590229 0.21284687519073
0.9551265835762 0.34153339266777 0.27613785862923
0.95675832033157 0.40302908420563 0.34327760338783
0.95675832033157 0.46501410007477 0.40962290763855
0.95757418870926 0.52486592531204 0.47608062624931
0.95675832033157 0.58447289466858 0.53834569454193
0.95757418870926 0.63908767700195 0.59826499223709
0.95757418870926 0.69338464736938 0.65489220619202
0.95539855957031 0.74432456493378 0.70770460367203
0.95485460758209 0.79149812459946 0.75695180892944
0.0059681492857635 0.11181259900331 0.002461495809257
0.011241536587477 0.11218790709972 0.0024508046917617
0.017133265733719 0.11241310089827 0.0025149516295642
0.024916663765907 0.1129385381937 0.0025897896848619
0.030349085107446 0.11316372454166 0.0025790985673666
0.034257918596268 0.11346397548914 0.0022297678515315
0.040158648043871 0.11376421898603 0.0019179781666026
0.050013244152069 0.11421459913254 0.0016628776211292
0.061936989426613 0.11481510102749 0.0014455697964877
0.078626088798046 0.11564078181982 0.0015967404469848
0.10100359469652 0.11676403880119 0.0019179781666026
0.13172282278538 0.11850922554731 0.0023714902345091
0.17346540093422 0.12116856873035 0.0030388184823096
0.22731555998325 0.1245758458972 0.0047280215658247
0.29608297348022 0.12765070796013 0.0023714902345091
0.37687721848488 0.12947900593281 0.0044607426971197
0.47148361802101 0.13072556257248 0.0045997276902199
0.57726806402206 0.13579492270947 0.0054009454324841
0.67177927494049 0.14926087856293 0.02714591100812
0.75719010829926 0.17346540093422 0.062775731086731
0.8352438211441 0.20340159535408 0.10378091037273
0.90041124820709 0.24601283669472 0.15666221082211
0.93826502561569 0.29486012458801 0.21509835124016
0.956214427948 0.3485102057457 0.27719694375992
0.95648640394211 0.40830412507057 0.344731092453
0.95675832033157 0.46833628416061 0.41094166040421
0.95757418870926 0.52740556001663 0.47719076275826
0.95648640394211 0.58632558584213 0.53912711143494
0.95784616470337 0.64060318470001 0.59867668151855
0.95730227231979 0.69452112913132 0.65532523393631
0.95539855957031 0.74456280469894 0.70793187618256
0.95485460758209 0.79221284389496 0.75719010829926
0.0096359020099044 0.1536468565464 0.0032633328810334
0.013402966782451 0.15382960438728 0.0033381709363312
0.019181419163942 0.15401235222816 0.0034343912266195
0.027016680687666 0.15419510006905 0.0035519939847291
0.035612463951111 0.15437784790993 0.0037337439134717
0.040839839726686 0.15474334359169 0.004011713899672
0.046016909182072 0.15529158711433 0.0037230525631458
0.054126210510731 0.15583984553814 0.0032954062335193
0.067102268338203 0.15657083690166 0.0030388184823096
0.083886101841927 0.15711908042431 0.0028784510213882
0.10738390684128 0.15794146060944 0.0031457298900932
0.13679218292236 0.15922069549561 0.0027608482632786
0.17925755679607 0.1613817512989 0.0023809385020286
0.23107469081879 0.16238039731979 0.0036054498050362
0.2978492975235 0.16427782177925 0.0052323173731565
0.37703222036362 0.16517661511898 0.0049739181995392
0.4669374525547 0.16517661511898 0.0055542439222336
0.56647735834122 0.16747350990772 0.0092653706669807
0.66160374879837 0.17835877835751 0.032168045639992
0.74789834022522 0.19558480381966 0.068535283207893
0.82402330636978 0.22637577354908 0.11271334439516
0.89233314990997 0.26221454143524 0.16248026490211
0.93581742048264 0.30736023187637 0.21744781732559
0.956214427948 0.35858592391014 0.28113719820976
0.95675832033157 0.41555732488632 0.34720206260681
0.95648640394211 0.4728824198246 0.41242524981499
0.95784616470337 0.53072667121887 0.4783008992672
0.95648640394211 0.58858996629715 0.53990852832794
0.95784616470337 0.64211869239807 0.59950011968613
0.95730227231979 0.69543033838272 0.65575820207596
0.95567047595978 0.74551582336426 0.70838648080826
0.95485460758209 0.7929276227951 0.75742834806442
0.016319256275892 0.20752711594105 0.0037978908512741
0.021556640043855 0.20785281062126 0.0039048024918884
0.027339758351445 0.20817850530148 0.0040330961346626
0.034141816198826 0.20817850530148 0.00420415494591
0.041384793817997 0.20839564502239 0.0043645221740007
0.046925168484449 0.20861278474331 0.0045890365727246
0.053654417395592 0.20882990956306 0.004931153729558
0.062723308801651 0.20904704928398 0.0051129036583006
0.074625588953495 0.2093727439642 0.0049418448470533
0.091015703976154 0.20980700850487 0.0049097714945674
0.1132387816906 0.210349842906 0.0050915209576488
0.14478352665901 0.21121837198734 0.0050701387226582
0.18305242061615 0.21186977624893 0.0030815829522908
0.23706582188606 0.21328113973141 0.0010581949027255
0.29839277267456 0.2123040407896 0.0018896337132901
0.37548211216927 0.21056696772575 0.0035199206322432
0.4616918861866 0.20828707516193 0.0052323173731565
0.55710011720657 0.2066585868597 0.013197116553783
0.65034568309784 0.21143551170826 0.038282856345177
0.73429876565933 0.22766797244549 0.072535775601864
0.81380015611649 0.24955695867538 0.11917406320572
0.88060694932938 0.28507745265961 0.1718675494194
0.93336975574493 0.32365527749062 0.22461368143559
0.95594245195389 0.37129682302475 0.2858926653862
0.95703029632568 0.42478865385056 0.35083538293839
0.95784616470337 0.47904101014137 0.41456824541092
0.95811814069748 0.53561067581177 0.47996613383293
0.956214427948 0.59188359975815 0.54108071327209
0.95811814069748 0.64450019598007 0.60052937269211
0.95703029632568 0.69679415225983 0.65640771389008
0.95567047595978 0.74670708179474 0.70861381292343
0.95485460758209 0.79364234209061 0.75766658782959
0.019995428621769 0.27259373664856 0.0028677599038929
