AgX Luts/AgX - Low Contrast.cube
LUT_3D_SIZE 32
0.00013227436284069 0.00014172252849676 0.00013227436284069
0.00013227436284069 0.00014172252849676 0.00013227436284069
0.00013227436284069 0.00014172252849676 0.00013227436284069
0.00013227436284069 0.00014172252849676 0.00013227436284069
0.00013227436284069 0.00014172252849676 0.00013227436284069
0.00013227436284069 0.00014172252849676 0.00013227436284069
0.0081296553835273 0.00063302728813142 0.00057633826509118
0.01975910179317 0.0010109540307894 0.00081254250835627
0.035418957471848 0.001464466098696 0.0011337802279741
0.056013379245996 0.0020974932704121 0.0016156367491931
0.082406371831894 0.003102965420112 0.002116389805451
0.11676403880119 0.0044072871096432 0.0029212157242
0.16208079457283 0.0062440861947834 0.0040010227821767
0.21885749697685 0.01101510040462 0.0054316050373018
0.29173511266708 0.016713133081794 0.0069339289329946
0.3762571811676 0.022752033546567 0.0092653706669807
0.47148361802101 0.029181310907006 0.012126693502069
0.57582712173462 0.038089349865913 0.014533688314259
0.67459374666214 0.057795703411102 0.022138182073832
0.74885129928589 0.092360906302929 0.052868098020554
0.81255346536636 0.13579492270947 0.091284744441509
0.8619236946106 0.18524944782257 0.13765630125999
0.89155143499374 0.24023759365082 0.19265350699425
0.89728420972824 0.29716995358467 0.24981011450291
0.89962947368622 0.35750085115433 0.30912655591965
0.90275645256042 0.41506278514862 0.37021175026894
0.9019747376442 0.47534051537514 0.42973402142525
0.90484112501144 0.53072667121887 0.48810717463493
0.9035382270813 0.58467876911163 0.54518324136734
0.9035382270813 0.63670617341995 0.59950011968613
0.90171414613724 0.68542909622192 0.65034568309784
0.89936888217926 0.73338961601257 0.69770336151123
0.00013227436284069 0.00014172252849676 0.00013227436284069
0.00013227436284069 0.00014172252849676 0.00013227436284069
0.00013227436284069 0.00014172252849676 0.00013227436284069
0.00013227436284069 0.00014172252849676 0.00013227436284069
0.00013227436284069 0.00014172252849676 0.00013227436284069
0.0028143040835857 0.00041571940528229 0.00044406391680241
0.011982598342001 0.00077474978752434 0.00065192359033972
0.023656655102968 0.0011148839257658 0.00090702419402078
0.038940779864788 0.0015683959936723 0.0012093655532226
0.059211079031229 0.0022014232818037 0.0016817739233375
0.085500344634056 0.0032205681782216 0.0021730787120759
0.12017131596804 0.0045141982845962 0.0029960537794977
0.16457742452621 0.008344273082912 0.0042896843515337
0.21979728341103 0.017133265733719 0.0061980970203876
0.29241445660591 0.021524332463741 0.0077770696952939
0.37579214572906 0.027436682954431 0.010150528512895
0.46990993618965 0.034761033952236 0.012209033593535
0.57438617944717 0.043019659817219 0.015478989109397
0.67242872714996 0.062041830271482 0.022913573309779
0.74646884202957 0.09612749516964 0.053549576550722
0.81080806255341 0.13920967280865 0.091553784906864
0.86067694425583 0.18765945732594 0.13838730752468
0.89155143499374 0.24188221991062 0.19276207685471
0.89728420972824 0.2982569038868 0.25006327033043
0.89962947368622 0.35827589035034 0.30926242470741
0.90275645256042 0.41572216153145 0.37036675214767
0.9019747376442 0.47589558362961 0.42989885807037
0.90484112501144 0.53092205524445 0.48810717463493
0.9035382270813 0.58467876911163 0.54537862539291
0.9035382270813 0.63692265748978 0.59950011968613
0.90171414613724 0.68565636873245 0.65034568309784
0.89936888217926 0.73338961601257 0.69770336151123
0.00013227436284069 0.00014172252849676 0.00013227436284069
0.00013227436284069 0.00014172252849676 0.00013227436284069
0.00013227436284069 0.00014172252849676 0.00013227436284069
0.00013227436284069 0.00014172252849676 0.00013227436284069
0.00013227436284069 0.00014172252849676 0.00013227436284069
0.0067653004080057 0.00057633826509118 0.00054799375357106
0.01553150638938 0.00087867968250066 0.00072750897379592
0.027113603428006 0.0012282618554309 0.00094481685664505
0.042383879423141 0.0017006703419611 0.001275502727367
0.062199093401432 0.0023431456647813 0.0017384629463777
0.088594324886799 0.0036268322728574 0.0022486641537398
0.12208271026611 0.0085129020735621 0.0032312592957169
0.16547620296478 0.015400214120746 0.0044500515796244
0.22097201645374 0.022622801363468 0.0063513950444758
0.29268619418144 0.027307450771332 0.0086355404928327
0.37517207860947 0.032787267118692 0.010726910084486
0.46868598461151 0.038979478180408 0.012414884753525
0.5735627412796 0.04801507666707 0.016292998567224
0.67048025131226 0.066624596714973 0.023430500179529
0.74408632516861 0.10025297105312 0.054126210510731
0.8090626001358 0.14259052276611 0.091890089213848
0.85943025350571 0.18993934988976 0.13884417712688
0.89129084348679 0.24329189956188 0.19287064671516
0.89728420972824 0.29961562156677 0.25031641125679
0.89989006519318 0.35905095934868 0.30939829349518
0.90275645256042 0.41621670126915 0.37036675214767
0.9019747376442 0.4764506816864 0.4300636947155
0.90484112501144 0.53131276369095 0.48829218745232
0.9035382270813 0.5850904583931 0.54537862539291
0.9035382270813 0.6371391415596 0.59950011968613
0.90171414613724 0.68565636873245 0.65034568309784
0.89936888217926 0.7340714931488 0.69770336151123
0.00013227436284069 0.00014172252849676 0.00013227436284069
0.00013227436284069 0.00014172252849676 0.00013227436284069
0.00013227436284069 0.00014172252849676 0.00013227436284069
0.00013227436284069 0.00014172252849676 0.00013227436284069
0.0032954062335193 0.00043461573659442 0.00046296024811454
0.010500473901629 0.00075585348531604 0.00063302728813142
0.01923393458128 0.00097316136816517 0.00080309429904446
0.030426487326622 0.0019841154571623 0.0010109540307894
0.045154064893723 0.0042683016508818 0.0013132954481989
0.063876576721668 0.0070105781778693 0.0017762556672096
0.089468710124493 0.010582814924419 0.0022864567581564
0.12258134037256 0.015373955480754 0.0030815829522908
0.16577580571175 0.021653562784195 0.0041827727109194
0.2221467345953 0.027404375374317 0.0060754581354558
0.29282209277153 0.032555058598518 0.0087735084816813
0.37486207485199 0.037702336907387 0.011097440496087
0.46746200323105 0.043882504105568 0.012661905027926
0.57315105199814 0.052291464060545 0.016345515847206
0.66831523180008 0.071520730853081 0.024690508842468
0.74194204807281 0.10438141226768 0.054755266755819
0.80731719732285 0.14551451802254 0.092360906302929
0.85843288898468 0.19254495203495 0.13902692496777
0.89129084348679 0.24500022828579 0.19297921657562
0.89702367782593 0.3007025718689 0.25044298171997
0.89989006519318 0.35998103022575 0.30953416228294
0.90301704406738 0.41687607765198 0.37052175402641
0.9019747376442 0.47682070732117 0.4300636947155
0.90484112501144 0.53170347213745 0.48847723007202
0.9035382270813 0.58529633283615 0.54537862539291
0.9035382270813 0.6371391415596 0.59950011968613
0.90171414613724 0.68565636873245 0.65034568309784
0.89936888217926 0.7340714931488 0.69770336151123
0.00043461573659442 0.0025256427470595 0.00089757598470896
0.00052909745136276 0.0033488620538265 0.0011243320768699
0.00058578641619533 0.0040972433052957 0.0013132954481989
0.00063302728813142 0.0047600953839719 0.0014928105520085
0.0061214477755129 0.005492924246937 0.00062357913702726
0.012908926233649 0.0066120023839176 0.00064247543923557
0.021019503474236 0.0077617396600544 0.00093536864733323
0.032090645283461 0.0090801054611802 0.0011810210999101
0.046380210667849 0.01115919649601 0.0013132954481989
0.065430417656898 0.013752913102508 0.0015967404469848
0.090881183743477 0.017343332991004 0.002069148933515
0.12366169691086 0.021782794967294 0.0028463774360716
0.16647484898567 0.028212072327733 0.0040330961346626
0.22285157442093 0.032903373241425 0.0058455104008317
0.2929579615593 0.03731532394886 0.0085742212831974
0.37408700585365 0.042928833514452 0.009738827124238
0.46606320142746 0.048787094652653 0.011776748113334
0.57175207138062 0.056747276335955 0.016214223578572
0.66636675596237 0.075640641152859 0.027339758351445
0.74003607034683 0.10768415778875 0.055489163845778
0.80557179450989 0.14807300269604 0.09283173084259
0.85743546485901 0.19493341445923 0.13930104672909
0.89129084348679 0.24651914834976 0.19297921657562
0.89702367782593 0.30206128954887 0.25069615244865
0.89989006519318 0.36060106754303 0.30967003107071
0.90301704406738 0.41753545403481 0.37067678570747
0.9019747376442 0.47719076275826 0.43022856116295
0.90484112501144 0.53170347213745 0.48847723007202
0.9035382270813 0.58550214767456 0.54537862539291
0.9035382270813 0.63735568523407 0.59970599412918
0.90171414613724 0.68565636873245 0.65034568309784
0.89936888217926 0.7340714931488 0.69770336151123
0.00077474978752434 0.010047603398561 0.0029425979591906
0.00073695712490007 0.01082983519882 0.0030922743026167
0.00078419799683616 0.011529726907611 0.003284715116024
0.0012377100065351 0.012229618616402 0.00072750897379592
0.0083749331533909 0.01276483014226 0.00068026810185984
0.014796271920204 0.013444136828184 0.0011054356582463
0.022655108943582 0.014454913325608 0.0011337802279741
0.033599995076656 0.016135448589921 0.0012282618554309
0.047969665378332 0.017921017482877 0.0017101184930652
0.066863432526588 0.02059937082231 0.0019179781666026
0.092226386070251 0.023850502446294 0.0025149516295642
0.12474205344915 0.028438229113817 0.003380935639143
0.16717390716076 0.034722335636616 0.0044072871096432
0.22367389500141 0.038282856345177 0.0057382020168006
0.29309383034706 0.042293053120375 0.0084515819326043
0.37315693497658 0.047924250364304 0.010253453627229
0.46466436982155 0.053759261965752 0.010232868604362
0.57038456201553 0.061098247766495 0.015977898612618
0.66506773233414 0.079402305185795 0.027565915137529
0.73793560266495 0.1109869107604 0.056485168635845
0.80407571792603 0.15072286128998 0.093168035149574
0.85718613862991 0.19710473716259 0.13966654241085
0.89155143499374 0.24778489768505 0.19297921657562
0.89702367782593 0.30341997742653 0.25094929337502
0.90015065670013 0.36137610673904 0.30980589985847
0.90301704406738 0.41819486021996 0.37083178758621
0.9019747376442 0.47774583101273 0.43039339780807
0.90484112501144 0.53228956460953 0.4886622428894
0.9035382270813 0.58591389656067 0.54557394981384
0.9035382270813 0.63757216930389 0.59970599412918
0.90171414613724 0.68633830547333 0.65034568309784
0.89936888217926 0.7340714931488 0.69770336151123
0.00094481685664505 0.018761284649372 0.0050701387226582
0.0009542650077492 0.019286451861262 0.0052476469427347
0.00093536864733323 0.019864136353135 0.0043431399390101
0.0049632270820439 0.020520595833659 0.0010109540307894
0.011179781518877 0.021136635914445 0.00075585348531604
0.017500882968307 0.021912027150393 0.00082199065946043
0.025401283055544 0.022913573309779 0.0014361216453835
0.035612463951111 0.02433512173593 0.0016817739233375
0.049740765243769 0.026144364848733 0.0018046001205221
0.068774119019508 0.028567461296916 0.0023714902345091
0.093638859689236 0.032206747680902 0.0028784510213882
0.12615482509136 0.036502595990896 0.0035413028672338
0.16797283291817 0.041384793817997 0.0048883892595768
0.22437873482704 0.044745348393917 0.0060907881706953
0.29282209277153 0.04915039986372 0.0084669124335051
0.37238189578056 0.054126210510731 0.010932760313153
0.46396496891975 0.059578027576208 0.0094918068498373
0.56804025173187 0.067102268338203 0.015584022738039
0.66246974468231 0.085029527544975 0.027307450771332
0.73566257953644 0.11504028737545 0.057376332581043
0.80233031511307 0.1536468565464 0.093907900154591
0.85693681240082 0.19971032440662 0.14003203809261
0.8918120265007 0.24968354403973 0.19319634139538
0.89728420972824 0.30477869510651 0.25132903456688
0.90015065670013 0.36246117949486 0.30994176864624
0.90275645256042 0.41901907324791 0.37098678946495
0.9019747376442 0.4783008992672 0.43056824803352
0.90484112501144 0.53268027305603 0.4886622428894
0.9035382270813 0.58591389656067 0.54557394981384
0.9035382270813 0.63778865337372 0.59970599412918
0.90171414613724 0.68611097335815 0.65056216716766
0.89936888217926 0.7340714931488 0.69793063402176
0.0012943990295753 0.029652461409569 0.0080836666747928
0.0012660545762628 0.030310383066535 0.0074704731814563
0.0010109540307894 0.031394019722939 0.0016250850167125
0.0086048804223537 0.031974539160728 0.0014550179475918
0.014308709651232 0.032555058598518 0.0011148839257658
0.020940728485584 0.03325168415904 0.00074640527600423
0.028082842007279 0.033987008035183 0.0011337802279741
0.038631167262793 0.035031944513321 0.0019746671896428
0.052239041775465 0.036889608949423 0.0024401133414358
0.07086393237114 0.039134286344051 0.0027180835604668
0.095723927021027 0.042792595922947 0.0034237001091242
0.128149330616 0.047197643667459 0.00420415494591
0.16967052221298 0.050104070454836 0.0049097714945674
0.22473114728928 0.053706839680672 0.0068572796881199
0.29282209277153 0.057952966541052 0.0086355404928327
0.37160682678223 0.062146674841642 0.011467971839011
0.46256616711617 0.067460522055626 0.010438718833029
0.56471914052963 0.075640641152859 0.015794089064002
0.65857273340225 0.092697210609913 0.026887448504567
0.7327076792717 0.12100235372782 0.057848125696182
0.79983687400818 0.15739320218563 0.094916805624962
0.85668742656708 0.20264162123203 0.14094579219818
0.89207255840302 0.2519619166851 0.19395631551743
0.89676308631897 0.30668088793755 0.2518353164196
0.90041124820709 0.36339125037193 0.31034940481186
0.90275645256042 0.42017298936844 0.37129682302475
0.90223526954651 0.47904101014137 0.43074309825897
0.90484112501144 0.53346168994904 0.48884725570679
0.9035382270813 0.5867372751236 0.54576933383942
0.9035382270813 0.63800513744354 0.59970599412918
0.90171414613724 0.68656557798386 0.65056216716766
0.89936888217926 0.73429876565933 0.69793063402176
0.0017195666441694 0.044291220605373 0.0098211672157049
0.0012188137043267 0.045381128787994 0.0041827727109194
0.0045997276902199 0.046198561787605 0.0020030117593706
0.013526477850974 0.046698100864887 0.0020408043637872
0.019155159592628 0.047243058681488 0.0016250850167125
0.025756670162082 0.047833424061537 0.0010676430538297
0.03321298211813 0.048560030758381 0.0010676430538297
0.042928833514452 0.049604527652264 0.0016439813189209
0.056799698621035 0.051190614700317 0.0028570687863976
0.074327044188976 0.053497154265642 0.0035733764525503
0.09822628647089 0.056799698621035 0.0040010227821767
0.13039314746857 0.059263501316309 0.0047600953839719
0.17136822640896 0.062199093401432 0.0051863277330995
0.22508357465267 0.065728962421417 0.00644337432459
0.29255032539368 0.068833827972412 0.0093888817355037
0.37021175026894 0.073550827801228 0.011859088204801
0.46029308438301 0.077969290316105 0.011920843273401
0.56120264530182 0.086105689406395 0.016319256275892
0.65359318256378 0.10265497118235 0.028373612090945
0.72838896512985 0.13055935502052 0.057376332581043
0.79673963785172 0.163478910923 0.095051325857639
0.85668742656708 0.2066585868597 0.14240777492523
0.89233314990997 0.25499972701073 0.19504196941853
0.89676308631897 0.30912655591965 0.25246819853783
0.90041124820709 0.36525139212608 0.31089287996292
0.90275645256042 0.42165660858154 0.37160682678223
0.90223526954651 0.47996613383293 0.43091794848442
0.90458053350449 0.53424316644669 0.48903229832649
0.9035382270813 0.58694314956665 0.54596465826035
0.9035382270813 0.63865464925766 0.59991180896759
0.90171414613724 0.68656557798386 0.65056216716766
0.89936888217926 0.73429876565933 0.69793063402176
0.001653429470025 0.064033843576908 0.0051235947757959
0.004107934422791 0.065012454986572 0.0028677599038929
0.013464721851051 0.065549835562706 0.0028143040835857
0.019916653633118 0.06608721613884 0.0029639801941812
0.025627437978983 0.066684305667877 0.0023998348042369
0.031045708805323 0.067281395196915 0.0019368744688109
0.039477452635765 0.068117320537567 0.0016345331678167
0.048787094652653 0.069132372736931 0.0020597006659955
0.061570037156343 0.070445969700813 0.0028677599038929
0.07916346937418 0.071640148758888 0.0040330961346626
0.10107865929604 0.073371700942516 0.0048883892595768
0.13255386054516 0.075401805341244 0.0052016577683389
0.17356525361538 0.077431909739971 0.0067193112336099
0.22531852126122 0.081397466361523 0.0069492585025728
0.29132750630379 0.08476048707962 0.0075624519959092
0.36850661039352 0.08798898011446 0.011673822067678
0.45732060074806 0.092360906302929 0.013897008262575
0.55514657497406 0.099577412009239 0.017500882968307
0.64818066358566 0.11391434818506 0.031587526202202
0.72338837385178 0.14039753377438 0.058424759656191
0.79245114326477 0.17286621034145 0.094244204461575
0.85344594717026 0.2124125957489 0.14304740726948
0.89155143499374 0.25993618369102 0.196453332901
0.89676308631897 0.31217259168625 0.2536073923111
0.90067178010941 0.36742153763771 0.31159117817879
0.90249586105347 0.42363473773003 0.37222689390182
0.90249586105347 0.48089125752449 0.43126764893532
0.90458053350449 0.53541529178619 0.48940235376358
0.9035382270813 0.58776652812958 0.54616004228592
0.9035382270813 0.63887113332748 0.60011768341064
0.90171414613724 0.68656557798386 0.65077871084213
0.89936888217926 0.73452609777451 0.69793063402176
0.0059681492857635 0.090208575129509 0.0040330961346626
0.012661905027926 0.090544879436493 0.0040224050171673
0.021879719570279 0.090746656060219 0.0040224050171673
0.026952063664794 0.090948440134525 0.0041827727109194
0.032206747680902 0.09121748059988 0.0039903316646814
0.036967009305954 0.091486521065235 0.0036375233903527
0.043973330408335 0.091822825372219 0.0032098770607263
0.053811684250832 0.092360906302929 0.0028677599038929
0.065788671374321 0.092898994684219 0.0034237001091242
0.081195682287216 0.093907900154591 0.0042576105333865
0.10535722225904 0.095051325857639 0.0050594476051629
0.13429905474186 0.097025282680988 0.0066426619887352
0.17536282539368 0.099427282810211 0.0075471219606698
0.22637577354908 0.1020544692874 0.0088654877617955
0.29078403115273 0.10475672036409 0.0070259077474475
0.36509639024734 0.10753403604031 0.010027018375695
0.45364871621132 0.110236287117 0.012641320005059
0.54948115348816 0.1164316162467 0.015268922783434
0.63908767700195 0.13188903033733 0.029381552711129
0.71747851371765 0.15245898067951 0.061360351741314
0.7862566113472 0.18484999239445 0.097025282680988
0.84796041250229 0.22238168120384 0.14432664215565
0.88660037517548 0.26727756857872 0.19775614142418
0.89702367782593 0.31682381033897 0.25474655628204
0.90067178010941 0.37083178758621 0.3126086294651
0.90249586105347 0.42610740661621 0.3728469312191
0.90249586105347 0.48274147510529 0.43214192986488
0.90458053350449 0.53658747673035 0.48995742201805
0.9035382270813 0.58900165557861 0.54635542631149
0.9035382270813 0.63973718881607 0.60032349824905
0.90171414613724 0.68747478723526 0.65099519491196
0.89936888217926 0.73498070240021 0.69815796613693
0.0094506368041039 0.12058683484793 0.0053856153972447
0.016082931309938 0.12083614617586 0.0052783070132136
0.023268960416317 0.12100235372782 0.0053089666180313
0.031123111024499 0.12108546495438 0.0054009454324841
0.036463893949986 0.12108546495438 0.0056308931671083
0.041112318634987 0.12133477628231 0.0055082542821765
0.047788012772799 0.12141788005829 0.0051342858932912
0.057848125696182 0.1217502951622 0.0048135509714484
0.06943091750145 0.12216581404209 0.0045248898677528
0.086643777787685 0.12291375547647 0.0050059920176864
0.10813453793526 0.12374480068684 0.0061980970203876
0.13820454478264 0.12515757977962 0.0065200231038034
0.1772602647543 0.1271520704031 0.0083902627229691
0.22766797244549 0.12939588725567 0.010459303855896
0.29064816236496 0.13188903033733 0.0097182421013713
0.36354628205299 0.13338489830494 0.012126693502069
0.44875285029411 0.13471457362175 0.012806000187993
0.54537862539291 0.13847868144512 0.012991266325116
0.63042765855789 0.1509969830513 0.033561293035746
0.70838648080826 0.17086890339851 0.066744014620781
0.77934736013412 0.19753900170326 0.10212953388691
0.84147745370865 0.23412899672985 0.14770750701427
0.88086754083633 0.27601128816605 0.19949319958687
0.89728420972824 0.32423669099808 0.25525286793709
0.90093237161636 0.37532711029053 0.3140621483326
0.90249586105347 0.42907464504242 0.37408700585365
0.90275645256042 0.48477673530579 0.43301618099213
0.90458053350449 0.53834569454193 0.49051249027252
0.9035382270813 0.59023678302765 0.546746134758
0.9035382270813 0.64038664102554 0.60052937269211
0.90171414613724 0.68792939186096 0.65121167898178
0.89936888217926 0.73543530702591 0.69815796613693
0.013732328079641 0.15986032783985 0.0076084416359663
0.018367409706116 0.15995170176029 0.0075777815654874
0.025013588368893 0.15976895391941 0.0075471219606698
0.033948305994272 0.15976895391941 0.0075317923910916
0.042565528303385 0.15986032783985 0.0075931116007268
0.046743515878916 0.15995170176029 0.0077157504856586
0.052029356360435 0.1604085713625 0.0076391012407839
0.061622459441423 0.16068269312382 0.0073938239365816
0.074804715812206 0.16088242828846 0.0071638762019575
0.091015703976154 0.16128188371658 0.0069799181073904
0.11308865994215 0.16168133914471 0.0075777815654874
0.14185953140259 0.16238039731979 0.0086355404928327
0.18115498125553 0.16407810151577 0.0080989962443709
0.2288427054882 0.16457742452621 0.0098211672157049
0.29064816236496 0.1655760705471 0.012538394890726
0.3615311384201 0.16617526113987 0.013526477850974
0.44403186440468 0.16567593812943 0.014329294674098
0.53326636552811 0.16777309775352 0.017395850270987
0.62049704790115 0.17626160383224 0.038282856345177
0.69838523864746 0.1917849779129 0.071401312947273
0.76957911252975 0.21662551164627 0.110236287117
0.83399707078934 0.24879750609398 0.15264172852039
0.87852227687836 0.28725138306618 0.2010131329298
0.89780539274216 0.33295771479607 0.25829067826271
0.90119296312332 0.38230258226395 0.31624239683151
0.90275645256042 0.43336588144302 0.37548211216927
0.90301704406738 0.48755210638046 0.43424013257027
0.90431994199753 0.54049462080002 0.49125257134438
0.90379881858826 0.59126603603363 0.54733216762543
0.9035382270813 0.64168566465378 0.60094106197357
0.9019747376442 0.68861132860184 0.65142822265625
0.89936888217926 0.73588991165161 0.69838523864746
0.021653562784195 0.20882990956306 0.010253453627229
0.027275143191218 0.20915560424328 0.010479888878763
0.03325168415904 0.20904704928398 0.010562229901552
0.040340296924114 0.20904704928398 0.010603399947286
0.048151314258575 0.20893847942352 0.010665155015886
0.05454558134079 0.20882990956306 0.010726910084486
0.060678876936436 0.20915560424328 0.010871005244553
0.068415865302086 0.20893847942352 0.010644569993019
0.07991773635149 0.20904704928398 0.010212283581495
0.096665576100349 0.20904704928398 0.010212283581495
0.11842612177134 0.20926417410374 0.010335793718696
0.14743338525295 0.2093727439642 0.01107685547322
0.18315228819847 0.20958986878395 0.010109358467162
0.23248437047005 0.21045841276646 0.0065813427790999
0.2883383333683 0.20893847942352 0.0081143258139491
0.35874092578888 0.20698428153992 0.010665155015886
0.43703776597977 0.20437869429588 0.012209033593535
0.52349841594696 0.20275019109249 0.02175048738718
0.60814589262009 0.20709285140038 0.043337550014257
0.68588370084763 0.21932739019394 0.07486442476511
0.75838130712509 0.23929780721664 0.11541559547186
0.82327526807785 0.26791045069695 0.16059131920338
0.87617707252502 0.30138191580772 0.20698428153992
0.89832657575607 0.34342294931412 0.26208797097206
0.90171414613724 0.39116021990776 0.31944012641907
0.90301704406738 0.43983539938927 0.37718722224236
0.9035382270813 0.49180763959885 0.43581381440163
0.90431994199753 0.54342502355576 0.49236273765564
0.90379881858826 0.59353041648865 0.54830896854401
0.9035382270813 0.64298468828201 0.60155862569809
0.9019747376442 0.68974781036377 0.6518611907959
0.89936888217926 0.73657178878784 0.69861257076263
0.026661291718483 0.26626497507095 0.010068188421428
0.031510125845671 0.26601180434227 0.010027018375695
0.038437660783529 0.26588523387909 0.010150528512895
0.047379296272993 0.26588523387909 0.010459303855896
