AgX Luts/AgX - Base Contrast.cube
LUT_3D_SIZE 5
DOMAIN_MIN 0.000000 0.000000 0.000000
DOMAIN_MAX 0.903226 0.903226 0.903226
0 0 0
0.0089421365410089 6.6137181420345e-05 3.7792673538206e-05
0.26588523387909 0.0039689494296908 7.5585347076412e-05
0.96464520692825 0.20296733081341 0.15209348499775
0.98857766389847 0.68542909622192 0.64601570367813
5.6689012126299e-05 0.018026050180197 0.0040758610703051
0.025433590635657 0.022719725966454 0.00014172252849676
0.28208830952644 0.044291220605373 0.00075585348531604
0.96192556619644 0.22332146763802 0.15702770650387
0.98912161588669 0.68747478723526 0.64688169956207
0.015137630514801 0.27706107497215 0.0013321917504072
0.064138680696487 0.27896326780319 0.00081254250835627
0.31348073482513 0.28249591588974 0.0034343912266195
0.91760963201523 0.32990536093712 0.19580194354057
0.99102532863617 0.69747602939606 0.65207767486572
0.36773157119751 0.77124685049057 0.29975149035454
0.37656718492508 0.77029383182526 0.30151781439781
0.43721261620522 0.765052318573 0.31275400519371
0.77791786193848 0.73748099803925 0.38901722431183
0.99048137664795 0.77553534507751 0.68406528234482
0.81006002426147 0.99401688575745 0.76576709747314
0.81080806255341 0.99401688575745 0.76600533723831
0.81554555892944 0.99347293376923 0.76672011613846
0.853695333004 0.99129730463028 0.77243810892105
0.99211317300797 0.98640197515488 0.82277655601501
3.7792673538206e-05 0.0010392984841019 0.009064775891602
0.015347697772086 0.00019841153698508 0.018393667414784
0.27499869465828 0.00022675604850519 0.033638697117567
0.956214427948 0.21474593877792 0.18765945732594
0.98830568790436 0.68724751472473 0.65099519491196
0.00073695712490007 0.024367429316044 0.024948973208666
0.024722816422582 0.024722816422582 0.024722816422582
0.31755056977272 0.028825923800468 0.021330485120416
0.9537667632103 0.23577362298965 0.19515053927898
0.98857766389847 0.68906593322754 0.6518611907959
0.008742849342525 0.28507745265961 0.034606229513884
0.042065989226103 0.28752312064171 0.026079749688506
0.31289935112 0.28507745265961 0.029084388166666
0.90979218482971 0.33993452787399 0.22296905517578
0.99048137664795 0.69906717538834 0.65684068202972
0.37734225392342 0.76957911252975 0.32176572084427
0.38509279489517 0.76886433362961 0.32336458563805
0.44280788302422 0.7643375992775 0.33426585793495
0.77696484327316 0.73770833015442 0.40368846058846
0.99020946025848 0.77625012397766 0.68724751472473
0.8110573887825 0.99374490976334 0.76719659566879
0.81180542707443 0.99374490976334 0.76767307519913
0.81604427099228 0.99347293376923 0.76791131496429
0.85394465923309 0.99129730463028 0.7738676071167
0.99265706539154 0.9869459271431 0.82377398014069
0.00010392985132057 0.027888994663954 0.25018984079361
0.025498207658529 0.021330485120416 0.29214271903038
0.30111017823219 0.016082931309938 0.31377145648003
0.92203956842422 0.26942935585976 0.34414967894554
0.98803377151489 0.69815796613693 0.67502677440643
0.001842392841354 0.063876576721668 0.27094826102257
0.016135448589921 0.052920520305634 0.32016685605049
0.30219715833664 0.061517618596554 0.31377145648003
0.90874987840652 0.29581123590469 0.35114538669586
0.98857766389847 0.69997638463974 0.67567628622055
0.0065813427790999 0.30477869510651 0.30899068713188
0.057533595710993 0.3055939078331 0.30899068713188
0.30450695753098 0.30450695753098 0.30450695753098
0.8649719953537 0.39445713162422 0.37362197041512
0.99184119701385 0.71043217182159 0.67870730161667
0.41638153791428 0.76314634084702 0.42890977859497
0.42478865385056 0.76266986131668 0.43022856116295
0.47515550255775 0.75909608602524 0.43633836507797
0.77124685049057 0.74051254987717 0.4784859418869
0.98830568790436 0.78292113542557 0.70520424842834
0.81579494476318 0.99320101737976 0.776726603508
0.81629359722137 0.99292904138565 0.77648836374283
0.82078182697296 0.99265706539154 0.7774413228035
0.85693681240082 0.99075335264206 0.78363585472107
0.99265706539154 0.98721784353256 0.83025693893433
0.1697703897953 0.27082169055939 0.86341977119446
0.200036033988 0.27196088433266 0.8596795797348
0.32961463928223 0.30939829349518 0.84297347068787
0.78196811676025 0.41094166040421 0.79459536075592
0.99156922101974 0.74337154626846 0.78935384750366
0.15858107805252 0.287930727005 0.86575376987457
0.20090456306934 0.29445251822472 0.86017829179764
0.32830649614334 0.32292851805687 0.8437215089798
0.78101509809494 0.42528319358826 0.79197460412979
0.99156922101974 0.74551582336426 0.78983038663864
0.21462845802307 0.38819301128387 0.84796041250229
0.23694834113121 0.39412742853165 0.84422022104263
0.36695650219917 0.4239644408226 0.82427263259888
0.76910257339478 0.49865353107452 0.78077685832977
0.99156922101974 0.75766658782959 0.79340410232544
0.48551684617996 0.76314634084702 0.76719659566879
0.49384289979935 0.76290810108185 0.76672011613846
0.54010391235352 0.76076382398605 0.76409935951233
0.75719010829926 0.75719010829926 0.75719010829926
0.99483275413513 0.82227790355682 0.81006002426147
0.84422022104263 0.98939353227615 0.84596562385559
0.84496825933456 0.98939353227615 0.84596562385559
0.84870839118958 0.98966550827026 0.84646433591843
0.87721937894821 0.98857766389847 0.84995514154434
0.99184119701385 0.98884963989258 0.87721937894821
0.63692265748978 0.71429634094238 0.99238508939743
0.64060318470001 0.71520549058914 0.99292904138565
0.6613872051239 0.71997880935669 0.99374490976334
0.76910257339478 0.7498043179512 0.99401688575745
0.97987496852875 0.8354931473732 0.9964644908905
0.63800513744354 0.71611469984055 0.99292904138565
0.6419021487236 0.71770584583282 0.99320101737976
0.66290271282196 0.72202455997467 0.99401688575745
0.76981735229492 0.751948595047 0.99347293376923
0.98014688491821 0.83649051189423 0.99619257450104
0.64363420009613 0.72838896512985 0.99510473012924
0.64731466770172 0.72975277900696 0.99564862251282
0.66874825954437 0.73679912090302 0.99592059850693
0.77219986915588 0.76362282037735 0.99156922101974
0.98205065727234 0.8434721827507 0.99510473012924
0.70270395278931 0.81180542707443 0.98912161588669
0.70474970340729 0.81230407953262 0.98884963989258
0.71747851371765 0.81679230928421 0.98721784353256
0.80631983280182 0.83948266506195 0.99048137664795
0.99156922101974 0.88842445611954 0.99020946025848
0.88529741764069 0.99156922101974 0.99211317300797
0.8858186006546 0.99184119701385 0.99211317300797
0.88920617103577 0.99184119701385 0.99238508939743
0.91474324464798 0.99347293376923 0.99401688575745
0.99864017963409 0.99864017963409 0.99864017963409
