Luts/AgX - Medium High Contrast.cube
LUT_3D_SIZE 8
DOMAIN_MIN 0.000000 0.000000 0.000000
DOMAIN_MAX 0.903226 0.903226 0.903226
0 0 0
0 0 0
0.0095535619184375 0 2.8344506063149e-05
0.095992974936962 0 0.00019841153698508
0.50790470838547 0.0041720815934241 0
0.99320101737976 0.16627512872219 0.12698586285114
1 0.46921053528786 0.41835969686508
1 0.76814961433411 0.73066198825836
0 0.00013227436284069 2.8344506063149e-05
0.00088812783360481 0.00079364614794031 0
0.017448365688324 0.0029639801941812 0
0.11428965628147 0.011962013319135 0
0.5156757235527 0.023010496050119 0
0.98857766389847 0.18195390701294 0.12939588725567
1 0.4732321202755 0.41984331607819
1 0.76910257339478 0.73088926076889
0 0.019732844084501 0.0029639801941812
0.0072251954115927 0.022235106676817 0
0.029652461409569 0.026564368978143 0
0.13488078117371 0.037857141345739 0
0.52701485157013 0.05459800362587 0
0.98640197515488 0.2020987868309 0.13263696432114
1 0.47978109121323 0.4224808216095
1 0.77053207159042 0.73157119750977
0.0017951519694179 0.13621045649052 0.00091647234512493
0.01965406909585 0.13920967280865 0
0.052815675735474 0.14414389431477 0
0.17456389963627 0.15547434985638 0
0.53834569454193 0.16567593812943 0
0.98259454965591 0.26411318778992 0.14606276154518
1 0.50290906429291 0.43196707963943
1 0.77553534507751 0.7336168885231
0.037586230784655 0.48995742201805 0
0.063981421291828 0.4886622428894 0
0.098001100122929 0.48792216181755 0
0.20611575245857 0.48533180356026 0
0.52310770750046 0.47095906734467 0.015977898612618
0.92282128334045 0.4300636947155 0.18885368108749
1 0.57136136293411 0.46571350097656
1 0.79221284389496 0.74075078964233
0.31089287996292 0.80956131219864 0.24059000611305
0.31929475069046 0.80881327390671 0.24235211312771
0.33194026350975 0.80756658315659 0.24487365782261
0.37362197041512 0.80432510375977 0.25272136926651
0.49550813436508 0.79364234209061 0.27828392386436
0.81305211782455 0.765052318573 0.35672578215599
1 0.71997880935669 0.53717350959778
1 0.83998137712479 0.76266986131668
0.6442836523056 0.99428886175156 0.59476554393768
0.64601570367813 0.99428886175156 0.59517723321915
0.64861369132996 0.99428886175156 0.59579479694366
0.65835618972778 0.99374490976334 0.59805917739868
0.6908842921257 0.99265706539154 0.60629326105118
0.77791786193848 0.99184119701385 0.62653064727783
1 0.9717161655426 0.68702018260956
1 0.94859951734543 0.81778967380524
0.89572072029114 1 0.85718613862991
0.89624190330505 1 0.85718613862991
0.89676308631897 1 0.85718613862991
0.89858716726303 1 0.85743546485901
0.90588343143463 1 0.85843288898468
0.92881470918655 1 0.8619236946106
0.9823225736618 1 0.87539529800415
1 1 0.91448265314102
0 0 1.8896336769103e-05
0 9.4481683845515e-06 0.00015117069415282
0.011797333136201 0 0.0019274263177067
0.094244204461575 0 0.0090494453907013
0.51586073637009 0 0.0090801054611802
0.99918413162231 0.15657083690166 0.12873105704784
1 0.47235786914825 0.42511835694313
1 0.76910257339478 0.73293501138687
0 0.0014172252267599 0.0014928105520085
0.0017195666441694 0.0017290147952735 0.0017195666441694
0.023204343393445 0.0013794326223433 0.0011243320768699
0.13255386054516 0.0003495822311379 0
0.55749082565308 0.0075317923910916 0
0.99483275413513 0.17246674001217 0.13097487390041
1 0.47682070732117 0.42660194635391
1 0.77005559206009 0.73338961601257
0 0.021653562784195 0.0082216346636415
4.7240842832252e-05 0.02330126799643 0.00061413092771545
0.027824377641082 0.024819741025567 7.5585347076412e-05
0.14661100506783 0.029807265847921 0
0.55963981151581 0.043973330408335 0
0.98993748426437 0.19243638217449 0.13421595096588
1 0.48385161161423 0.42956918478012
1 0.77148509025574 0.73384422063828
5.6689012126299e-05 0.14048892259598 0.012744245119393
0.0026860102079809 0.14469213783741 0.00065192359033972
0.039172984659672 0.14807300269604 0
0.17476363480091 0.15583984553814 0
0.55651408433914 0.15976895391941 9.4481683845515e-06
0.98640197515488 0.26031589508057 0.14898675680161
1 0.50623953342438 0.43966054916382
1 0.77648836374283 0.73611718416214
0.023333575576544 0.49661827087402 0.00068971631117165
0.046107735484838 0.49495306611061 0.0013416399015114
0.086509257555008 0.49310281872749 0.0021825269795954
0.19916750490665 0.48810717463493 0.0094300517812371
0.52141147851944 0.47165846824646 0.040431123226881
0.92177897691727 0.43056824803352 0.19721330702305
1 0.57376861572266 0.47218301892281
1 0.79316586256027 0.7431333065033
0.31958547234535 0.80806523561478 0.25892356038094
0.32787042856216 0.80756658315659 0.26094877719879
0.33978918194771 0.80681854486465 0.26297399401665
0.38090750575066 0.80257964134216 0.27031537890434
0.49902358651161 0.79316586256027 0.29431664943695
0.81205475330353 0.76552885770798 0.36649146676064
1 0.72156995534897 0.5422528386116
1 0.84072941541672 0.7643375992775
0.6466651558876 0.99456077814102 0.59908843040466
0.64796417951584 0.99456077814102 0.59929424524307
0.65077871084213 0.99428886175156 0.60032349824905
0.66073769330978 0.99347293376923 0.60299962759018
0.69293004274368 0.99265706539154 0.61020439863205
0.77863258123398 0.99129730463028 0.63021111488342
1 0.97144418954849 0.68929320573807
1 0.94859951734543 0.81903642416
0.89624190330505 1 0.85793417692184
0.89650249481201 1 0.85793417692184
0.89728420972824 1 0.85793417692184
0.89936888217926 1 0.85843288898468
0.90614402294159 1 0.85893154144287
0.92907530069351 1 0.86267173290253
0.9823225736618 1 0.87617707252502
1 1 0.91500383615494
0 0.00071806082269177 0.0082216346636415
0.00067081995075569 0.00040627125417814 0.012950096279383
0.016634358093143 0 0.019391486421227
0.10663328319788 0 0.030387787148356
0.52740556001663 0 0.041339382529259
0.99700844287872 0.15191073715687 0.14341290295124
1 0.47904101014137 0.44158393144608
1 0.77077037096024 0.73657178878784
0 0.005952819250524 0.016398031264544
0.00059523462550715 0.0035092295147479 0.025401283055544
0.023850502446294 0.0030388184823096 0.026693601161242
0.14304740726948 0 0.027953609824181
0.5834436416626 0.00078419799683616 0.027275143191218
0.99184119701385 0.16857200860977 0.1479816287756
1 0.48440670967102 0.44333243370056
1 0.7717233300209 0.73702639341354
5.6689012126299e-05 0.026725908741355 0.027501298114657
0.00070861261337996 0.026758216321468 0.027372067794204
0.027501298114657 0.027468990534544 0.027501298114657
0.15702770650387 0.027630530297756 0.025788977742195
0.58879578113556 0.036038178950548 0.025045895949006
0.98721784353256 0.19384774565697 0.15382960438728
1 0.49143761396408 0.44613006711006
1 0.77315282821655 0.73770833015442
0 0.14697651565075 0.043882504105568
0 0.15017461776733 0.034877140074968
0.024108966812491 0.15510883927345 0.023592039942741
0.17516309022903 0.15839833021164 0.020126719027758
0.56608664989471 0.16188107430935 0.032013241201639
0.9823225736618 0.26626497507095 0.17296606302261
1 0.5136404633522 0.45539721846581
1 0.77815610170364 0.73979783058167
0.027630530297756 0.4973583817482 0.048423793166876
0.052134200930595 0.49624821543694 0.048968747258186
0.094513244926929 0.49421295523643 0.050240308046341
0.20557291805744 0.48884725570679 0.057586017996073
0.51845109462738 0.47375670075417 0.088325284421444
0.91396152973175 0.44053480029106 0.22978249192238
1 0.57767981290817 0.4805212020874
1 0.79459536075592 0.74646884202957
0.33150419592857 0.80631983280182 0.28616440296173
0.33833566308022 0.80557179450989 0.28738725185394
0.34944027662277 0.80457442998886 0.28956118226051
0.38918209075928 0.80133295059204 0.29635471105576
0.50568443536758 0.79173636436462 0.31755056977272
0.81080806255341 0.76624357700348 0.38059747219086
1 0.72452485561371 0.55260688066483
1 0.84197610616684 0.76695835590363
0.65121167898178 0.99428886175156 0.60752832889557
0.65251070261002 0.99428886175156 0.60794007778168
0.65467572212219 0.99401688575745 0.60835176706314
0.6637687087059 0.99347293376923 0.60999858379364
0.69520306587219 0.99211317300797 0.61679166555405
0.78030037879944 0.99075335264206 0.63627314567566
1 0.9717161655426 0.69270271062851
1 0.94914346933365 0.82103115320206
0.89728420972824 1 0.85893154144287
0.8975448012352 1 0.85918086767197
0.89780539274216 1 0.85893154144287
0.89989006519318 1 0.85943025350571
0.90692579746246 1 0.86042761802673
0.92959642410278 1 0.86366909742355
0.98286652565002 1 0.87774056196213
1 1 0.91578561067581
1.8896336769103e-05 0.008068336173892 0.084625959396362
0.00382996420376 0.0055695734918118 0.11166246980429
0.026402829214931 0.0049953009001911 0.12848174571991
0.13857005536556 9.4481683845515e-06 0.15583984553814
0.56296092271805 0 0.16367863118649
0.98477023839951 0.1954762339592 0.25246819853783
1 0.50364917516708 0.4886622428894
1 0.77625012397766 0.74789834022522
0 0.02028426900506 0.11263828724623
0 0.014164614491165 0.14414389431477
0.023398192599416 0.0096153169870377 0.1626799851656
0.15154524147511 0.0051342858932912 0.16927106678486
0.58426707983017 0.01282658521086 0.16407810151577
0.98558610677719 0.20980700850487 0.25778439640999
1 0.50771969556808 0.48977237939835
1 0.77720308303833 0.74813657999039
7.5585347076412e-05 0.04606232047081 0.13380041718483
0.00015117069415282 0.041611857712269 0.1557484716177
0.023075113072991 0.038437660783529 0.16907134652138
0.16004307568073 0.03847636282444 0.17106863856316
0.57438617944717 0.05863444507122 0.16857200860977
0.97742730379105 0.23882791399956 0.26550552248955
1 0.51382547616959 0.49180763959885
1 0.77863258123398 0.74885129928589
0.00017006702546496 0.16637499630451 0.17116850614548
0.0014455697964877 0.16777309775352 0.17206728458405
0.020415561273694 0.1697703897953 0.1733655333519
0.17416444420815 0.17436417937279 0.17416444420815
0.5422528386116 0.19612763822079 0.18594850599766
0.94914346933365 0.30668088793755 0.28045785427094
1 0.53404778242111 0.49754339456558
1 0.7833976149559 0.75051909685135
0.061517618596554 0.4973583817482 0.19319634139538
0.091015703976154 0.49550813436508 0.19515053927898
0.1264041364193 0.49347287416458 0.19992746412754
0.23072227835655 0.48903229832649 0.20524722337723
0.51086509227753 0.48126128315926 0.22637577354908
0.88998794555664 0.46798658370972 0.32292851805687
1 0.59497135877609 0.51789599657059
1 0.79983687400818 0.75647532939911
0.36385628581047 0.80108362436295 0.36354628205299
0.37067678570747 0.79983687400818 0.36432132124901
0.38230258226395 0.79936039447784 0.36587142944336
0.42099723219872 0.79626309871674 0.37005671858788
0.5272102355957 0.78887736797333 0.38617786765099
0.80631983280182 0.76767307519913 0.43651321530342
1 0.73384422063828 0.57891488075256
1 0.84596562385559 0.77601182460785
0.66095423698425 0.99265706539154 0.62956166267395
0.66246974468231 0.99238508939743 0.6299946308136
0.66463470458984 0.99238508939743 0.63021111488342
0.6737277507782 0.99184119701385 0.63172662258148
0.70293128490448 0.99156922101974 0.63757216930389
0.78649485111237 0.99020946025848 0.65554171800613
1 0.97253203392029 0.70270395278931
1 0.95104718208313 0.8272647857666
0.89962947368622 1 0.86317038536072
0.90015065670013 1 0.86317038536072
0.90067178010941 1 0.86317038536072
0.90249586105347 1 0.86341977119446
0.90874987840652 1 0.86419028043747
0.93119406700134 1 0.86783844232559
0.9834104180336 1 0.88217043876648
1 1 0.91891258955002
0.00031178956851363 0.048242140561342 0.46361526846886
0.0034985383972526 0.048105902969837 0.48903229832649
0.035264153033495 0.048287555575371 0.52447521686554
0.14231640100479 0.048923335969448 0.53561067581177
0.50993996858597 0.064355656504631 0.53307098150253
0.96138167381287 0.2441142052412 0.46204161643982
1 0.54889506101608 0.59106016159058
1 0.7929276227951 0.78101509809494
0.00015117069415282 0.060678876936436 0.4732321202755
0.00031178956851363 0.057061806321144 0.51308542490005
0.015899123623967 0.055227059870958 0.54088532924652
0.14204227924347 0.059578027576208 0.54889506101608
0.51031005382538 0.083751574158669 0.5328756570816
0.95186305046082 0.26297399401665 0.46553865075111
1 0.5528022646904 0.59250116348267
1 0.79388064146042 0.78125333786011
0.00034013405092992 0.089468710124493 0.48089125752449
0.0012377100065351 0.085971169173717 0.514195561409
0.018971351906657 0.080590337514877 0.55924910306931
0.1479816287756 0.090477615594864 0.55182546377182
0.50790470838547 0.12449274212122 0.52877312898636
0.93880897760391 0.28969705104828 0.47148361802101
1 0.56081193685532 0.59558892250061
1 0.79531013965607 0.78172987699509
0 0.20057886838913 0.51401048898697
0.00067081995075569 0.2010131329298 0.52779632806778
0.031858436763287 0.20155596733093 0.54479253292084
0.18145458400249 0.22097201645374 0.53209418058395
0.49902358651161 0.25094929337502 0.51456558704376
0.9035382270813 0.36726653575897 0.48773711919785
1 0.58632558584213 0.60505813360214
1 0.79983687400818 0.78315937519073
0.092159129679203 0.5054994225502 0.51290035247803
0.12141788005829 0.5054994225502 0.5116052031517
0.15940344333649 0.50438928604126 0.50993996858597
0.26069563627243 0.50198394060135 0.50586944818497
0.50087380409241 0.50105881690979 0.50087380409241
0.83973199129105 0.53150814771652 0.52141147851944
1 0.63908767700195 0.61967360973358
1 0.81554555892944 0.78720963001251
0.42627227306366 0.79340410232544 0.53092205524445
0.43354073166847 0.79268938302994 0.53189885616302
0.44578036665916 0.79149812459946 0.53385245800018
0.47922602295876 0.78887736797333 0.53932249546051
0.56940776109695 0.78387409448624 0.54616004228592
0.79745435714722 0.7738676071167 0.56940776109695
1 0.76076382398605 0.65489220619202
1 0.85768485069275 0.8028290271759
0.68952053785324 0.99156922101974 0.68929320573807
0.69111162424088 0.99129730463028 0.68952053785324
0.69383925199509 0.99129730463028 0.68974781036377
0.70270395278931 0.99075335264206 0.69111162424088
0.72975277900696 0.99156922101974 0.69543033838272
0.80357706546783 0.98939353227615 0.70747727155685
0.9964644908905 0.97334790229797 0.74337154626846
1 0.95811814069748 0.84496825933456
0.90718638896942 1 0.8782616853714
0.90744692087173 1 0.8782616853714
0.90822869539261 1 0.87852227687836
0.91005277633667 1 0.87878286838531
0.91630673408508 1 0.87982523441315
0.93663328886032 1 0.88321280479431
0.98776179552078 1 0.89676308631897
1 1 0.92829352617264
0.13654287159443 0.24199968576431 0.89337551593781
0.14962637424469 0.24588626623154 0.89129084348679
0.17376498878002 0.25158217549324 0.88946676254272
0.26310056447983 0.27006223797798 0.88008576631546
0.43563896417618 0.29513189196587 0.8709654211998
0.80881327390671 0.38369768857956 0.83349841833115
1 0.59558892250061 0.7555223107338
1 0.82551938295364 0.85319662094116
0.11884164810181 0.2424695789814 0.90275645256042
0.14423526823521 0.2486709356308 0.89884769916534
0.16707403957844 0.25411370396614 0.89676308631897
0.24917723238468 0.2723405957222 0.88738209009171
0.43773716688156 0.30396348237991 0.8709654211998
0.80831456184387 0.39379775524139 0.83200234174728
1 0.59970599412918 0.75647532939911
1 0.82626742124557 0.85344594717026
0.089132413268089 0.25120243430138 0.91161626577377
0.1288972645998 0.25563260912895 0.90874987840652
0.16248026490211 0.26386001706123 0.90379881858826
0.23929780721664 0.28086546063423 0.89337551593781
0.44123423099518 0.32074826955795 0.87044423818588
0.80931198596954 0.40698537230492 0.83025693893433
1 0.60608738660812 0.75814306735992
1 0.82776349782944 0.85394465923309
0.11526547372341 0.30817547440529 0.90979218482971
0.13579492270947 0.31507959961891 0.90614402294159
0.16577580571175 0.32292851805687 0.90093237161636
0.26829016208649 0.3470566868782 0.88555800914764
0.46064278483391 0.38679790496826 0.85943025350571
0.80033558607101 0.46064278483391 0.8212805390358
1 0.62934511899948 0.76314634084702
1 0.83374774456024 0.85618877410889
0.24689887464046 0.4993936419487 0.8599289059639
0.26056906580925 0.50216901302338 0.85793417692184
0.28317525982857 0.50716465711594 0.85469269752502
0.35223045945168 0.51808106899261 0.8457162976265
0.51678586006165 0.55182546377182 0.82402330636978
0.79030686616898 0.58694314956665 0.80257964134216
1 0.6904296875 0.7774413228035
1 0.84970581531525 0.86067694425583
0.470434486866 0.79411888122559 0.79983687400818
0.47700574994087 0.79411888122559 0.79936039447784
0.48755210638046 0.79364234209061 0.79888385534286
0.52085638046265 0.79173636436462 0.79697787761688
0.60567569732666 0.78959208726883 0.79268938302994
0.78863912820816 0.78863912820816 0.78863912820816
0.9989121556282 0.8110573887825 0.80382639169693
1 0.88816386461258 0.8725289106369
0.740274310112 0.99156922101974 0.81180542707443
0.74146556854248 0.99156922101974 0.81180542707443
0.74408632516861 0.99156922101974 0.81230407953262
0.75218683481216 0.99048137664795 0.81380015611649
0.77553534507751 0.98912161588669 0.81803905963898
0.83848530054092 0.9858580827713 0.82302594184875
0.98939353227615 0.97688341140747 0.83798658847809
1 0.97334790229797 0.8975448012352
0.92542713880539 1 0.91891258955002
0.92594832181931 1 0.91891258955002
0.92646944522858 1 0.91891258955002
0.92829352617264 1 0.91917318105698
0.93391370773315 1 0.91995489597321
0.95349478721619 1 0.92256075143814
0.99483275413513 1 0.93119406700134
1 1 0.95648640394211
0.45242473483086 0.54928576946259 1
0.46239131689072 0.55143475532532 1
0.47445610165596 0.55436509847641 1
0.51863610744476 0.56550055742264 1
0.59291285276413 0.59064847230911 1
0.73429876565933 0.62481993436813 1
0.99456077814102 0.70611345767975 0.99809628725052
1 0.85718613862991 0.97090023756027
0.45382356643677 0.55045795440674 1
0.46501410007477 0.55260688066483 1
0.47358182072639 0.55534189939499 1
0.49439799785614 0.56510984897614 1
0.5785031914711 0.59167772531509 1
0.73498070240021 0.6271800994873 1
0.99401688575745 0.70838648080826 0.99809628725052
1 0.85793417692184 0.97117221355438
0.45452296733856 0.55221617221832 1
0.4616918861866 0.55397439002991 1
0.46571350097656 0.55670940876007 1
0.49365788698196 0.5674541592598 1
0.57767981290817 0.59394210577011 1
0.73588991165161 0.63107711076736 1
0.99320101737976 0.71156871318817 0.99809628725052
1 0.85918086767197 0.97144418954849
0.45032653212547 0.56921237707138 1
0.45732060074806 0.57077527046204 1
0.47165846824646 0.57253348827362 1
0.50290906429291 0.5867372751236 1
0.58076757192612 0.60691076517105 1
0.73979783058167 0.64861369132996 1
0.99156922101974 0.72020614147186 0.99836826324463
1 0.86341977119446 0.97198808193207
0.47719076275826 0.62696361541748 1
0.48366659879684 0.62977814674377 1
0.49421295523643 0.63410812616348 1
0.52271699905396 0.64320117235184 1
0.60670495033264 0.6661502122879 1
0.75719010829926 0.70270395278931 0.99972802400589
0.98368239402771 0.76004910469055 0.99945610761642
1 0.88008576631546 0.97361987829208
0.60505813360214 0.78244459629059 0.99972802400589
0.6087634563446 0.78315937519073 0.99972802400589
0.61390978097916 0.78435063362122 0.99972802400589
0.63021111488342 0.78768610954285 0.99972802400589
0.68065577745438 0.79721611738205 0.99972802400589
0.80158227682114 0.82576870918274 0.99728041887283
0.98069083690643 0.85045385360718 0.99374490976334
1 0.92099720239639 0.98069083690643
0.77219986915588 0.98748981952667 0.98939353227615
0.77339106798172 0.98721784353256 0.98939353227615
0.77553534507751 0.98721784353256 0.98912161588669
0.78292113542557 0.9869459271431 0.98884963989258
0.80582112073898 0.98504221439362 0.98721784353256
0.86392968893051 0.98477023839951 0.98613005876541
0.98748981952667 0.98748981952667 0.98748981952667
1 0.99782431125641 0.99592059850693
0.95730227231979 1 0.99292904138565
0.95757418870926 1 0.99292904138565
0.95811814069748 1 0.99320101737976
0.95947796106339 1 0.99320101737976
0.96491712331772 1 0.99374490976334
0.97960299253464 1 0.99456077814102
1 1 0.99537670612335
1 1 1
0.71997880935669 0.79697787761688 1
0.72156995534897 0.79769259691238 1
0.72407025098801 0.7986456155777 1
0.7327076792717 0.80158227682114 1
0.76362282037735 0.81055867671967 1
0.82925951480865 0.83200234174728 1
0.94778364896774 0.86392968893051 1
1 0.92594832181931 1
0.72043341398239 0.79816913604736 1
0.7222518324852 0.7986456155777 1
0.72475212812424 0.79983687400818 1
0.73338961601257 0.80257964134216 1
0.76409935951233 0.81205475330353 1
0.8295089006424 0.83275038003922 1
0.94805562496185 0.86471140384674 1
1 0.92646944522858 1
0.72111535072327 0.79983687400818 1
0.72293376922607 0.80058491230011 1
0.72588866949081 0.80158227682114 1
0.73452609777451 0.80457442998886 1
0.76481407880783 0.81404954195023 1
0.83000755310059 0.83424645662308 1
0.94859951734543 0.86601436138153 1
1 0.92751181125641 1
0.72384297847748 0.80532246828079 1
0.72566133737564 0.80607050657272 1
0.72861629724503 0.80706787109375 1
0.73861753940582 0.81080806255341 1
0.76695835590363 0.82103115320206 1
0.83175301551819 0.83898395299911 1
0.95023131370544 0.86966246366501 1
1 0.93065017461777 1
0.7336168885231 0.82377398014069 1
0.73566257953644 0.82452201843262 1
0.73884481191635 0.8252699971199 1
0.75004255771637 0.82851147651672 1
0.77601182460785 0.83773726224899 1
0.83823597431183 0.85469269752502 1
0.95675832033157 0.88451570272446 1
1 0.94125658273697 1
0.77410584688187 0.87617707252502 1
0.77553534507751 0.8766981959343 1
0.77815610170364 0.87747997045517 1
0.78673309087753 0.88008576631546 1
0.80706787109375 0.88764268159866 1
0.86341977119446 0.90640461444855 1
0.967908680439 0.92881470918655 1
1 0.967908680439 1
0.86242234706879 0.98640197515488 1
0.86292105913162 0.98640197515488 1
0.86419028043747 0.9869459271431 1
0.86809897422791 0.98776179552078 1
0.87904345989227 0.99075335264206 1
0.91578561067581 0.99347293376923 1
0.98803377151489 0.9975523352623 1
1 1 1
0.97606748342514 1 1
0.97633945941925 1 1
0.97661143541336 1 1
0.97769927978516 1 1
0.98177868127823 1 1
0.99374490976334 1 1
1 1 1
1 1 1
