Luts/AgX - Medium High Contrast.cube
LUT_3D_SIZE 32
0 0 0
0 0 0
0 0 0
0 0 0
0 0 0
0 0 0
0.00082199065946043 0 9.4481683845515e-06
0.0039903316646814 0 1.8896336769103e-05
0.0095535619184375 0 2.8344506063149e-05
0.01923393458128 0 2.8344506063149e-05
0.034567527472973 0 6.6137181420345e-05
0.058319915086031 0 0.00012282618263271
0.095992974936962 0 0.00019841153698508
0.15730182826519 5.6689012126299e-05 0
0.24689887464046 0.00061413092771545 0
0.3660264313221 0.0018612891435623 0
0.50790470838547 0.0041720815934241 0
0.68383800983429 0.010603399947286 0
0.83250099420547 0.043246723711491 0.01902386918664
0.9385370016098 0.094378724694252 0.062303937971592
0.99320101737976 0.16627512872219 0.12698586285114
1 0.24317441880703 0.20079599320889
1 0.31725984811783 0.27006223797798
1 0.38617786765099 0.33455654978752
1 0.46921053528786 0.41835969686508
1 0.55045795440674 0.50420427322388
1 0.63042765855789 0.58550214767456
1 0.7022493481636 0.66095423698425
1 0.76814961433411 0.73066198825836
1 0.82876086235046 0.79364234209061
1 0.88321280479431 0.85095250606537
1 0.93309777975082 0.90223526954651
0 0 0
0 0 0
0 0 0
0 0 0
0 0 0
7.5585347076412e-05 0 0
0.001653429470025 0 9.4481683845515e-06
0.0051235947757959 0 1.8896336769103e-05
0.011262121610343 0 2.8344506063149e-05
0.020835695788264 0 2.8344506063149e-05
0.036502595990896 0 7.5585347076412e-05
0.060731299221516 0 0.00012282618263271
0.10175421833992 0.00010392985132057 0
0.16218066215515 0.0032526415307075 0
0.25145560503006 0.0037765083834529 0
0.36990171670914 0.0049204626120627 0
0.510125041008 0.0087888389825821 0
0.68451988697052 0.015058855526149 0
0.83200234174728 0.047424707561731 0.019338969141245
0.9371771812439 0.09822628647089 0.06288056820631
0.99320101737976 0.1694708019495 0.12756760418415
1 0.24613942205906 0.20133882761002
1 0.31973081827164 0.27120143175125
1 0.38803800940514 0.33528330922127
1 0.47025963664055 0.41885423660278
1 0.55123937129974 0.50420427322388
1 0.63064414262772 0.58570802211761
1 0.70270395278931 0.66117072105408
1 0.76838785409927 0.73066198825836
1 0.82876086235046 0.79364234209061
1 0.88347333669662 0.85095250606537
1 0.93309777975082 0.90223526954651
0 0 0
0 0 0
0 0 0
0 0 0
0 0 0
0.00057633826509118 0 9.4481683845515e-06
0.0026325543876737 0 1.8896336769103e-05
0.0064587038941681 0 2.8344506063149e-05
0.012806000187993 0 1.8896336769103e-05
0.022752033546567 0 3.7792673538206e-05
0.038824673742056 9.4481683845515e-06 1.8896336769103e-05
0.06560954451561 0.00085033517098054 0
0.10640809684992 0.0039903316646814 0
0.16697417199612 0.0072251954115927 0
0.25601232051849 0.0088194981217384 0
0.3725368976593 0.010665155015886 0
0.5116052031517 0.013382381759584 0
0.68611097335815 0.020047944039106 0
0.83100497722626 0.053130205720663 0.01965406909585
0.93527346849442 0.10370584577322 0.063404783606529
0.99156922101974 0.17396472394466 0.12823243439198
1 0.2494303882122 0.2019902318716
1 0.32220175862312 0.27221402525902
1 0.39000630378723 0.33601006865501
1 0.47130876779556 0.41918390989304
1 0.55221617221832 0.50438928604126
1 0.63151013851166 0.58611971139908
1 0.70293128490448 0.6613872051239
1 0.76862609386444 0.73066198825836
1 0.82901018857956 0.79364234209061
1 0.88347333669662 0.85095250606537
1 0.93336975574493 0.90223526954651
0 0 0
0 0 0
0 0 0
0 0 0
0.0001133780242526 0 0
0.0013227435993031 0 9.4481683845515e-06
0.0038085819687694 0 1.8896336769103e-05
0.0081296553835273 9.4481683845515e-06 0
0.014901305548847 0.00050075293984264 0
0.025853594765067 0.0012377100065351 0
0.042928833514452 0.0024508046917617 0
0.06990858912468 0.0045355809852481 0
0.11061159521341 0.0077770696952939 0
0.17136822640896 0.010747495107353 0
0.25993618369102 0.012620734982193 0
0.3759471476078 0.014875046908855 0
0.51345545053482 0.018551217392087 0
0.68838399648666 0.025465900078416 0
0.83050626516342 0.05879170820117 0.019995428621769
0.93364173173904 0.10948565602303 0.063824154436588
0.98939353227615 0.17845863103867 0.12881416082382
1 0.25272136926651 0.20275019109249
1 0.32467272877693 0.27322661876678
1 0.39198446273804 0.33673682808876
1 0.47235786914825 0.41951361298561
1 0.5531929731369 0.50457429885864
1 0.63194316625595 0.58632558584213
1 0.70338588953018 0.66160374879837
1 0.76886433362961 0.73088926076889
1 0.82925951480865 0.79388064146042
1 0.88347333669662 0.85095250606537
1 0.93336975574493 0.90223526954651
0 0.00013227436284069 2.8344506063149e-05
0 0.0002551005454734 5.6689012126299e-05
0 0.00037792674265802 8.503351273248e-05
0 0.00053854560246691 0.0001133780242526
0.00088812783360481 0.00079364614794031 0
0.0027501571457833 0.0011621246812865 0
0.0056308931671083 0.0015778441447765 0
0.010274038650095 0.002116389805451 0
0.017448365688324 0.0029639801941812 0
0.028502844274044 0.0041293166577816 0
0.046425625681877 0.0057228719815612 0
0.073491118848324 0.0081909755244851 0
0.11428965628147 0.011962013319135 0
0.175462692976 0.014507429674268 0
0.26398658752441 0.01658184081316 0
0.37889236211777 0.01923393458128 0
0.5156757235527 0.023010496050119 0
0.68929320573807 0.030078176409006 0
0.83100497722626 0.061570037156343 0.020415561273694
0.93200993537903 0.1136891618371 0.064191102981567
0.98857766389847 0.18195390701294 0.12939588725567
1 0.25563260912895 0.20361872017384
1 0.32699832320213 0.27436581254005
1 0.39396259188652 0.33746355772018
1 0.4732321202755 0.41984331607819
1 0.55416977405548 0.50494432449341
1 0.63259261846542 0.58653146028519
1 0.70361316204071 0.66182023286819
1 0.76910257339478 0.73088926076889
1 0.82925951480865 0.79388064146042
1 0.88373392820358 0.85120189189911
1 0.93336975574493 0.90249586105347
0 0.0020124597940594 0.00040627125417814
0 0.002220319584012 0.00045351209701039
0 0.0024721869267523 0.00050075293984264
7.5585347076412e-05 0.0027180835604668 9.4481683845515e-06
0.0017857038183138 0.0031564212404191 0
0.0040651699528098 0.0036268322728574 0
0.0071945358067751 0.0041827727109194 0
0.012085523456335 0.0048883892595768 0
0.019601551815867 0.005952819250524 0
0.031355317682028 0.0074091535061598 0
0.049377463757992 0.0092859556898475 0
0.076954238116741 0.012106108479202 0
0.11842612177134 0.016135448589921 0
0.17955714464188 0.018682509660721 0
0.26791045069695 0.020966988056898 0
0.38152754306793 0.023947427049279 0
0.51715594530106 0.028018224984407 0
0.6904296875 0.034954540431499 0
0.83050626516342 0.065012454986572 0.020783178508282
0.93065017461777 0.11709645390511 0.06465420126915
0.98884963989258 0.18494984507561 0.12981142103672
1 0.25854384899139 0.20481295883656
1 0.32932394742966 0.27550500631332
1 0.39561104774475 0.33819031715393
1 0.47428125143051 0.42033782601357
1 0.55514657497406 0.50512939691544
1 0.63302564620972 0.5867372751236
1 0.70406776666641 0.66182023286819
1 0.76934087276459 0.73111659288406
1 0.8295089006424 0.79388064146042
1 0.88373392820358 0.85120189189911
1 0.93336975574493 0.90249586105347
0 0.0053856153972447 0.001086539356038
0 0.0056922123767436 0.0011526765301824
0 0.0059988088905811 0.00079364614794031
0.00068026810185984 0.0064127142541111 0
0.0029960537794977 0.0068726092576981 0
0.005492924246937 0.0073938239365816 0
0.0088808173313737 0.0080070169642568 0
0.014123444445431 0.0088348276913166 0
0.022170489653945 0.010150528512895 0
0.034528829157352 0.011941428296268 0
0.052868098020554 0.014164614491165 0
0.080657601356506 0.017500882968307 0
0.12249823659658 0.021072020754218 0
0.1846502572298 0.023656655102968 0
0.27196088433266 0.026984371244907 0
0.38431772589684 0.030232980847359 0
0.52011632919312 0.034103114157915 0
0.6908842921257 0.041430208832026 0
0.82826215028763 0.072296939790249 0.020888213068247
0.92907530069351 0.12158408761024 0.065251290798187
0.98939353227615 0.18820229172707 0.13047625124454
1 0.26208797097206 0.20644144713879
1 0.33194026350975 0.27692520618439
1 0.39758917689323 0.33906242251396
1 0.47571057081223 0.42083236575127
1 0.55631870031357 0.5054994225502
1 0.63367515802383 0.58694314956665
1 0.70474970340729 0.66203671693802
1 0.76957911252975 0.73111659288406
1 0.82975822687149 0.79388064146042
1 0.88399451971054 0.85120189189911
1 0.93364173173904 0.90249586105347
0 0.011035685427487 0.002220319584012
0 0.011385631747544 0.0019746671896428
9.4481685664505e-05 0.011797333136201 0.00021730786829721
0.0017101184930652 0.012353129684925 0
0.0045997276902199 0.012867755256593 0
0.0075317923910916 0.013361796736717 0
0.011426801793277 0.013917593285441 0
0.016896940767765 0.014901305548847 0
0.025304360315204 0.016660615801811 0
0.037934545427561 0.01870876736939 0
0.057376332581043 0.021395100280643 0
0.086307473480701 0.025142820551991 0
0.12839864194393 0.028147457167506 0
0.19026504456997 0.031394019722939 0
0.27746868133545 0.034567527472973 0
0.388357847929 0.038128051906824 0
0.52330303192139 0.042883418500423 0
0.68906593322754 0.051924515515566 0
0.8252699971199 0.08314623683691 0.021045763045549
0.92673003673553 0.12956210970879 0.066027507185936
0.99048137664795 0.19211068749428 0.1313903927803
1 0.26664468646049 0.20850421488285
1 0.33513796329498 0.27882739901543
1 0.40006187558174 0.34037056565285
1 0.47737577557564 0.42149174213409
1 0.55788159370422 0.50605446100235
1 0.63454115390778 0.58714896440506
1 0.70543158054352 0.66246974468231
1 0.77005559206009 0.73134386539459
1 0.83000755310059 0.79411888122559
1 0.8842551112175 0.85120189189911
1 0.93364173173904 0.90249586105347
0 0.019732844084501 0.0029639801941812
2.8344506063149e-05 0.02017923630774 0.00097316136816517
0.00094481685664505 0.020756920799613 9.4481683845515e-06
0.0038406553212553 0.021459715440869 0
0.0072251954115927 0.022235106676817 0
0.010274038650095 0.022978188470006 0
0.01461246330291 0.023850502446294 0
0.020678145810962 0.025013588368893 0
0.029652461409569 0.026564368978143 0
0.043201308697462 0.028728999197483 0
0.06293299049139 0.032400254160166 0
0.091957345604897 0.035148046910763 0
0.13488078117371 0.037857141345739 0
0.1974304318428 0.042247638106346 0
0.2838546037674 0.045835256576538 0
0.39313837885857 0.049286637455225 0
0.52701485157013 0.05459800362587 0
0.68815672397614 0.063562050461769 2.8344506063149e-05
0.82202851772308 0.094647765159607 0.021847411990166
0.92282128334045 0.14048892259598 0.067400813102722
0.98640197515488 0.2020987868309 0.13263696432114
1 0.2723405957222 0.21165263652802
1 0.34007987380028 0.28154480457306
1 0.4033587872982 0.34196943044662
1 0.47978109121323 0.4224808216095
1 0.55983513593674 0.50660955905914
1 0.63562363386154 0.58776652812958
1 0.70634078979492 0.66268622875214
1 0.77053207159042 0.73157119750977
1 0.83050626516342 0.79411888122559
1 0.8842551112175 0.8514512181282
1 0.93391370773315 0.90249586105347
0.00010392985132057 0.034141816198826 0.0014455697964877
0.00063302728813142 0.035070646554232 0.00016061885980889
0.0037765083834529 0.035922076553106 0
0.0066886516287923 0.036657400429249 0
0.011035685427487 0.037392724305391 0
0.014123444445431 0.038128051906824 0
0.019286451861262 0.038979478180408 0
0.026144364848733 0.040249470621347 0
0.036038178950548 0.041929747909307 0
0.049195811152458 0.043746266514063 0
0.068714410066605 0.046471036970615 0
0.098151221871376 0.049604527652264 0
0.14222502708435 0.052972942590714 0
0.20557291805744 0.057323910295963 0
0.29132750630379 0.061989407986403 0
0.39923763275146 0.06560954451561 0
0.52955454587936 0.071461021900177 0
0.68451988697052 0.080590337514877 0.00010392985132057
0.81903642416 0.10865997523069 0.022590493783355
0.91865199804306 0.1530985981226 0.069251790642738
0.98667395114899 0.2133896946907 0.13471457362175
1 0.28249591588974 0.21328113973141
1 0.34778344631195 0.28453397750854
1 0.40797445178032 0.34444040060043
1 0.48311153054237 0.4239644408226
1 0.56237483024597 0.5075346827507
1 0.6371391415596 0.5883840918541
1 0.70747727155685 0.66333574056625
1 0.77124685049057 0.73179847002029
1 0.83100497722626 0.79435712099075
1 0.88477629423141 0.8514512181282
1 0.93418562412262 0.90275645256042
0.0010015058796853 0.057323910295963 0.00028344505699351
0.0037658172659576 0.058005388826132 0
0.0069185988977551 0.05863444507122 0
0.010479888878763 0.059158656746149 0
0.014691238291562 0.059735290706158 0
0.018787542358041 0.060259506106377 0
0.023850502446294 0.060940984636545 0
0.03058129362762 0.061989407986403 0
0.040885251015425 0.063352361321449 0
0.054702844470739 0.065072163939476 0
0.075998894870281 0.06752023100853 0
0.10625797510147 0.071222186088562 0
0.15035736560822 0.075401805341244 0
0.21427604556084 0.079402305185795 0
0.30002322793007 0.084491439163685 0
0.40451270341873 0.088661588728428 0
0.53365707397461 0.092898994684219 0
0.68179225921631 0.10303028672934 0.00029289320809767
0.80881327390671 0.13321869075298 0.023430500179529
0.91396152973175 0.16857200860977 0.071461021900177
0.98857766389847 0.22520104050636 0.13729080557823
1 0.29377317428589 0.21592067182064
1 0.35641577839851 0.2858926653862
1 0.41390886902809 0.3473474085331
1 0.48755210638046 0.42561289668083
1 0.56530523300171 0.50882983207703
1 0.63887113332748 0.58941334486008
1 0.70906841754913 0.66398525238037
1 0.77243810892105 0.732253074646
1 0.83175301551819 0.79459536075592
1 0.88529741764069 0.8517005443573
1 0.93445760011673 0.90275645256042
0.0015306032728404 0.088594324886799 0.00046296024811454
0.0044821249321103 0.089670494198799 3.7792673538206e-05
0.0083136139437556 0.090410359203815 0
0.012270788662136 0.091082960367203 0
0.016739390790462 0.091688305139542 0
0.020783178508282 0.092360906302929 0
0.027307450771332 0.093168035149574 0
0.03553506359458 0.094244204461575 0
0.045154064893723 0.095589406788349 0
0.061989407986403 0.097400598227978 0
0.083078972995281 0.099802598357201 0
0.11556572467089 0.10295522212982 0
0.16168133914471 0.10738390684128 0
0.22531852126122 0.11226297169924 0
0.31089287996292 0.117511972785 0
0.41209557652473 0.12133477628231 0
0.53521996736526 0.12440963089466 0
0.6808830499649 0.13388352096081 0.00096371315885335
0.80457442998886 0.15510883927345 0.025918209925294
0.90718638896942 0.19059075415134 0.075043551623821
0.98504221439362 0.24105989933014 0.14067167043686
1 0.30464282631874 0.21897496283054
1 0.36587142944336 0.287930727005
1 0.42412927746773 0.35006031394005
1 0.49402794241905 0.42792072892189
1 0.56882166862488 0.51068007946014
1 0.64168566465378 0.59106016159058
1 0.71111410856247 0.66506773233414
1 0.77362936735153 0.73293501138687
1 0.83275038003922 0.79507184028625
1 0.8858186006546 0.8519498705864
1 0.93500149250031 0.90301704406738
0.0017951519694179 0.13621045649052 0.00091647234512493
0.0037978908512741 0.13695839047432 0.00033068589982577
0.0081756450235844 0.13774767518044 3.7792673538206e-05
0.014226369559765 0.13857005536556 0
0.01965406909585 0.13920967280865 0
0.023882810026407 0.14003203809261 0
0.029497655108571 0.14112854003906 0
0.040385711938143 0.14240777492523 0
0.052815675735474 0.14414389431477 0
0.067400813102722 0.14597138762474 0
0.094042420387268 0.14816437661648 0
0.12548999488354 0.15136249363422 0
0.17456389963627 0.15547434985638 0
0.23800560832024 0.1587638258934 0
0.32103896141052 0.16208079457283 0
0.42182144522667 0.16487701237202 0
0.53834569454193 0.16567593812943 0
0.67351126670837 0.17246674001217 0.0017857038183138
0.79745435714722 0.18798515200615 0.028825923800468
0.8991082906723 0.21697792410851 0.079342596232891
0.98259454965591 0.26411318778992 0.14606276154518
1 0.32176572084427 0.22296905517578
1 0.38245761394501 0.29458838701248
1 0.43826174736023 0.35796588659286
1 0.50290906429291 0.43196707963943
1 0.57438617944717 0.51308542490005
1 0.64514970779419 0.59291285276413
1 0.71384173631668 0.66636675596237
1 0.77553534507751 0.7336168885231
1 0.83399707078934 0.79554837942123
1 0.88660037517548 0.85219925642014
1 0.93554544448853 0.90327763557434
0.002116389805451 0.20535577833652 0.0012849508784711
0.0054316050373018 0.20633287727833 0.00053854560246691
0.010479888878763 0.20709285140038 0.00015117069415282
0.017947275191545 0.20796138048172 9.4481683845515e-06
0.024561276659369 0.20872133970261 0
0.028793616220355 0.20926417410374 0
0.034838438034058 0.21002414822578 0
0.044745348393917 0.21078410744667 0
0.060311928391457 0.21186977624893 0
0.078626088798046 0.21349826455116 0
0.10212953388691 0.21556824445724 0
0.14003203809261 0.21791771054268 0
0.18544916808605 0.22120696306229 0
0.25221505761147 0.22520104050636 0
0.33019605278969 0.22461368143559 0
0.42759102582932 0.22226421535015 0
0.5414714217186 0.21944485604763 0
0.6689647436142 0.21967980265617 0.0040330961346626
0.78697139024734 0.22978249192238 0.034490127116442
0.88633978366852 0.25512629747391 0.086307473480701
0.97253203392029 0.29214271903038 0.15245898067951
1 0.34414967894554 0.22907765209675
1 0.40072125196457 0.30409935116768
1 0.45399841666222 0.36742153763771
1 0.51475059986115 0.43843659758568
1 0.58220851421356 0.5162308216095
1 0.65012919902802 0.59517723321915
1 0.71725124120712 0.66809874773026
1 0.77791786193848 0.73475337028503
1 0.8354931473732 0.79626309871674
1 0.88790327310562 0.85269790887833
1 0.93636131286621 0.9035382270813
0.00048185657942668 0.29268619418144 0.0024294222239405
0.0018046001205221 0.29322969913483 0.0014172252267599
0.005983479321003 0.29390904307365 0.00073695712490007
0.013979348354042 0.29458838701248 0.00026454872568138
0.027792070060968 0.29553949832916 2.8344506063149e-05
0.037470128387213 0.29581123590469 0
0.045108649879694 0.29621884226799 0
0.054126210510731 0.29689818620682 0
0.068714410066605 0.29716995358467 0
0.087854459881783 0.29812103509903 0
0.11458990722895 0.29947975277901 0
0.1505401134491 0.3002949655056 0
0.19721330702305 0.30246889591217 0
0.25715151429176 0.30328410863876 0
0.34080663323402 0.30477869510651 0
0.43126764893532 0.29703405499458 0
0.54069000482559 0.287930727005 0
0.6613872051239 0.28032198548317 0.0082676243036985
0.77410584688187 0.28195244073868 0.043473787605762
0.87278950214386 0.29920798540115 0.098076157271862
0.95811814069748 0.33092281222343 0.16238039731979
1 0.37191686034203 0.2360085695982
1 0.42215114831924 0.30939829349518
1 0.47305727005005 0.37765225768089
1 0.52955454587936 0.44490611553192
1 0.59332454204559 0.52011632919312
1 0.65792322158813 0.59826499223709
1 0.7222518324852 0.67026376724243
1 0.78101509809494 0.73634451627731
1 0.8374879360199 0.79721611738205
1 0.88920617103577 0.85344594717026
1 0.93744915723801 0.90379881858826
0.010212283581495 0.39116021990776 0
0.014428654685616 0.39116021990776 0
0.020126719027758 0.39116021990776 0
0.027210528030992 0.39116021990776 0
0.035767268389463 0.39132505655289 0
0.043473787605762 0.39132505655289 0
0.053025361150503 0.39132505655289 0
0.068057611584663 0.39132505655289 0
0.082675412297249 0.39148992300034 0
0.099051974713802 0.39132505655289 0
0.12332928180695 0.39148992300034 0
0.15721045434475 0.39181959629059 0
0.20068742334843 0.39148992300034 0
0.25829067826271 0.39181959629059 0
0.33208560943604 0.38984146714211 0
0.43284133076668 0.38803800940514 0
0.53268027305603 0.37362197041512 0.00024565236526541
0.64623218774796 0.35579571127892 0.020756920799613
0.75623708963394 0.3473474085331 0.057061806321144
0.85593938827515 0.35393559932709 0.10986097157001
0.9420725107193 0.37548211216927 0.17825891077518
0.99592059850693 0.4104471206665 0.24791148304939
1 0.4525995850563 0.32307386398315
1 0.49865353107452 0.38710793852806
1 0.547527551651 0.45312416553497
1 0.60670495033264 0.52662414312363
1 0.66918122768402 0.60217618942261
1 0.72907090187073 0.67307823896408
1 0.78554183244705 0.73816293478012
1 0.84023070335388 0.79840737581253
1 0.89103025197983 0.85419398546219
1 0.93880897760391 0.90458053350449
0.037586230784655 0.48995742201805 0
0.043746266514063 0.48958736658096 0
0.049786180257797 0.48921731114388 0
0.056694854050875 0.48903229832649 0
0.063981421291828 0.4886622428894 0
0.07086393237114 0.48847723007202 0
0.076834820210934 0.48829218745232 0
0.085500344634056 0.48810717463493 0
0.098001100122929 0.48792216181755 0
0.11489015817642 0.48773711919785 0
0.13629356026649 0.48699703812599 0
0.16597552597523 0.48607191443443 0
0.20611575245857 0.48533180356026 0
0.25639206171036 0.48403665423393 0
0.32423669099808 0.48218640685081 0.00032123771961778
0.4094580411911 0.47663569450378 0.0043965955264866
0.52310770750046 0.47095906734467 0.015977898612618
0.6235848069191 0.44927740097046 0.041838921606541
0.73043465614319 0.4300636947155 0.085500344634056
0.83250099420547 0.42264565825462 0.13089177012444
0.92282128334045 0.4300636947155 0.18885368108749
0.99048137664795 0.45382356643677 0.26588523387909
1 0.49088254570961 0.33717286586761
1 0.52935916185379 0.40665566921234
1 0.57136136293411 0.46571350097656
1 0.62214386463165 0.5358060002327
1 0.68111038208008 0.60773420333862
1 0.73748099803925 0.67654228210449
1 0.79221284389496 0.74075078964233
1 0.84422022104263 0.80008620023727
1 0.89363604784012 0.85544073581696
1 0.94044071435928 0.90536230802536
0.072117812931538 0.58653146028519 0.0090801054611802
0.076476566493511 0.58632558584213 0.0093682957813144
0.080926641821861 0.58611971139908 0.0096153169870377
0.085903912782669 0.58570802211761 0.0098211672157049
0.090881183743477 0.58529633283615 0.010047603398561
0.095858447253704 0.5850904583931 0.010294623672962
0.10167916119099 0.58467876911163 0.010603399947286
0.10971084982157 0.58426707983017 0.01101510040462
0.12108546495438 0.58364951610565 0.011550311930478
0.13554561138153 0.58303195238113 0.012661905027926
0.15456059575081 0.5817968249321 0.014428654685616
0.17985674738884 0.57994419336319 0.017080750316381
0.21474593877792 0.57809150218964 0.019706586375833
0.26069563627243 0.5752095580101 0.023559730499983
0.32016685605049 0.57175207138062 0.033290386199951
0.3942922949791 0.5678448677063 0.041566446423531
0.48810717463493 0.56042122840881 0.059525605291128
0.60629326105118 0.55221617221832 0.085231304168701
0.70452237129211 0.52584272623062 0.11474003642797
0.80332767963409 0.50716465711594 0.16817255318165
0.89676308631897 0.49994871020317 0.21791771054268
0.97226005792618 0.50679457187653 0.27651759982109
1 0.53170347213745 0.35579571127892
1 0.56628203392029 0.42165660858154
1 0.60052937269211 0.48348158597946
1 0.64536619186401 0.54616004228592
1 0.69565761089325 0.61473315954208
1 0.74789834022522 0.68179225921631
1 0.80108362436295 0.74408632516861
1 0.84970581531525 0.80233031511307
1 0.89728420972824 0.85693681240082
1 0.94261640310287 0.90640461444855
0.13893555104733 0.67004722356796 0.068893536925316
0.14295603334904 0.66983073949814 0.069311499595642
0.14697651565075 0.66939777135849 0.069729462265968
0.15090560913086 0.66918122768402 0.070147424936295
0.15483471751213 0.6689647436142 0.070565387606621
0.15885519981384 0.66874825954437 0.070983350276947
0.16407810151577 0.66831523180008 0.071520730853081
0.17116850614548 0.66766571998596 0.072177521884441
0.18035607039928 0.66701626777649 0.073252283036709
0.19167640805244 0.6661502122879 0.074685297906399
0.206767141819 0.66506773233414 0.076595984399319
0.22684566676617 0.66355222463608 0.079984992742538
0.25373396277428 0.6613872051239 0.084491439163685
0.29024052619934 0.65922224521637 0.089872270822525
0.33644610643387 0.65597468614578 0.097325533628464
0.39643526077271 0.6518611907959 0.10768415778875
0.47025963664055 0.6470981836319 0.12382790446281
0.56413304805756 0.63887113332748 0.14003203809261
0.68315607309341 0.62891215085983 0.1697703897953
0.77553534507751 0.60155862569809 0.20394441485405
0.8665354847908 0.58241438865662 0.25816410779953
0.95240694284439 0.57438617944717 0.30899068713188
0.99809628725052 0.58241438865662 0.36804157495499
1 0.60691076517105 0.44508096575737
1 0.63562363386154 0.49643325805664
1 0.67026376724243 0.55768620967865
1 0.71634203195572 0.62317311763763
1 0.76243156194687 0.68770211935043
1 0.8110573887825 0.7490895986557
1 0.85718613862991 0.80532246828079
1 0.90249586105347 0.85918086767197
1 0.94587993621826 0.90796810388565
0.2221467345953 0.74384808540344 0.14999186992645
0.22508357465267 0.74337154626846 0.1505401134491
0.22813786566257 0.74337154626846 0.1509969830513
