Luts/AgX - Medium High Contrast.cube
LUT_3D_SIZE 5
DOMAIN_MIN 0.000000 0.000000 0.000000
DOMAIN_MAX 0.903226 0.903226 0.903226
0 0 0
0.0039903316646814 0 1.8896336769103e-05
0.24689887464046 0.00061413092771545 0
1 0.24317441880703 0.20079599320889
1 0.76814961433411 0.73066198825836
0 0.011035685427487 0.002220319584012
0.016896940767765 0.014901305548847 0
0.27746868133545 0.034567527472973 0
1 0.26664468646049 0.20850421488285
1 0.77005559206009 0.73134386539459
0.00048185657942668 0.29268619418144 0.0024294222239405
0.054126210510731 0.29689818620682 0
0.34080663323402 0.30477869510651 0
1 0.37191686034203 0.2360085695982
1 0.78101509809494 0.73634451627731
0.40055641531944 0.86757785081863 0.33484727144241
0.41110649704933 0.86627489328384 0.33717286586761
0.47885596752167 0.8599289059639 0.35083538293839
0.86914134025574 0.82427263259888 0.44700434803963
1 0.8599289059639 0.77267634868622
0.89572072029114 1 0.85718613862991
0.89650249481201 1 0.85718613862991
0.90119296312332 1 0.85793417692184
0.94016873836517 1 0.86392968893051
1 1 0.91448265314102
0 0.00037792674265802 0.004375213291496
0.0084362523630261 0 0.010685740038753
0.25120243430138 0 0.02766283787787
1 0.23025238513947 0.20503008365631
1 0.77005559206009 0.73520797491074
3.7792673538206e-05 0.01605667360127 0.016608098521829
0.016450548544526 0.016450548544526 0.016450548544526
0.33455654978752 0.011756163090467 0.0058608404360712
1 0.25474655628204 0.21252116560936
1 0.77196156978607 0.73611718416214
0.00012282618263271 0.30178955197334 0.033483892679214
0.019995428621769 0.30885481834412 0.003370244288817
0.34124267101288 0.30668088793755 0.0061674369499087
1 0.37408700585365 0.25221505761147
1 0.78292113542557 0.74098908901215
0.41259011626244 0.86523258686066 0.36029103398323
0.42165660858154 0.86392968893051 0.36199617385864
0.48810717463493 0.85843288898468 0.37501707673073
0.86809897422791 0.82427263259888 0.45959368348122
1 0.86142498254776 0.77577358484268
0.89676308631897 1 0.85868221521378
0.8975448012352 1 0.85893154144287
0.9019747376442 1 0.85918086767197
0.94071269035339 1 0.86523258686066
1 1 0.91552501916885
4.7240842832252e-05 0.022752033546567 0.2360085695982
0.016266740858555 0.016765648499131 0.29472425580025
0.31130048632622 0.005523584317416 0.33586472272873
1 0.29567536711693 0.37920236587524
1 0.78268283605576 0.76028734445572
0 0.053759261965752 0.27120143175125
0.0028891421388835 0.039659105241299 0.34531250596046
0.32162037491798 0.043519198894501 0.34196943044662
0.99836826324463 0.32714369893074 0.38951176404953
1 0.78435063362122 0.76076382398605
0.00020785970264114 0.32946929335594 0.33513796329498
0.026822831481695 0.33179488778114 0.33673682808876
0.33164954185486 0.33194026350975 0.33164954185486
0.97470772266388 0.44001024961472 0.41852453351021
1 0.79507184028625 0.76457583904266
0.46711230278015 0.85618877410889 0.4845917224884
0.47700574994087 0.85569006204605 0.48607191443443
0.53111737966537 0.8514512181282 0.49365788698196
0.86142498254776 0.82801282405853 0.54322963953018
1 0.86888074874878 0.79316586256027
0.90249586105347 1 0.86809897422791
0.90301704406738 1 0.86783844232559
0.90718638896942 1 0.86862015724182
0.94397622346878 1 0.87539529800415
1 1 0.92230015993118
0.21956233680248 0.32350993156433 0.95295089483261
0.2536073923111 0.33034139871597 0.94587993621826
0.3759471476078 0.35936096310616 0.93799310922623
0.86445087194443 0.47305727005005 0.88790327310562
1 0.83250099420547 0.87878286838531
0.19482484459877 0.32554483413696 0.96600496768951
0.23318921029568 0.3338298201561 0.96002185344696
0.37424203753471 0.36990171670914 0.94180053472519
0.86523258686066 0.48514679074287 0.88607919216156
1 0.83499449491501 0.87956464290619
0.22461368143559 0.4229753613472 0.956214427948
0.25208848714828 0.43126764893532 0.95104718208313
0.40616115927696 0.47113391757011 0.92620885372162
0.85718613862991 0.56491446495056 0.87278950214386
1 0.84920710325241 0.88347333669662
0.55631870031357 0.8514512181282 0.85643810033798
0.56530523300171 0.8514512181282 0.85593938827515
0.61308634281158 0.84945642948151 0.85344594717026
0.84621495008469 0.84621495008469 0.84621495008469
1 0.91265857219696 0.90093237161636
0.93391370773315 1 0.93744915723801
0.93445760011673 1 0.93744915723801
0.9385370016098 1 0.93799310922623
0.96654891967773 1 0.9420725107193
1 1 0.96845263242722
0.71997880935669 0.79697787761688 1
0.7231610417366 0.79816913604736 1
0.74408632516861 0.80432510375977 1
0.85618877410889 0.83873462677002 1
1 0.92594832181931 1
0.72088801860809 0.79912209510803 1
0.72452485561371 0.80058491230011 1
0.74575406312943 0.80656915903091 1
0.85693681240082 0.84072941541672 1
1 0.92725121974945 1
0.72679787874222 0.81230407953262 1
0.73020738363266 0.81380015611649 1
0.75480759143829 0.82227790355682 1
0.8599289059639 0.85219925642014 1
1 0.93445760011673 1
0.79221284389496 0.8991082906723 1
0.79435712099075 0.89989006519318 1
0.80806523561478 0.90431994199753 1
0.8975448012352 0.92907530069351 1
1 0.97933101654053 1
0.97606748342514 1 1
0.97661143541336 1 1
0.97933101654053 1 1
0.99510473012924 1 1
1 1 1
